%
(Header)
(Generated by gcodetools from Inkscape.)
(Using default header. To add your own header create file "header" in the output dir.)
M3
(Header end.)
G21 (All units in mm)

(Start cutting path id: path2300)
(Change tool to Cylindrical cutter)

G00 Z1.000000
G00 X2.965282 Y30.884930

G00 Z1.000000

(End cutting path id: path2300)


(Start cutting path id: path2280)
(Change tool to Cylindrical cutter)

G00 Z1.000000
G00 X2.965282 Y28.397840

G00 Z1.000000

(End cutting path id: path2280)


(Start cutting path id: path2256)
(Change tool to Cylindrical cutter)

G00 Z1.000000
G00 X2.965282 Y41.476200

G00 Z1.000000

(End cutting path id: path2256)


(Start cutting path id: path2232)
(Change tool to Cylindrical cutter)

G00 Z1.000000
G00 X2.965282 Y38.989120

G00 Z1.000000

(End cutting path id: path2232)


(Start cutting path id: path2222)
(Change tool to Cylindrical cutter)

G00 Z1.000000
G00 X6.735594 Y15.025800

G00 Z1.000000

(End cutting path id: path2222)


(Start cutting path id: path2220)
(Change tool to Cylindrical cutter)

G00 Z1.000000
G00 X9.159178 Y18.100260

G00 Z1.000000

(End cutting path id: path2220)


(Start cutting path id: path2212)
(Change tool to Cylindrical cutter)

G00 Z1.000000
G00 X9.159178 Y17.478490

G00 Z1.000000

(End cutting path id: path2212)


(Start cutting path id: path2210)
(Change tool to Cylindrical cutter)

G00 Z1.000000
G00 X9.159178 Y17.028700

G00 Z1.000000

(End cutting path id: path2210)


(Start cutting path id: path2188)
(Change tool to Cylindrical cutter)

G00 Z1.000000
G00 X2.965282 Y30.884930

G00 Z1.000000

(End cutting path id: path2188)


(Start cutting path id: path2176)
(Change tool to Cylindrical cutter)

G00 Z1.000000
G00 X1.957219 Y24.833910

G00 Z1.000000

(End cutting path id: path2176)


(Start cutting path id: path2162)
(Change tool to Cylindrical cutter)

G00 Z1.000000
G00 X2.965282 Y28.397840

G00 Z1.000000

(End cutting path id: path2162)


(Start cutting path id: path2138)
(Change tool to Cylindrical cutter)

G00 Z1.000000
G00 X2.965282 Y41.476200

G00 Z1.000000

(End cutting path id: path2138)


(Start cutting path id: path2114)
(Change tool to Cylindrical cutter)

G00 Z1.000000
G00 X2.965282 Y38.989120

G00 Z1.000000

(End cutting path id: path2114)


(Start cutting path id: path2102)
(Change tool to Cylindrical cutter)

G00 Z1.000000
G00 X6.735594 Y15.025800

G00 Z1.000000

(End cutting path id: path2102)


(Start cutting path id: path2100)
(Change tool to Cylindrical cutter)

G00 Z1.000000
G00 X9.159178 Y18.100260

G00 Z1.000000

(End cutting path id: path2100)


(Start cutting path id: path2092)
(Change tool to Cylindrical cutter)

G00 Z1.000000
G00 X9.159178 Y17.478490

G00 Z1.000000

(End cutting path id: path2092)


(Start cutting path id: path2090)
(Change tool to Cylindrical cutter)

G00 Z1.000000
G00 X9.159178 Y17.028700

G00 Z1.000000

(End cutting path id: path2090)


(Start cutting path id: path2086)
(Change tool to Cylindrical cutter)

G00 Z1.000000
G00 X17.504139 Y30.884930

G00 Z1.000000

(End cutting path id: path2086)


(Start cutting path id: path2068)
(Change tool to Cylindrical cutter)

G00 Z1.000000
G00 X17.504139 Y28.397840

G00 Z1.000000

(End cutting path id: path2068)


(Start cutting path id: path2044)
(Change tool to Cylindrical cutter)

G00 Z1.000000
G00 X17.504139 Y41.476200

G00 Z1.000000

(End cutting path id: path2044)


(Start cutting path id: path2020)
(Change tool to Cylindrical cutter)

G00 Z1.000000
G00 X17.504139 Y38.989120

G00 Z1.000000

(End cutting path id: path2020)


(Start cutting path id: path2010)
(Change tool to Cylindrical cutter)

G00 Z1.000000
G00 X13.736472 Y15.025800

G00 Z1.000000

(End cutting path id: path2010)


(Start cutting path id: path2008)
(Change tool to Cylindrical cutter)

G00 Z1.000000
G00 X11.320824 Y18.100260

G00 Z1.000000

(End cutting path id: path2008)


(Start cutting path id: path1998)
(Change tool to Cylindrical cutter)

G00 Z1.000000
G00 X11.320824 Y17.478490

G00 Z1.000000

(End cutting path id: path1998)


(Start cutting path id: path1996)
(Change tool to Cylindrical cutter)

G00 Z1.000000
G00 X11.320824 Y17.028700

G00 Z1.000000

(End cutting path id: path1996)


(Start cutting path id: path1976)
(Change tool to Cylindrical cutter)

G00 Z1.000000
G00 X17.504139 Y30.884930

G00 Z1.000000

(End cutting path id: path1976)


(Start cutting path id: path1964)
(Change tool to Cylindrical cutter)

G00 Z1.000000
G00 X18.514848 Y24.833910

G00 Z1.000000

(End cutting path id: path1964)


(Start cutting path id: path1950)
(Change tool to Cylindrical cutter)

G00 Z1.000000
G00 X17.504139 Y28.397840

G00 Z1.000000

(End cutting path id: path1950)


(Start cutting path id: path1926)
(Change tool to Cylindrical cutter)

G00 Z1.000000
G00 X17.504139 Y41.476200

G00 Z1.000000

(End cutting path id: path1926)


(Start cutting path id: path1902)
(Change tool to Cylindrical cutter)

G00 Z1.000000
G00 X17.504139 Y38.989120

G00 Z1.000000

(End cutting path id: path1902)


(Start cutting path id: path1890)
(Change tool to Cylindrical cutter)

G00 Z1.000000
G00 X13.736472 Y15.025800

G00 Z1.000000

(End cutting path id: path1890)


(Start cutting path id: path1888)
(Change tool to Cylindrical cutter)

G00 Z1.000000
G00 X11.320824 Y18.100260

G00 Z1.000000

(End cutting path id: path1888)


(Start cutting path id: path1880)
(Change tool to Cylindrical cutter)

G00 Z1.000000
G00 X11.320824 Y17.478490

G00 Z1.000000

(End cutting path id: path1880)


(Start cutting path id: path1878)
(Change tool to Cylindrical cutter)

G00 Z1.000000
G00 X11.320824 Y17.028700

G00 Z1.000000

(End cutting path id: path1878)



(Footer)
M5
G00 X0.0000 Y0.0000
M2
(Using default footer. To add your own footer create file "footer" in the output dir.)
(end)
%