%
(Header)
(Generated by gcodetools from Inkscape.)
(Using default header. To add your own header create file "header" in the output dir.)
M3
(Header end.)
G21 (All units in mm)

(Start cutting path id: path1160)
(Change tool to Cylindrical cutter)

G00 Z10.000000
G00 X11.940144 Y1.163217

G00 Z4.950000 (Fast pre-penetrate)
G01 Z-0.050000 F300.0(Penetrate)
G01 X11.637503 Y1.163217 Z-0.050000 F50.000000
G01 X11.637503 Y2.284531 Z-0.050000
G03 X11.633640 Y2.420050 Z-0.050000 I-2.379042 J-0.000000
G03 X11.623017 Y2.538419 Z-0.050000 I-1.825123 J-0.104135
G03 X11.599495 Y2.655287 Z-0.050000 I-0.755903 J-0.091341
G03 X11.569889 Y2.725297 Z-0.050000 I-0.297764 J-0.084652
G03 X11.520407 Y2.789566 Z-0.050000 I-0.225736 J-0.122618
G03 X11.453985 Y2.834607 Z-0.050000 I-0.172547 J-0.182956
G03 X11.375766 Y2.860606 Z-0.050000 I-0.135214 J-0.276141
G03 X11.257590 Y2.871654 Z-0.050000 I-0.118176 J-0.626475
G03 X11.137219 Y2.856352 Z-0.050000 I-0.000000 J-0.481089
G03 X10.998414 Y2.804676 Z-0.050000 I0.179346 J-0.693992
G03 X10.868291 Y2.729900 Z-0.050000 I0.540319 J-1.090857
G03 X10.739237 Y2.633663 Z-0.050000 I0.771434 J-1.169136
G01 X10.739237 Y1.163259 Z-0.050000
G01 X10.436597 Y1.163259 Z-0.050000
G01 X10.436597 Y3.906608 Z-0.050000
G01 X10.739237 Y3.906608 Z-0.050000
G01 X10.739237 Y2.913986 Z-0.050000
G02 X10.888187 Y3.031851 Z-0.050000 I0.938209 J-1.032597
G02 X11.032219 Y3.114983 Z-0.050000 I0.605014 J-0.881898
G02 X11.187583 Y3.169460 Z-0.050000 I0.327599 J-0.685506
G02 X11.342909 Y3.187298 Z-0.050000 I0.155326 J-0.667334
G02 X11.607837 Y3.132458 Z-0.050000 I0.000000 J-0.667347
G02 X11.787212 Y2.995124 Z-0.050000 I-0.184726 J-0.427082
G02 X11.893353 Y2.786605 Z-0.050000 I-0.457787 J-0.364300
G02 X11.940141 Y2.441520 Z-0.050000 I-1.249204 J-0.345085
G01 X11.940144 Y1.163217 Z-0.050000
G00 Z10.000000

(End cutting path id: path1160)


(Start cutting path id: path1158)
(Change tool to Cylindrical cutter)

G00 Z10.000000
G00 X9.850637 Y1.163217

G00 Z4.950000 (Fast pre-penetrate)
G01 Z-0.050000 F300.0(Penetrate)
G01 X9.549606 Y1.163217 Z-0.050000 F50.000000
G01 X9.549606 Y1.373015 Z-0.050000
G03 X9.509649 Y1.342709 Z-0.050000 I1.587093 J-2.133985
G03 X9.440140 Y1.288350 Z-0.050000 I5.037298 J-6.512931
G02 X9.370399 Y1.238889 Z-0.050000 I-0.565344 J0.723251
G02 X9.308137 Y1.203686 Z-0.050000 I-0.346827 J0.540750
G02 X9.230519 Y1.168126 Z-0.050000 I-0.325764 J0.608562
G02 X9.134280 Y1.136708 Z-0.050000 I-0.348911 J0.905684
G02 X9.034954 Y1.116454 Z-0.050000 I-0.177550 J0.617027
G02 X8.904080 Y1.108452 Z-0.050000 I-0.130874 J1.066216
G02 X8.680544 Y1.154261 Z-0.050000 I0.000000 J0.568304
G02 X8.491974 Y1.284761 Z-0.050000 I0.225779 J0.527739
G02 X8.369238 Y1.479675 Z-0.050000 I0.413661 J0.396579
G02 X8.322946 Y1.734350 Z-0.050000 I0.677395 J0.254674
G02 X8.348612 Y1.950823 Z-0.050000 I0.925715 J0.000000
G02 X8.409874 Y2.095779 Z-0.050000 I0.469071 J-0.112818
G02 X8.514344 Y2.217233 Z-0.050000 I0.470661 J-0.299187
G02 X8.661001 Y2.314399 Z-0.050000 I0.441592 J-0.507254
G02 X8.829934 Y2.377626 Z-0.050000 I0.427456 J-0.884790
G02 X9.055400 Y2.421950 Z-0.050000 I0.419528 J-1.538432
G02 X9.285968 Y2.445903 Z-0.050000 I0.774264 J-6.331274
G02 X9.549605 Y2.464230 Z-0.050000 I0.706643 J-8.259905
G01 X9.549605 Y2.515301 Z-0.050000
G03 X9.538786 Y2.625583 Z-0.050000 I-0.567483 J0.000000
G03 X9.512580 Y2.702190 Z-0.050000 I-0.297174 J-0.058874
G03 X9.468565 Y2.768604 Z-0.050000 I-0.258668 J-0.123637
G03 X9.409554 Y2.818553 Z-0.050000 I-0.202114 J-0.178949
G03 X9.342197 Y2.851141 Z-0.050000 I-0.180090 J-0.286324
G03 X9.255014 Y2.873182 Z-0.050000 I-0.162828 J-0.460625
G03 X9.164580 Y2.883643 Z-0.050000 I-0.174961 J-1.116388
G03 X9.066668 Y2.887310 Z-0.050000 I-0.097911 J-1.305278
G03 X8.948471 Y2.879498 Z-0.050000 I-0.000000 J-0.897996
G03 X8.801053 Y2.852042 Z-0.050000 I0.189413 J-1.426531
G03 X8.656637 Y2.812077 Z-0.050000 I0.369237 J-1.615159
G03 X8.498412 Y2.753355 Z-0.050000 I0.651611 J-1.998264
G01 X8.482314 Y2.753355 Z-0.050000
G01 X8.482314 Y3.090096 Z-0.050000
G02 X8.571586 Y3.113563 Z-0.050000 I0.394498 J-1.319182
G02 X8.738271 Y3.148283 Z-0.050000 I1.038525 J-4.568329
G02 X8.906417 Y3.172234 Z-0.050000 I0.345958 J-1.826555
G02 X9.068278 Y3.179993 Z-0.050000 I0.161861 J-1.684498
G02 X9.256987 Y3.169938 Z-0.050000 I0.000000 J-1.775824
G02 X9.398285 Y3.144725 Z-0.050000 I-0.108859 J-1.018605
G02 X9.533142 Y3.097321 Z-0.050000 I-0.155586 J-0.658145
G02 X9.642973 Y3.028361 Z-0.050000 I-0.239051 J-0.502674
G02 X9.730755 Y2.937022 Z-0.050000 I-0.303588 J-0.379615
G02 X9.797513 Y2.818553 Z-0.050000 I-0.450943 J-0.332156
G02 X9.835146 Y2.686781 Z-0.050000 I-0.560508 J-0.231335
G02 X9.850631 Y2.499435 Z-0.050000 I-1.125511 J-0.187346
G01 X9.850637 Y1.163217 Z-0.050000
G00 Z10.000000

(End cutting path id: path1158)


(Start cutting path id: path1158)
(Change tool to Cylindrical cutter)

G00 Z10.000000
G00 X9.549606 Y1.648063

G00 Z4.950000 (Fast pre-penetrate)
G01 Z-0.050000 F300.0(Penetrate)
G01 X9.549606 Y2.196382 Z-0.050000 F50.000000
G03 X9.411274 Y2.186596 Z-0.050000 I0.409456 J-6.770698
G03 X9.222818 Y2.169904 Z-0.050000 I1.019569 J-12.583750
G03 X9.037483 Y2.145154 Z-0.050000 I0.230067 J-2.429096
G03 X8.926617 Y2.118729 Z-0.050000 I0.154336 J-0.893293
G03 X8.805033 Y2.064213 Z-0.050000 I0.164599 J-0.529932
G03 X8.715734 Y1.991785 Z-0.050000 I0.213088 J-0.353987
G03 X8.658680 Y1.897759 Z-0.050000 I0.187034 J-0.177813
G03 X8.635245 Y1.757300 Z-0.050000 I0.409188 J-0.140459
G03 X8.663036 Y1.600193 Z-0.050000 I0.457958 J-0.000000
G03 X8.728612 Y1.501654 Z-0.050000 I0.236761 J0.086471
G03 X8.832159 Y1.443368 Z-0.050000 I0.179775 J0.198256
G03 X9.013545 Y1.416990 Z-0.050000 I0.181386 J0.610446
G03 X9.168704 Y1.434593 Z-0.050000 I0.000000 J0.692586
G03 X9.304917 Y1.483968 Z-0.050000 I-0.133574 J0.581082
G03 X9.432347 Y1.559541 Z-0.050000 I-0.621491 J1.193168
G03 X9.549605 Y1.647938 Z-0.050000 I-0.735738 J1.097922
G01 X9.549606 Y1.648063 Z-0.050000
G00 Z10.000000

(End cutting path id: path1158)


(Start cutting path id: path1156)
(Change tool to Cylindrical cutter)

G00 Z10.000000
G00 X8.223138 Y2.771135

G00 Z4.950000 (Fast pre-penetrate)
G01 Z-0.050000 F300.0(Penetrate)
G01 X8.207040 Y2.771135 Z-0.050000 F50.000000
G03 X8.138980 Y2.786384 Z-0.050000 I-0.249041 J-0.952030
G03 X8.075038 Y2.795833 Z-0.050000 I-0.155431 J-0.830726
G03 X8.012095 Y2.801781 Z-0.050000 I-0.108974 J-0.817179
G03 X7.925327 Y2.804205 Z-0.050000 I-0.086768 J-1.551562
G03 X7.789482 Y2.787207 Z-0.050000 I-0.000000 J-0.551322
G03 X7.654882 Y2.735448 Z-0.050000 I0.150728 J-0.592864
G03 X7.530003 Y2.660431 Z-0.050000 I0.501351 J-0.976034
G03 X7.403755 Y2.560908 Z-0.050000 I0.762582 J-1.097198
G01 X7.403755 Y1.162788 Z-0.050000
G01 X7.101115 Y1.162788 Z-0.050000
G01 X7.101115 Y3.132146 Z-0.050000
G01 X7.403755 Y3.132146 Z-0.050000
G01 X7.403755 Y2.841232 Z-0.050000
G02 X7.591145 Y2.989157 Z-0.050000 I1.476034 J-1.677167
G02 X7.720884 Y3.065147 Z-0.050000 I0.511112 J-0.723882
G02 X7.863075 Y3.115767 Z-0.050000 I0.303253 J-0.626819
G02 X8.002597 Y3.132125 Z-0.050000 I0.139522 J-0.586840
G02 X8.081345 Y3.130323 Z-0.050000 I0.000000 J-1.721859
G02 X8.116892 Y3.126892 Z-0.050000 I-0.016188 J-0.353583
G02 X8.152165 Y3.122692 Z-0.050000 I-0.052116 J-0.587880
G02 X8.223138 Y3.110985 Z-0.050000 I-0.358351 J-2.393461
G01 X8.223138 Y2.771135 Z-0.050000
G00 Z10.000000

(End cutting path id: path1156)


(Start cutting path id: path1154)
(Change tool to Cylindrical cutter)

G00 Z10.000000
G00 X6.515151 Y1.163217

G00 Z4.950000 (Fast pre-penetrate)
G01 Z-0.050000 F300.0(Penetrate)
G01 X6.214120 Y1.163217 Z-0.050000 F50.000000
G01 X6.214120 Y1.373015 Z-0.050000
G03 X6.174164 Y1.342709 Z-0.050000 I1.587057 J-2.133937
G03 X6.104655 Y1.288350 Z-0.050000 I5.037180 J-6.512772
G02 X6.034913 Y1.238889 Z-0.050000 I-0.565344 J0.723251
G02 X5.972652 Y1.203686 Z-0.050000 I-0.346827 J0.540750
G02 X5.895033 Y1.168126 Z-0.050000 I-0.325778 J0.608596
G02 X5.798795 Y1.136708 Z-0.050000 I-0.348916 J0.905698
G02 X5.699469 Y1.116454 Z-0.050000 I-0.177550 J0.617027
G02 X5.568595 Y1.108452 Z-0.050000 I-0.130874 J1.066216
G02 X5.345059 Y1.154261 Z-0.050000 I0.000000 J0.568304
G02 X5.156488 Y1.284761 Z-0.050000 I0.225779 J0.527739
G02 X5.033752 Y1.479675 Z-0.050000 I0.413661 J0.396579
G02 X4.987460 Y1.734350 Z-0.050000 I0.677395 J0.254674
G02 X5.013127 Y1.950823 Z-0.050000 I0.925715 J0.000000
G02 X5.074389 Y2.095779 Z-0.050000 I0.469071 J-0.112818
G02 X5.178859 Y2.217233 Z-0.050000 I0.470661 J-0.299187
G02 X5.325516 Y2.314399 Z-0.050000 I0.441592 J-0.507254
G02 X5.494449 Y2.377626 Z-0.050000 I0.427456 J-0.884791
G02 X5.719914 Y2.421950 Z-0.050000 I0.419528 J-1.538433
G02 X5.950483 Y2.445903 Z-0.050000 I0.774265 J-6.331277
G02 X6.214120 Y2.464230 Z-0.050000 I0.706643 J-8.259903
G01 X6.214120 Y2.515301 Z-0.050000
G03 X6.203301 Y2.625583 Z-0.050000 I-0.567483 J0.000000
G03 X6.177095 Y2.702190 Z-0.050000 I-0.297174 J-0.058874
G03 X6.133080 Y2.768604 Z-0.050000 I-0.258668 J-0.123637
G03 X6.074068 Y2.818553 Z-0.050000 I-0.202114 J-0.178949
G03 X6.006712 Y2.851141 Z-0.050000 I-0.180090 J-0.286324
G03 X5.919528 Y2.873182 Z-0.050000 I-0.162828 J-0.460625
G03 X5.829094 Y2.883643 Z-0.050000 I-0.174961 J-1.116388
G03 X5.731183 Y2.887310 Z-0.050000 I-0.097911 J-1.305278
G03 X5.612986 Y2.879498 Z-0.050000 I-0.000000 J-0.897996
G03 X5.465568 Y2.852042 Z-0.050000 I0.189413 J-1.426531
G03 X5.321152 Y2.812077 Z-0.050000 I0.369237 J-1.615157
G03 X5.162927 Y2.753355 Z-0.050000 I0.651610 J-1.998260
G01 X5.146829 Y2.753355 Z-0.050000
G01 X5.146829 Y3.090096 Z-0.050000
G02 X5.236100 Y3.113563 Z-0.050000 I0.394498 J-1.319182
G02 X5.402786 Y3.148283 Z-0.050000 I1.038525 J-4.568329
G02 X5.570932 Y3.172234 Z-0.050000 I0.345958 J-1.826555
G02 X5.732793 Y3.179993 Z-0.050000 I0.161861 J-1.684498
G02 X5.921501 Y3.169938 Z-0.050000 I0.000000 J-1.775824
G02 X6.062800 Y3.144725 Z-0.050000 I-0.108859 J-1.018605
G02 X6.197657 Y3.097321 Z-0.050000 I-0.155587 J-0.658147
G02 X6.307488 Y3.028361 Z-0.050000 I-0.239053 J-0.502679
G02 X6.395269 Y2.937022 Z-0.050000 I-0.303588 J-0.379614
G02 X6.462028 Y2.818553 Z-0.050000 I-0.450944 J-0.332155
G02 X6.499664 Y2.686781 Z-0.050000 I-0.560464 J-0.231338
G02 X6.515151 Y2.499435 Z-0.050000 I-1.125407 J-0.187345
G01 X6.515151 Y1.163217 Z-0.050000
G00 Z10.000000

(End cutting path id: path1154)


(Start cutting path id: path1154)
(Change tool to Cylindrical cutter)

G00 Z10.000000
G00 X6.214120 Y1.648063

G00 Z4.950000 (Fast pre-penetrate)
G01 Z-0.050000 F300.0(Penetrate)
G01 X6.214120 Y2.196382 Z-0.050000 F50.000000
G03 X6.075789 Y2.186596 Z-0.050000 I0.409456 J-6.770698
G03 X5.887333 Y2.169904 Z-0.050000 I1.019569 J-12.583750
G03 X5.701997 Y2.145154 Z-0.050000 I0.230068 J-2.429096
G03 X5.591131 Y2.118729 Z-0.050000 I0.154336 J-0.893296
G03 X5.469547 Y2.064213 Z-0.050000 I0.164599 J-0.529932
G03 X5.380249 Y1.991785 Z-0.050000 I0.213088 J-0.353987
G03 X5.323195 Y1.897759 Z-0.050000 I0.187034 J-0.177813
G03 X5.299759 Y1.757300 Z-0.050000 I0.409188 J-0.140459
G03 X5.327551 Y1.600193 Z-0.050000 I0.457958 J-0.000000
G03 X5.393127 Y1.501654 Z-0.050000 I0.236761 J0.086471
G03 X5.496673 Y1.443368 Z-0.050000 I0.179775 J0.198256
G03 X5.678060 Y1.416990 Z-0.050000 I0.181386 J0.610446
G03 X5.833218 Y1.434593 Z-0.050000 I-0.000000 J0.692587
G03 X5.969432 Y1.483968 Z-0.050000 I-0.133574 J0.581082
G03 X6.096862 Y1.559541 Z-0.050000 I-0.621491 J1.193168
G03 X6.214120 Y1.647938 Z-0.050000 I-0.735740 J1.097924
G01 X6.214120 Y1.648063 Z-0.050000
G00 Z10.000000

(End cutting path id: path1154)


(Start cutting path id: path1152)
(Change tool to Cylindrical cutter)

G00 Z10.000000
G00 X4.630087 Y1.912521

G00 Z4.950000 (Fast pre-penetrate)
G01 Z-0.050000 F300.0(Penetrate)
G02 X4.613953 Y1.762527 Z-0.050000 I-0.705307 J-0.000000 F50.000000
G02 X4.564086 Y1.609268 Z-0.050000 I-0.786568 J0.171192
G02 X4.485363 Y1.469768 Z-0.050000 I-0.682981 J0.293458
G02 X4.382179 Y1.355391 Z-0.050000 I-0.558832 J0.400410
G02 X4.245080 Y1.256546 Z-0.050000 I-0.588128 J0.671244
G02 X4.081149 Y1.179082 Z-0.050000 I-0.519037 J0.886207
G02 X3.907224 Y1.133808 Z-0.050000 I-0.308742 J0.829336
G02 X3.669042 Y1.115558 Z-0.050000 I-0.238182 J1.545176
G02 X3.411685 Y1.130079 Z-0.050000 I-0.000000 J2.287845
G02 X3.202203 Y1.168408 Z-0.050000 I0.175662 J1.551677
G02 X3.000050 Y1.231884 Z-0.050000 I0.495182 J1.930640
G02 X2.782048 Y1.325324 Z-0.050000 I0.873800 J2.339662
G01 X2.782048 Y1.762564 Z-0.050000
G01 X2.804585 Y1.762564 Z-0.050000
G03 X2.998890 Y1.617062 Z-0.050000 I0.851536 J0.934661
G03 X3.224741 Y1.506918 Z-0.050000 I0.704251 J1.157439
G03 X3.466718 Y1.437462 Z-0.050000 I0.547295 J1.450468
G03 X3.672262 Y1.417021 Z-0.050000 I0.205545 J1.023236
G03 X3.956286 Y1.453914 Z-0.050000 I0.000000 J1.111736
G03 X4.132662 Y1.538680 Z-0.050000 I-0.132590 J0.501767
G03 X4.254964 Y1.682369 Z-0.050000 I-0.242049 J0.329915
G03 X4.298471 Y1.863083 Z-0.050000 I-0.353566 J0.180714
G03 X4.273805 Y2.027760 Z-0.050000 I-0.562048 J0.000000
G03 X4.219591 Y2.120487 Z-0.050000 I-0.223610 J-0.068524
G03 X4.132758 Y2.187782 Z-0.050000 I-0.250412 J-0.233447
G03 X3.982952 Y2.249200 Z-0.050000 I-0.355310 J-0.653240
G03 X3.861302 Y2.280419 Z-0.050000 I-0.533793 J-1.827354
G03 X3.720556 Y2.307387 Z-0.050000 I-0.536612 J-2.419867
G02 X3.580918 Y2.332448 Z-0.050000 I0.745296 J4.554305
G02 X3.422745 Y2.365574 Z-0.050000 I1.148286 J5.877129
G02 X3.126358 Y2.476775 Z-0.050000 I0.275336 J1.184439
G02 X2.949466 Y2.617693 Z-0.050000 I0.291812 J0.547790
G02 X2.839833 Y2.813449 Z-0.050000 I0.442855 J0.376599
G02 X2.796536 Y3.084905 Z-0.050000 I0.829318 J0.271456
G02 X2.863309 Y3.383125 Z-0.050000 I0.699340 J0.000000
G02 X3.050883 Y3.624412 Z-0.050000 I0.632633 J-0.298251
G02 X3.326582 Y3.776920 Z-0.050000 I0.537442 J-0.646118
G02 X3.696409 Y3.835978 Z-0.050000 I0.369827 J-1.128408
G02 X3.947387 Y3.821719 Z-0.050000 I-0.000000 J-2.215939
G02 X4.160029 Y3.783128 Z-0.050000 I-0.185497 J-1.627258
G02 X4.367574 Y3.721008 Z-0.050000 I-0.581888 J-2.321867
G02 X4.533500 Y3.652658 Z-0.050000 I-0.541655 J-1.550482
G01 X4.533500 Y3.240095 Z-0.050000
G01 X4.510963 Y3.240095 Z-0.050000
G03 X4.363311 Y3.349443 Z-0.050000 I-0.566669 J-0.610809
G03 X4.150370 Y3.449903 Z-0.050000 I-0.688096 J-1.182618
G03 X3.924325 Y3.513421 Z-0.050000 I-0.464214 J-1.218055
G03 X3.694799 Y3.534567 Z-0.050000 I-0.229527 J-1.235062
G03 X3.450080 Y3.500680 Z-0.050000 I-0.000000 J-0.900569
G03 X3.282693 Y3.418204 Z-0.050000 I0.139612 J-0.494443
G03 X3.167838 Y3.282045 Z-0.050000 I0.240474 J-0.319368
G03 X3.128153 Y3.118478 Z-0.050000 I0.317233 J-0.163567
G03 X3.151023 Y2.962739 Z-0.050000 I0.541696 J-0.000000
G03 X3.205423 Y2.861063 Z-0.050000 I0.278433 J0.083579
G03 X3.295550 Y2.787934 Z-0.050000 I0.227066 J0.187741
G03 X3.477477 Y2.718254 Z-0.050000 I0.385809 J0.734974
G03 X3.580871 Y2.695286 Z-0.050000 I0.739318 J3.084022
G03 X3.770459 Y2.658288 Z-0.050000 I2.115166 J10.334262
G02 X3.959596 Y2.619503 Z-0.050000 I-0.943202 J-5.080130
G02 X4.092417 Y2.585973 Z-0.050000 I-0.570032 J-2.537871
G02 X4.341000 Y2.479405 Z-0.050000 I-0.308279 J-1.062310
G02 X4.494864 Y2.351488 Z-0.050000 I-0.304787 J-0.523107
G02 X4.589875 Y2.179635 Z-0.050000 I-0.363205 J-0.312991
G02 X4.630087 Y1.912479 Z-0.050000 I-0.867339 J-0.267156
G01 X4.630087 Y1.912521 Z-0.050000
G00 Z10.000000

(End cutting path id: path1152)


(Start cutting path id: path1150)
(Change tool to Cylindrical cutter)

G00 Z10.000000
G00 X10.166155 Y5.676696

G00 Z4.950000 (Fast pre-penetrate)
G01 Z-0.050000 F300.0(Penetrate)
G01 X9.865125 Y5.676696 Z-0.050000 F50.000000
G01 X9.865125 Y5.886505 Z-0.050000
G03 X9.825166 Y5.856198 Z-0.050000 I1.584191 J-2.130236
G03 X9.755659 Y5.801840 Z-0.050000 I5.027598 J-6.500384
G02 X9.685915 Y5.752379 Z-0.050000 I-0.565464 J0.723434
G02 X9.623656 Y5.717176 Z-0.050000 I-0.346868 J0.540815
G02 X9.546038 Y5.681616 Z-0.050000 I-0.325765 J0.608565
G02 X9.449799 Y5.650198 Z-0.050000 I-0.348911 J0.905683
G02 X9.350473 Y5.629944 Z-0.050000 I-0.177549 J0.617026
G02 X9.219599 Y5.621942 Z-0.050000 I-0.130874 J1.066216
G02 X8.996063 Y5.667751 Z-0.050000 I-0.000000 J0.568304
G02 X8.807493 Y5.798251 Z-0.050000 I0.225779 J0.527739
G02 X8.684757 Y5.993165 Z-0.050000 I0.413661 J0.396579
G02 X8.638465 Y6.247839 Z-0.050000 I0.677395 J0.254674
G02 X8.664131 Y6.464313 Z-0.050000 I0.925715 J-0.000000
G02 X8.725393 Y6.609269 Z-0.050000 I0.469071 J-0.112818
G02 X8.829863 Y6.730722 Z-0.050000 I0.470661 J-0.299187
G02 X8.976520 Y6.827888 Z-0.050000 I0.441592 J-0.507254
G02 X9.145454 Y6.891116 Z-0.050000 I0.427456 J-0.884791
G02 X9.370919 Y6.935440 Z-0.050000 I0.419528 J-1.538433
G02 X9.601488 Y6.959393 Z-0.050000 I0.774268 J-6.331314
G02 X9.865124 Y6.977720 Z-0.050000 I0.706643 J-8.259907
G01 X9.865124 Y7.028895 Z-0.050000
G03 X9.854304 Y7.139177 Z-0.050000 I-0.567421 J0.000000
G03 X9.828097 Y7.215774 Z-0.050000 I-0.297077 J-0.058861
G03 X9.784084 Y7.282187 Z-0.050000 I-0.258639 J-0.123613
G03 X9.725071 Y7.332137 Z-0.050000 I-0.202106 J-0.178942
G03 X9.657713 Y7.364726 Z-0.050000 I-0.180101 J-0.286351
G03 X9.570531 Y7.386766 Z-0.050000 I-0.162827 J-0.460621
G03 X9.480097 Y7.397227 Z-0.050000 I-0.174961 J-1.116386
G03 X9.382186 Y7.400894 Z-0.050000 I-0.097912 J-1.305288
G03 X9.263988 Y7.393082 Z-0.050000 I-0.000000 J-0.897996
G03 X9.116570 Y7.365626 Z-0.050000 I0.189413 J-1.426531
G03 X8.972155 Y7.325661 Z-0.050000 I0.369237 J-1.615159
G03 X8.813930 Y7.266939 Z-0.050000 I0.651611 J-1.998264
G01 X8.797832 Y7.266939 Z-0.050000
G01 X8.797832 Y7.603680 Z-0.050000
G02 X8.887103 Y7.627147 Z-0.050000 I0.394498 J-1.319182
G02 X9.053788 Y7.661867 Z-0.050000 I1.038525 J-4.568329
G02 X9.221935 Y7.685818 Z-0.050000 I0.345958 J-1.826555
G02 X9.383795 Y7.693577 Z-0.050000 I0.161861 J-1.684498
G02 X9.572504 Y7.683522 Z-0.050000 I-0.000000 J-1.775825
G02 X9.713802 Y7.658309 Z-0.050000 I-0.108858 J-1.018601
G02 X9.848660 Y7.610905 Z-0.050000 I-0.155586 J-0.658147
G02 X9.958490 Y7.541945 Z-0.050000 I-0.239052 J-0.502675
G02 X10.046272 Y7.450606 Z-0.050000 I-0.303588 J-0.379615
G02 X10.113031 Y7.332137 Z-0.050000 I-0.450943 J-0.332156
G02 X10.150663 Y7.200365 Z-0.050000 I-0.560508 J-0.231335
G02 X10.166149 Y7.013019 Z-0.050000 I-1.125511 J-0.187346
G01 X10.166155 Y5.676696 Z-0.050000
G00 Z10.000000

(End cutting path id: path1150)


(Start cutting path id: path1150)
(Change tool to Cylindrical cutter)

G00 Z10.000000
G00 X9.865125 Y6.161543

G00 Z4.950000 (Fast pre-penetrate)
G01 Z-0.050000 F300.0(Penetrate)
G01 X9.865125 Y6.709861 Z-0.050000 F50.000000
G03 X9.726794 Y6.700075 Z-0.050000 I0.409459 J-6.770736
G03 X9.538337 Y6.683384 Z-0.050000 I1.019586 J-12.583957
G03 X9.353013 Y6.658687 Z-0.050000 I0.227051 J-2.411519
G03 X9.242136 Y6.632209 Z-0.050000 I0.153304 J-0.887324
G03 X9.120552 Y6.577692 Z-0.050000 I0.164599 J-0.529932
G03 X9.031253 Y6.505265 Z-0.050000 I0.213088 J-0.353987
G03 X8.974199 Y6.411238 Z-0.050000 I0.187034 J-0.177813
G03 X8.950764 Y6.270779 Z-0.050000 I0.409188 J-0.140459
G03 X8.978555 Y6.113673 Z-0.050000 I0.457958 J-0.000000
G03 X9.044131 Y6.015133 Z-0.050000 I0.236761 J0.086471
G03 X9.147678 Y5.956848 Z-0.050000 I0.179775 J0.198256
G03 X9.329064 Y5.930469 Z-0.050000 I0.181386 J0.610446
G03 X9.484223 Y5.948073 Z-0.050000 I-0.000000 J0.692586
G03 X9.620436 Y5.997447 Z-0.050000 I-0.133574 J0.581083
G03 X9.747867 Y6.073020 Z-0.050000 I-0.621485 J1.193159
G03 X9.865124 Y6.161417 Z-0.050000 I-0.735728 J1.097907
G01 X9.865125 Y6.161543 Z-0.050000
G00 Z10.000000

(End cutting path id: path1150)


(Start cutting path id: path1148)
(Change tool to Cylindrical cutter)

G00 Z10.000000
G00 X8.186113 Y5.676696

G00 Z4.950000 (Fast pre-penetrate)
G01 Z-0.050000 F300.0(Penetrate)
G01 X7.883473 Y5.676696 Z-0.050000 F50.000000
G01 X7.883473 Y6.798010 Z-0.050000
G03 X7.879609 Y6.933530 Z-0.050000 I-2.378729 J-0.000000
G03 X7.868985 Y7.051898 Z-0.050000 I-1.824888 J-0.104136
G03 X7.845462 Y7.168777 Z-0.050000 I-0.756110 J-0.091371
G03 X7.815862 Y7.238777 Z-0.050000 I-0.297698 J-0.084626
G03 X7.766381 Y7.303044 Z-0.050000 I-0.225711 J-0.122596
G03 X7.699957 Y7.348087 Z-0.050000 I-0.172544 J-0.182954
G03 X7.621736 Y7.374085 Z-0.050000 I-0.135217 J-0.276150
G03 X7.503562 Y7.385134 Z-0.050000 I-0.118174 J-0.626465
G03 X7.383191 Y7.369831 Z-0.050000 I0.000000 J-0.481090
G03 X7.244386 Y7.318156 Z-0.050000 I0.179346 J-0.693993
G03 X7.114263 Y7.243380 Z-0.050000 I0.540314 J-1.090846
G03 X6.985210 Y7.147143 Z-0.050000 I0.771421 J-1.169115
G01 X6.985210 Y5.676738 Z-0.050000
G01 X6.682569 Y5.676738 Z-0.050000
G01 X6.682569 Y7.646096 Z-0.050000
G01 X6.985210 Y7.646096 Z-0.050000
G01 X6.985210 Y7.427476 Z-0.050000
G02 X7.134158 Y7.545332 Z-0.050000 I0.938244 J-1.032719
G02 X7.278192 Y7.628462 Z-0.050000 I0.605088 J-0.882051
G02 X7.433555 Y7.682939 Z-0.050000 I0.327600 J-0.685507
G02 X7.588881 Y7.700777 Z-0.050000 I0.155326 J-0.667331
G02 X7.853809 Y7.645937 Z-0.050000 I0.000000 J-0.667347
G02 X8.033183 Y7.508603 Z-0.050000 I-0.184725 J-0.427081
G02 X8.139326 Y7.300084 Z-0.050000 I-0.457786 J-0.364301
G02 X8.186113 Y6.955000 Z-0.050000 I-1.249198 J-0.345084
G01 X8.186113 Y5.676696 Z-0.050000
G00 Z10.000000

(End cutting path id: path1148)


(Start cutting path id: path1146)
(Change tool to Cylindrical cutter)

G00 Z10.000000
G00 X6.096606 Y5.676696

G00 Z4.950000 (Fast pre-penetrate)
G01 Z-0.050000 F300.0(Penetrate)
G01 X5.795575 Y5.676696 Z-0.050000 F50.000000
G01 X5.795575 Y5.886505 Z-0.050000
G03 X5.755618 Y5.856199 Z-0.050000 I1.587057 J-2.133937
G03 X5.686109 Y5.801840 Z-0.050000 I5.037180 J-6.512772
G02 X5.616368 Y5.752379 Z-0.050000 I-0.565344 J0.723251
G02 X5.554106 Y5.717176 Z-0.050000 I-0.346827 J0.540750
G02 X5.476488 Y5.681616 Z-0.050000 I-0.325764 J0.608562
G02 X5.380249 Y5.650198 Z-0.050000 I-0.348911 J0.905684
G02 X5.280923 Y5.629944 Z-0.050000 I-0.177550 J0.617027
G02 X5.150049 Y5.621942 Z-0.050000 I-0.130874 J1.066216
G02 X4.926514 Y5.667751 Z-0.050000 I-0.000000 J0.568304
G02 X4.737943 Y5.798251 Z-0.050000 I0.225779 J0.527739
G02 X4.615207 Y5.993165 Z-0.050000 I0.413661 J0.396579
G02 X4.568915 Y6.247839 Z-0.050000 I0.677395 J0.254674
G02 X4.594581 Y6.464313 Z-0.050000 I0.925715 J-0.000000
G02 X4.655843 Y6.609269 Z-0.050000 I0.469071 J-0.112818
G02 X4.760313 Y6.730722 Z-0.050000 I0.470661 J-0.299187
G02 X4.906970 Y6.827888 Z-0.050000 I0.441592 J-0.507254
G02 X5.075904 Y6.891116 Z-0.050000 I0.427456 J-0.884790
G02 X5.301369 Y6.935440 Z-0.050000 I0.419528 J-1.538432
G02 X5.531938 Y6.959393 Z-0.050000 I0.774265 J-6.331277
G02 X5.795575 Y6.977720 Z-0.050000 I0.706643 J-8.259903
G01 X5.795575 Y7.028895 Z-0.050000
G03 X5.784755 Y7.139178 Z-0.050000 I-0.567450 J0.000000
G03 X5.758549 Y7.215774 Z-0.050000 I-0.297087 J-0.058860
G03 X5.714534 Y7.282188 Z-0.050000 I-0.258669 J-0.123637
G03 X5.655523 Y7.332137 Z-0.050000 I-0.202114 J-0.178949
G03 X5.588166 Y7.364725 Z-0.050000 I-0.180090 J-0.286324
G03 X5.500983 Y7.386766 Z-0.050000 I-0.162828 J-0.460625
G03 X5.410549 Y7.397227 Z-0.050000 I-0.174961 J-1.116388
G03 X5.312637 Y7.400894 Z-0.050000 I-0.097911 J-1.305278
G03 X5.194440 Y7.393082 Z-0.050000 I-0.000000 J-0.897997
G03 X5.047022 Y7.365626 Z-0.050000 I0.189413 J-1.426534
G03 X4.902607 Y7.325661 Z-0.050000 I0.369237 J-1.615159
G03 X4.744381 Y7.266939 Z-0.050000 I0.651612 J-1.998266
G01 X4.728283 Y7.266939 Z-0.050000
G01 X4.728283 Y7.603680 Z-0.050000
G02 X4.817555 Y7.627147 Z-0.050000 I0.394498 J-1.319182
G02 X4.984240 Y7.661867 Z-0.050000 I1.038525 J-4.568329
G02 X5.152387 Y7.685818 Z-0.050000 I0.345959 J-1.826556
G02 X5.314247 Y7.693577 Z-0.050000 I0.161860 J-1.684496
G02 X5.502956 Y7.683522 Z-0.050000 I0.000000 J-1.775825
G02 X5.644254 Y7.658309 Z-0.050000 I-0.108859 J-1.018603
G02 X5.779112 Y7.610905 Z-0.050000 I-0.155587 J-0.658148
G02 X5.888942 Y7.541945 Z-0.050000 I-0.239053 J-0.502678
G02 X5.976724 Y7.450606 Z-0.050000 I-0.303589 J-0.379614
G02 X6.043482 Y7.332137 Z-0.050000 I-0.450946 J-0.332156
G02 X6.081118 Y7.200365 Z-0.050000 I-0.560464 J-0.231338
G02 X6.096605 Y7.013019 Z-0.050000 I-1.125407 J-0.187345
G01 X6.096606 Y5.676696 Z-0.050000
G00 Z10.000000

(End cutting path id: path1146)


(Start cutting path id: path1146)
(Change tool to Cylindrical cutter)

G00 Z10.000000
G00 X5.795575 Y6.161543

G00 Z4.950000 (Fast pre-penetrate)
G01 Z-0.050000 F300.0(Penetrate)
G01 X5.795575 Y6.709861 Z-0.050000 F50.000000
G03 X5.657244 Y6.700075 Z-0.050000 I0.409456 J-6.770707
G03 X5.468788 Y6.683384 Z-0.050000 I1.019572 J-12.583797
G03 X5.283463 Y6.658687 Z-0.050000 I0.227051 J-2.411517
G03 X5.172586 Y6.632209 Z-0.050000 I0.153304 J-0.887321
G03 X5.051002 Y6.577692 Z-0.050000 I0.164599 J-0.529932
G03 X4.961704 Y6.505265 Z-0.050000 I0.213088 J-0.353987
G03 X4.904650 Y6.411238 Z-0.050000 I0.187034 J-0.177813
G03 X4.881214 Y6.270779 Z-0.050000 I0.409188 J-0.140459
G03 X4.909005 Y6.113673 Z-0.050000 I0.457958 J-0.000000
G03 X4.974581 Y6.015133 Z-0.050000 I0.236761 J0.086471
G03 X5.078128 Y5.956848 Z-0.050000 I0.179775 J0.198256
G03 X5.259514 Y5.930469 Z-0.050000 I0.181386 J0.610446
G03 X5.414673 Y5.948073 Z-0.050000 I-0.000000 J0.692587
G03 X5.550886 Y5.997447 Z-0.050000 I-0.133574 J0.581082
G03 X5.678317 Y6.073020 Z-0.050000 I-0.621491 J1.193168
G03 X5.795574 Y6.161417 Z-0.050000 I-0.735740 J1.097924
G01 X5.795575 Y6.161543 Z-0.050000
G00 Z10.000000

(End cutting path id: path1146)


(Start cutting path id: path1144)
(Change tool to Cylindrical cutter)

G00 Z10.000000
G00 X4.404716 Y5.676696

G00 Z4.950000 (Fast pre-penetrate)
G01 Z-0.050000 F300.0(Penetrate)
G01 X2.888294 Y5.676696 Z-0.050000 F50.000000
G01 X2.888294 Y8.301914 Z-0.050000
G01 X3.207032 Y8.301914 Z-0.050000
G01 X3.207032 Y5.986992 Z-0.050000
G01 X4.404716 Y5.986992 Z-0.050000
G01 X4.404716 Y5.676696 Z-0.050000
G00 Z10.000000

(End cutting path id: path1144)



(Footer)
M5
G00 X0.0000 Y0.0000
M2
(Using default footer. To add your own footer create file "footer" in the output dir.)
(end)
%