%
(Header)
(Generated by gcodetools from Inkscape.)
(Using default header. To add your own header create file "header" in the output dir.)
M3
(Header end.)
G21 (All units in mm)

(Start cutting path id: path4801)
(Change tool to Cylindrical cutter)

G00 Z10.000000
G00 X1.910022 Y11.196580

G00 Z4.950000 (Fast pre-penetrate)
G01 Z-0.050000 F300.0(Penetrate)
G01 X1.910022 Y10.253260 Z-0.050000 F100.000000
G01 X17.260944 Y10.253260 Z-0.050000
G01 X17.260944 Y7.648170 Z-0.050000
G01 X1.910022 Y7.648170 Z-0.050000
G01 X1.910022 Y6.686930 Z-0.050000
G01 X17.260944 Y6.686930 Z-0.050000
G01 X17.260944 Y4.065920 Z-0.050000
G01 X1.910022 Y4.065920 Z-0.050000
G01 X1.910022 Y3.054940 Z-0.050000
G01 X17.260944 Y3.054940 Z-0.050000
G01 X17.260944 Y0.433920 Z-0.050000
G01 X0.599888 Y0.433920 Z-0.050000
G01 X0.599888 Y1.279720 Z-0.050000
G01 X16.058334 Y1.279720 Z-0.050000
G01 X16.058334 Y2.209110 Z-0.050000
G01 X0.707415 Y2.209110 Z-0.050000
G01 X0.707415 Y4.913710 Z-0.050000
G01 X16.058334 Y4.913710 Z-0.050000
G01 X16.058334 Y5.843100 Z-0.050000
G01 X0.707415 Y5.843100 Z-0.050000
G01 X0.707415 Y8.495970 Z-0.050000
G01 X16.058334 Y8.495970 Z-0.050000
G01 X16.058334 Y9.407450 Z-0.050000
G01 X0.707415 Y9.407450 Z-0.050000
G01 X0.707415 Y12.044380 Z-0.050000
G01 X16.058334 Y12.044380 Z-0.050000
G01 X16.058334 Y14.778830 Z-0.050000
G01 X12.631616 Y14.778830 Z-0.050000
G02 X11.513217 Y13.710012 Z-0.050000 I-1.976195 J0.948320
G02 X8.613492 Y13.119060 Z-0.050000 I-2.899724 J6.818805
G02 X5.715780 Y13.710301 Z-0.050000 I0.000000 J7.396567
G02 X4.598201 Y14.778830 Z-0.050000 I0.858816 J2.016943
G01 X0.681948 Y14.778830 Z-0.050000
G01 X0.707408 Y21.000000 Z-0.050000
G01 X4.298250 Y21.000000 Z-0.050000
G02 X5.540548 Y22.275466 Z-0.050000 I2.204013 J-0.903970
G02 X8.930404 Y22.990140 Z-0.050000 I3.389856 J-7.682079
G02 X12.319265 Y22.276605 Z-0.050000 I0.000000 J-8.404287
G02 X13.562565 Y21.000000 Z-0.050000 I-0.960035 J-2.178723
G01 X16.658217 Y21.000000 Z-0.050000
G01 X16.658217 Y20.152200 Z-0.050000
G01 X13.641797 Y20.152200 Z-0.050000
G02 X12.519781 Y18.740916 Z-0.050000 I-2.021522 J0.455513
G02 X8.930406 Y17.921250 Z-0.050000 I-3.589375 J7.449233
G02 X5.339071 Y18.740750 Z-0.050000 I0.000000 J8.278994
G02 X4.219020 Y20.152200 Z-0.050000 I0.896065 J1.861200
G01 X1.907185 Y20.152200 Z-0.050000
G01 X1.887375 Y15.626620 Z-0.050000
G01 X4.507643 Y15.626620 Z-0.050000
G02 X5.511631 Y16.841316 Z-0.050000 I1.808782 J-0.472757
G02 X8.613481 Y17.543130 Z-0.050000 I3.101850 J-6.503811
G02 X11.727401 Y16.842398 Z-0.050000 I-0.000000 J-7.269202
G02 X12.722154 Y15.626620 Z-0.050000 I-0.785977 J-1.657933
G01 X17.249613 Y15.626620 Z-0.050000
G01 X17.249613 Y11.196580 Z-0.050000
G01 X1.910022 Y11.196580 Z-0.050000
G00 Z10.000000

(End cutting path id: path4801)



(Footer)
M5
G00 X0.0000 Y0.0000
M2
(Using default footer. To add your own footer create file "footer" in the output dir.)
(end)
%