%
(Header)
(Generated by gcodetools from Inkscape.)
(Using default header. To add your own header create file "header" in the output dir.)
M3
(Header end.)
G21 (All units in mm)

(Start cutting path id: path1010-8-5-5-4-0-5)
(Change tool to Cylindrical cutter)

G00 Z10.000000
G00 X5.943352 Y0.045500

G00 Z4.950000 (Fast pre-penetrate)
G01 Z-0.050000 F300.0(Penetrate)
G01 X5.943352 Y19.006730 Z-0.050000 F100.000000
G00 Z10.000000

(End cutting path id: path1010-8-5-5-4-0-5)


(Start cutting path id: path1010-8-5-5-4-0)
(Change tool to Cylindrical cutter)

G00 Z10.000000
G00 X4.331046 Y-0.057270

G00 Z4.950000 (Fast pre-penetrate)
G01 Z-0.050000 F300.0(Penetrate)
G01 X4.331046 Y18.903960 Z-0.050000 F100.000000
G00 Z10.000000

(End cutting path id: path1010-8-5-5-4-0)


(Start cutting path id: path1010-8-5-5-4)
(Change tool to Cylindrical cutter)

G00 Z10.000000
G00 X2.940616 Y-0.015460

G00 Z4.950000 (Fast pre-penetrate)
G01 Z-0.050000 F300.0(Penetrate)
G01 X2.940616 Y18.945770 Z-0.050000 F100.000000
G00 Z10.000000

(End cutting path id: path1010-8-5-5-4)


(Start cutting path id: path1010-8-5-5)
(Change tool to Cylindrical cutter)

G00 Z10.000000
G00 X1.716463 Y-0.015460

G00 Z4.950000 (Fast pre-penetrate)
G01 Z-0.050000 F300.0(Penetrate)
G01 X1.716463 Y18.945770 Z-0.050000 F100.000000
G00 Z10.000000

(End cutting path id: path1010-8-5-5)


(Start cutting path id: path1010-8-5)
(Change tool to Cylindrical cutter)

G00 Z10.000000
G00 X0.658130 Y-0.162950

G00 Z4.950000 (Fast pre-penetrate)
G01 Z-0.050000 F300.0(Penetrate)
G01 X0.658130 Y18.798280 Z-0.050000 F100.000000
G00 Z10.000000

(End cutting path id: path1010-8-5)



(Footer)
M5
G00 X0.0000 Y0.0000
M2
(Using default footer. To add your own footer create file "footer" in the output dir.)
(end)
%