%
(Header)
(Generated by gcodetools from Inkscape.)
(Using default header. To add your own header create file "header" in the output dir.)
M3
(Header end.)
G21 (All units in mm)

(Start cutting path id: path1152)
(Change tool to Cylindrical cutter)

G00 Z10.000000
G00 X11.570352 Y0.624060

G00 Z4.950000 (Fast pre-penetrate)
G01 Z-0.050000 F300.0(Penetrate)
G01 X11.210879 Y0.624060 Z-0.050000 F50.000000
G01 X11.210879 Y2.095950 Z-0.050000
G03 X11.206288 Y2.273900 Z-0.050000 I-3.451136 J0.000000
G03 X11.193673 Y2.429210 Z-0.050000 I-2.640931 J-0.136355
G03 X11.165585 Y2.583271 Z-0.050000 I-1.090642 J-0.119252
G03 X11.130573 Y2.674523 Z-0.050000 I-0.413902 J-0.106465
G03 X11.070776 Y2.759896 Z-0.050000 I-0.305397 J-0.150279
G03 X10.992902 Y2.818006 Z-0.050000 I-0.213429 J-0.204784
G03 X10.899384 Y2.852221 Z-0.050000 I-0.163725 J-0.302585
G03 X10.759627 Y2.866632 Z-0.050000 I-0.139758 J-0.670453
G03 X10.617484 Y2.846736 Z-0.050000 I0.000000 J-0.517698
G03 X10.451780 Y2.778730 Z-0.050000 I0.221372 J-0.775274
G03 X10.298092 Y2.681213 Z-0.050000 I0.676247 J-1.235636
G03 X10.143933 Y2.554243 Z-0.050000 I0.999196 J-1.370231
G01 X10.143933 Y0.624126 Z-0.050000
G01 X9.784460 Y0.624126 Z-0.050000
G01 X9.784460 Y4.225162 Z-0.050000
G01 X10.143933 Y4.225162 Z-0.050000
G01 X10.143933 Y2.922223 Z-0.050000
G02 X10.322053 Y3.077831 Z-0.050000 I1.208987 J-1.204148
G02 X10.491934 Y3.186052 Z-0.050000 I0.747648 J-0.986178
G02 X10.677417 Y3.257679 Z-0.050000 I0.397480 J-0.753336
G02 X10.860968 Y3.280886 Z-0.050000 I0.183551 J-0.714265
G02 X11.171049 Y3.210586 Z-0.050000 I-0.000000 J-0.719014
G02 X11.388705 Y3.028631 Z-0.050000 I-0.246862 J-0.516454
G02 X11.514186 Y2.758257 Z-0.050000 I-0.641822 J-0.462175
G02 X11.570353 Y2.301944 Z-0.050000 I-1.825486 J-0.456313
G01 X11.570352 Y0.624060 Z-0.050000
G00 Z10.000000

(End cutting path id: path1152)


(Start cutting path id: path1150)
(Change tool to Cylindrical cutter)

G00 Z10.000000
G00 X9.088458 Y0.624060

G00 Z4.950000 (Fast pre-penetrate)
G01 Z-0.050000 F300.0(Penetrate)
G01 X8.730897 Y0.624060 Z-0.050000 F50.000000
G01 X8.730897 Y0.899463 Z-0.050000
G03 X8.683453 Y0.859655 Z-0.050000 I2.200963 J-2.671303
G03 X8.600874 Y0.788369 Z-0.050000 I6.976143 J-8.164752
G02 X8.517649 Y0.723162 Z-0.050000 I-0.717389 J0.829902
G02 X8.444083 Y0.677286 Z-0.050000 I-0.426416 J0.601879
G02 X8.351443 Y0.630384 Z-0.050000 I-0.399893 J0.674915
G02 X8.237577 Y0.589383 Z-0.050000 I-0.417380 J0.980533
G02 X8.119315 Y0.562780 Z-0.050000 I-0.212528 J0.668605
G02 X7.964148 Y0.552308 Z-0.050000 I-0.155167 J1.144353
G02 X7.702251 Y0.611100 Z-0.050000 I0.000000 J0.612730
G02 X7.474653 Y0.783737 Z-0.050000 I0.296642 J0.627427
G02 X7.329779 Y1.036033 Z-0.050000 I0.571917 J0.496150
G02 X7.273883 Y1.373884 Z-0.050000 I0.993086 J0.337851
G02 X7.304617 Y1.659622 Z-0.050000 I1.343628 J0.000000
G02 X7.377136 Y1.848305 Z-0.050000 I0.649527 J-0.141363
G02 X7.503218 Y2.009641 Z-0.050000 I0.629845 J-0.362281
G02 X7.675422 Y2.135281 Z-0.050000 I0.545979 J-0.567497
G02 X7.877194 Y2.218612 Z-0.050000 I0.520529 J-0.974427
G02 X8.143885 Y2.276453 Z-0.050000 I0.498107 J-1.652905
G02 X8.417853 Y2.307979 Z-0.050000 I0.917078 J-6.763415
G02 X8.730897 Y2.332011 Z-0.050000 I0.833556 J-8.807153
G01 X8.730897 Y2.399121 Z-0.050000
G03 X8.717973 Y2.544447 Z-0.050000 I-0.823563 J0.000000
G03 X8.686918 Y2.644434 Z-0.050000 I-0.417441 J-0.074836
G03 X8.633851 Y2.732554 Z-0.050000 I-0.354860 J-0.153663
G03 X8.564545 Y2.797180 Z-0.050000 I-0.256114 J-0.205188
G03 X8.483879 Y2.840241 Z-0.050000 I-0.222227 J-0.319202
G03 X8.380984 Y2.868910 Z-0.050000 I-0.193171 J-0.494333
G03 X8.273496 Y2.882599 Z-0.050000 I-0.208334 J-1.206961
G03 X8.157269 Y2.887392 Z-0.050000 I-0.116227 J-1.406816
G03 X8.017113 Y2.877159 Z-0.050000 I-0.000000 J-0.964935
G03 X7.841774 Y2.841076 Z-0.050000 I0.227431 J-1.549194
G03 X7.670718 Y2.788748 Z-0.050000 I0.446344 J-1.764839
G03 X7.482301 Y2.711477 Z-0.050000 I0.800184 J-2.219505
G01 X7.463180 Y2.711477 Z-0.050000
G01 X7.463180 Y3.153510 Z-0.050000
G02 X7.569383 Y3.184300 Z-0.050000 I0.478933 J-1.453386
G02 X7.767202 Y3.229860 Z-0.050000 I1.256173 J-5.001965
G02 X7.967116 Y3.261370 Z-0.050000 I0.412569 J-1.967635
G02 X8.159181 Y3.271556 Z-0.050000 I0.192065 J-1.805578
G02 X8.383008 Y3.258378 Z-0.050000 I-0.000000 J-1.907427
G02 X8.551160 Y3.225240 Z-0.050000 I-0.130779 J-1.106790
G02 X8.710021 Y3.163653 Z-0.050000 I-0.189424 J-0.724288
G02 X8.841798 Y3.072494 Z-0.050000 I-0.308037 J-0.586118
G02 X8.945037 Y2.954161 Z-0.050000 I-0.402782 J-0.455606
G02 X9.025359 Y2.797092 Z-0.050000 I-0.638598 J-0.425637
G02 X9.069988 Y2.624815 Z-0.050000 I-0.803179 J-0.299987
G02 X9.088458 Y2.378207 Z-0.050000 I-1.637113 J-0.246608
G01 X9.088458 Y0.624060 Z-0.050000
G00 Z10.000000

(End cutting path id: path1150)


(Start cutting path id: path1150)
(Change tool to Cylindrical cutter)

G00 Z10.000000
G00 X8.730897 Y1.260491

G00 Z4.950000 (Fast pre-penetrate)
G01 Z-0.050000 F300.0(Penetrate)
G01 X8.730897 Y1.980236 Z-0.050000 F50.000000
G03 X8.566594 Y1.967108 Z-0.050000 I0.601804 J-8.566791
G03 X8.342742 Y1.945471 Z-0.050000 I1.426249 J-15.924225
G03 X8.122959 Y1.913122 Z-0.050000 I0.271819 J-2.609594
G03 X7.990917 Y1.878361 Z-0.050000 I0.185713 J-0.973608
G03 X7.847968 Y1.807702 Z-0.050000 I0.203174 J-0.590965
G03 X7.740433 Y1.711731 Z-0.050000 I0.282781 J-0.425087
G03 X7.673085 Y1.590163 Z-0.050000 I0.259041 J-0.222946
G03 X7.644829 Y1.403929 Z-0.050000 I0.599586 J-0.186234
G03 X7.678387 Y1.195445 Z-0.050000 I0.664399 J0.000000
G03 X7.755730 Y1.068359 Z-0.050000 I0.313112 J0.103479
G03 X7.880782 Y0.991400 Z-0.050000 I0.223573 J0.223207
G03 X8.094170 Y0.957276 Z-0.050000 I0.213388 J0.650137
G03 X8.277482 Y0.980192 Z-0.050000 I0.000000 J0.744647
G03 X8.440259 Y1.045179 Z-0.050000 I-0.165003 J0.649647
G03 X8.590842 Y1.143787 Z-0.050000 I-0.778840 J1.353637
G03 X8.730897 Y1.260414 Z-0.050000 I-0.952890 J1.286716
G01 X8.730897 Y1.260491 Z-0.050000
G00 Z10.000000

(End cutting path id: path1150)


(Start cutting path id: path1148)
(Change tool to Cylindrical cutter)

G00 Z10.000000
G00 X7.155334 Y2.734691

G00 Z4.950000 (Fast pre-penetrate)
G01 Z-0.050000 F300.0(Penetrate)
G01 X7.136213 Y2.734691 Z-0.050000 F50.000000
G03 X7.055268 Y2.754652 Z-0.050000 I-0.300651 J-1.045069
G03 X6.979421 Y2.767035 Z-0.050000 I-0.186688 J-0.904977
G03 X6.904593 Y2.775245 Z-0.050000 I-0.129789 J-0.837848
G03 X6.801597 Y2.778587 Z-0.050000 I-0.102996 J-1.585505
G03 X6.641210 Y2.756493 Z-0.050000 I-0.000000 J-0.593200
G03 X6.480365 Y2.688374 Z-0.050000 I0.186693 J-0.664779
G03 X6.332942 Y2.590601 Z-0.050000 I0.629703 J-1.109502
G03 X6.182079 Y2.459255 Z-0.050000 I0.993634 J-1.293597
G01 X6.182079 Y0.624027 Z-0.050000
G01 X5.822606 Y0.624027 Z-0.050000
G01 X5.822606 Y3.209090 Z-0.050000
G01 X6.182079 Y3.209090 Z-0.050000
G01 X6.182079 Y2.827236 Z-0.050000
G02 X6.405826 Y3.022312 Z-0.050000 I1.901497 J-1.955109
G02 X6.558761 Y3.121154 Z-0.050000 I0.631345 J-0.809124
G02 X6.728535 Y3.187766 Z-0.050000 I0.368232 J-0.688853
G02 X6.893377 Y3.209057 Z-0.050000 I0.164843 J-0.627502
G02 X6.986892 Y3.206784 Z-0.050000 I0.000000 J-1.925555
G02 X7.029136 Y3.202456 Z-0.050000 I-0.019271 J-0.396345
G02 X7.071017 Y3.196820 Z-0.050000 I-0.074453 J-0.711698
G02 X7.155334 Y3.181663 Z-0.050000 I-0.478096 J-2.901688
G01 X7.155334 Y2.734691 Z-0.050000
G00 Z10.000000

(End cutting path id: path1148)


(Start cutting path id: path1146)
(Change tool to Cylindrical cutter)

G00 Z10.000000
G00 X5.126604 Y0.624060

G00 Z4.950000 (Fast pre-penetrate)
G01 Z-0.050000 F300.0(Penetrate)
G01 X4.769043 Y0.624060 Z-0.050000 F50.000000
G01 X4.769043 Y0.899463 Z-0.050000
G03 X4.721600 Y0.859655 Z-0.050000 I2.200963 J-2.671303
G03 X4.639021 Y0.788369 Z-0.050000 I6.976143 J-8.164752
G02 X4.555796 Y0.723162 Z-0.050000 I-0.717389 J0.829902
G02 X4.482230 Y0.677286 Z-0.050000 I-0.426416 J0.601879
G02 X4.389590 Y0.630384 Z-0.050000 I-0.399893 J0.674915
G02 X4.275724 Y0.589383 Z-0.050000 I-0.417380 J0.980533
G02 X4.157462 Y0.562780 Z-0.050000 I-0.212528 J0.668605
G02 X4.002295 Y0.552308 Z-0.050000 I-0.155167 J1.144353
G02 X3.740397 Y0.611100 Z-0.050000 I0.000000 J0.612730
G02 X3.512799 Y0.783737 Z-0.050000 I0.296642 J0.627427
G02 X3.367926 Y1.036033 Z-0.050000 I0.571917 J0.496150
G02 X3.312030 Y1.373884 Z-0.050000 I0.993086 J0.337851
G02 X3.342764 Y1.659622 Z-0.050000 I1.343628 J0.000000
G02 X3.415283 Y1.848305 Z-0.050000 I0.649527 J-0.141363
G02 X3.541365 Y2.009641 Z-0.050000 I0.629845 J-0.362281
G02 X3.713569 Y2.135281 Z-0.050000 I0.545979 J-0.567497
G02 X3.915341 Y2.218612 Z-0.050000 I0.520529 J-0.974427
G02 X4.182031 Y2.276453 Z-0.050000 I0.498107 J-1.652905
G02 X4.455999 Y2.307979 Z-0.050000 I0.917078 J-6.763415
G02 X4.769043 Y2.332011 Z-0.050000 I0.833556 J-8.807153
G01 X4.769043 Y2.399121 Z-0.050000
G03 X4.756120 Y2.544447 Z-0.050000 I-0.823563 J0.000000
G03 X4.725065 Y2.644434 Z-0.050000 I-0.417441 J-0.074836
G03 X4.671998 Y2.732554 Z-0.050000 I-0.354860 J-0.153663
G03 X4.602691 Y2.797180 Z-0.050000 I-0.256114 J-0.205188
G03 X4.522026 Y2.840241 Z-0.050000 I-0.222227 J-0.319202
G03 X4.419131 Y2.868910 Z-0.050000 I-0.193171 J-0.494333
G03 X4.311643 Y2.882599 Z-0.050000 I-0.208334 J-1.206961
G03 X4.195416 Y2.887392 Z-0.050000 I-0.116227 J-1.406816
G03 X4.055260 Y2.877159 Z-0.050000 I-0.000000 J-0.964935
G03 X3.879921 Y2.841076 Z-0.050000 I0.227431 J-1.549194
G03 X3.708864 Y2.788748 Z-0.050000 I0.446344 J-1.764837
G03 X3.520448 Y2.711477 Z-0.050000 I0.800182 J-2.219499
G01 X3.501327 Y2.711477 Z-0.050000
G01 X3.501327 Y3.153510 Z-0.050000
G02 X3.607530 Y3.184300 Z-0.050000 I0.478933 J-1.453386
G02 X3.805349 Y3.229860 Z-0.050000 I1.256173 J-5.001965
G02 X4.005263 Y3.261370 Z-0.050000 I0.412569 J-1.967635
G02 X4.197328 Y3.271556 Z-0.050000 I0.192065 J-1.805578
G02 X4.421154 Y3.258378 Z-0.050000 I-0.000000 J-1.907427
G02 X4.589307 Y3.225240 Z-0.050000 I-0.130779 J-1.106790
G02 X4.748168 Y3.163653 Z-0.050000 I-0.189424 J-0.724288
G02 X4.879945 Y3.072494 Z-0.050000 I-0.308037 J-0.586119
G02 X4.983184 Y2.954161 Z-0.050000 I-0.402782 J-0.455606
G02 X5.063505 Y2.797092 Z-0.050000 I-0.638598 J-0.425637
G02 X5.108135 Y2.624815 Z-0.050000 I-0.803179 J-0.299987
G02 X5.126604 Y2.378207 Z-0.050000 I-1.637113 J-0.246608
G01 X5.126604 Y0.624060 Z-0.050000
G00 Z10.000000

(End cutting path id: path1146)


(Start cutting path id: path1146)
(Change tool to Cylindrical cutter)

G00 Z10.000000
G00 X4.769043 Y1.260491

G00 Z4.950000 (Fast pre-penetrate)
G01 Z-0.050000 F300.0(Penetrate)
G01 X4.769043 Y1.980236 Z-0.050000 F50.000000
G03 X4.604741 Y1.967108 Z-0.050000 I0.601804 J-8.566791
G03 X4.380889 Y1.945471 Z-0.050000 I1.426249 J-15.924225
G03 X4.161106 Y1.913122 Z-0.050000 I0.271819 J-2.609594
G03 X4.029064 Y1.878361 Z-0.050000 I0.185713 J-0.973608
G03 X3.886115 Y1.807702 Z-0.050000 I0.203174 J-0.590965
G03 X3.778580 Y1.711731 Z-0.050000 I0.282781 J-0.425087
G03 X3.711232 Y1.590163 Z-0.050000 I0.259041 J-0.222946
G03 X3.682975 Y1.403929 Z-0.050000 I0.599586 J-0.186234
G03 X3.716533 Y1.195445 Z-0.050000 I0.664399 J-0.000000
G03 X3.793877 Y1.068359 Z-0.050000 I0.313112 J0.103479
G03 X3.918929 Y0.991400 Z-0.050000 I0.223573 J0.223207
G03 X4.132317 Y0.957276 Z-0.050000 I0.213388 J0.650137
G03 X4.315629 Y0.980192 Z-0.050000 I0.000000 J0.744647
G03 X4.478405 Y1.045179 Z-0.050000 I-0.165003 J0.649647
G03 X4.628989 Y1.143787 Z-0.050000 I-0.778840 J1.353637
G03 X4.769043 Y1.260414 Z-0.050000 I-0.952890 J1.286716
G01 X4.769043 Y1.260491 Z-0.050000
G00 Z10.000000

(End cutting path id: path1146)


(Start cutting path id: path1144)
(Change tool to Cylindrical cutter)

G00 Z10.000000
G00 X2.887545 Y1.607634

G00 Z4.950000 (Fast pre-penetrate)
G01 Z-0.050000 F300.0(Penetrate)
G02 X2.868268 Y1.409994 Z-0.050000 I-1.022803 J-0.000000 F50.000000
G02 X2.809149 Y1.209575 Z-0.050000 I-1.111161 J0.218839
G02 X2.714586 Y1.024795 Z-0.050000 I-0.948153 J0.368638
G02 X2.593083 Y0.876316 Z-0.050000 I-0.729237 J0.472795
G02 X2.428750 Y0.745625 Z-0.050000 I-0.750784 J0.775384
G02 X2.235522 Y0.644886 Z-0.050000 I-0.631681 J0.975955
G02 X2.028136 Y0.585432 Z-0.050000 I-0.371203 J0.903390
G02 X1.746026 Y0.561604 Z-0.050000 I-0.282109 J1.658117
G02 X1.440807 Y0.580636 Z-0.050000 I0.000000 J2.457038
G02 X1.191520 Y0.631024 Z-0.050000 I0.211102 J1.686221
G02 X0.952266 Y0.714019 Z-0.050000 I0.600985 J2.118841
G02 X0.692464 Y0.836996 Z-0.050000 I1.082497 J2.622822
G01 X0.692464 Y1.410937 Z-0.050000
G01 X0.719233 Y1.410937 Z-0.050000
G03 X0.952193 Y1.218515 Z-0.050000 I1.090875 J1.083459
G03 X1.218289 Y1.075367 Z-0.050000 I0.857937 J1.275914
G03 X1.506619 Y0.984020 Z-0.050000 I0.659955 J1.582381
G03 X1.749851 Y0.957342 Z-0.050000 I0.243232 J1.095468
G03 X2.084577 Y1.005214 Z-0.050000 I-0.000000 J1.194159
G03 X2.296709 Y1.117030 Z-0.050000 I-0.168346 J0.576508
G03 X2.440646 Y1.301971 Z-0.050000 I-0.326258 J0.402407
G03 X2.493654 Y1.542857 Z-0.050000 I-0.520834 J0.240886
G03 X2.463975 Y1.760955 Z-0.050000 I-0.816199 J-0.000000
G03 X2.399962 Y1.880737 Z-0.050000 I-0.299453 J-0.083037
G03 X2.295151 Y1.970034 Z-0.050000 I-0.321491 J-0.271186
G03 X2.118884 Y2.049689 Z-0.050000 I-0.427608 J-0.711395
G03 X1.974161 Y2.090728 Z-0.050000 I-0.640879 J-1.984308
G03 X1.807213 Y2.126039 Z-0.050000 I-0.638433 J-2.606137
G02 X1.641461 Y2.158881 Z-0.050000 I0.884161 J4.897133
G02 X1.453476 Y2.202390 Z-0.050000 I1.369051 J6.342868
G02 X1.105312 Y2.346165 Z-0.050000 I0.334393 J1.303215
G02 X0.891321 Y2.533329 Z-0.050000 I0.388794 J0.660433
G02 X0.761792 Y2.787122 Z-0.050000 I0.617267 J0.474987
G02 X0.709673 Y3.146612 Z-0.050000 I1.213711 J0.359490
G02 X0.790806 Y3.543567 Z-0.050000 I1.011644 J0.000000
G02 X1.011783 Y3.854794 Z-0.050000 I0.825853 J-0.352309
G02 X1.343646 Y4.056176 Z-0.050000 I0.668008 J-0.726694
G02 X1.778532 Y4.132507 Z-0.050000 I0.434886 J-1.200694
G02 X2.076189 Y4.113819 Z-0.050000 I0.000000 J-2.379886
G02 X2.329214 Y4.063087 Z-0.050000 I-0.222855 J-1.767826
G02 X2.574990 Y3.981804 Z-0.050000 I-0.705188 J-2.544489
G02 X2.772819 Y3.891825 Z-0.050000 I-0.670270 J-1.736148
G01 X2.772819 Y3.350284 Z-0.050000
G01 X2.746051 Y3.350284 Z-0.050000
G03 X2.568762 Y3.495018 Z-0.050000 I-0.725139 J-0.707287
G03 X2.317742 Y3.625686 Z-0.050000 I-0.837635 J-1.302698
G03 X2.048301 Y3.709171 Z-0.050000 I-0.559323 J-1.328628
G03 X1.776620 Y3.736769 Z-0.050000 I-0.271681 J-1.323449
G03 X1.488357 Y3.692841 Z-0.050000 I-0.000000 J-0.967774
G03 X1.287125 Y3.584034 Z-0.050000 I0.177427 J-0.568629
G03 X1.151922 Y3.408618 Z-0.050000 I0.324403 J-0.389848
G03 X1.103564 Y3.190596 Z-0.050000 I0.467301 J-0.218022
G03 X1.131055 Y2.984519 Z-0.050000 I0.786143 J-0.000000
G03 X1.195344 Y2.852715 Z-0.050000 I0.377457 J0.102531
G03 X1.304584 Y2.755538 Z-0.050000 I0.292639 J0.218973
G03 X1.518488 Y2.665260 Z-0.050000 I0.462474 J0.797231
G03 X1.641383 Y2.635139 Z-0.050000 I0.895741 J3.388978
G03 X1.866488 Y2.586598 Z-0.050000 I2.559732 J11.324359
G02 X2.090952 Y2.535750 Z-0.050000 I-1.139619 J-5.551539
G02 X2.248907 Y2.491765 Z-0.050000 I-0.692335 J-2.791856
G02 X2.541078 Y2.353743 Z-0.050000 I-0.378697 J-1.179894
G02 X2.726930 Y2.183963 Z-0.050000 I-0.407133 J-0.632287
G02 X2.839181 Y1.961363 Z-0.050000 I-0.506682 J-0.395109
G02 X2.887545 Y1.607700 Z-0.050000 I-1.268884 J-0.353663
G01 X2.887545 Y1.607634 Z-0.050000
G00 Z10.000000

(End cutting path id: path1144)


(Start cutting path id: path1142)
(Change tool to Cylindrical cutter)

G00 Z10.000000
G00 X9.463228 Y6.548651

G00 Z4.950000 (Fast pre-penetrate)
G01 Z-0.050000 F300.0(Penetrate)
G01 X9.105667 Y6.548651 Z-0.050000 F50.000000
G01 X9.105667 Y6.824053 Z-0.050000
G03 X9.058222 Y6.784246 Z-0.050000 I2.207082 J-2.678729
G03 X8.975645 Y6.712970 Z-0.050000 I6.994220 J-8.186730
G02 X8.892420 Y6.647760 Z-0.050000 I-0.717739 J0.830308
G02 X8.818853 Y6.601876 Z-0.050000 I-0.426705 J0.602226
G02 X8.726213 Y6.554974 Z-0.050000 I-0.399893 J0.674915
G02 X8.612347 Y6.513974 Z-0.050000 I-0.417380 J0.980533
G02 X8.494085 Y6.487370 Z-0.050000 I-0.212528 J0.668605
G02 X8.338918 Y6.476898 Z-0.050000 I-0.155167 J1.144353
G02 X8.077021 Y6.535690 Z-0.050000 I-0.000000 J0.612730
G02 X7.849423 Y6.708327 Z-0.050000 I0.296642 J0.627427
G02 X7.704549 Y6.960623 Z-0.050000 I0.571917 J0.496150
G02 X7.648653 Y7.298474 Z-0.050000 I0.993086 J0.337851
G02 X7.679387 Y7.584212 Z-0.050000 I1.343628 J-0.000000
G02 X7.751906 Y7.772895 Z-0.050000 I0.649527 J-0.141363
G02 X7.877988 Y7.934231 Z-0.050000 I0.629845 J-0.362281
G02 X8.050192 Y8.059871 Z-0.050000 I0.545979 J-0.567497
G02 X8.251964 Y8.143202 Z-0.050000 I0.520530 J-0.974428
G02 X8.518655 Y8.201043 Z-0.050000 I0.498107 J-1.652904
G02 X8.792623 Y8.232569 Z-0.050000 I0.917077 J-6.763410
G02 X9.105667 Y8.256601 Z-0.050000 I0.833556 J-8.807157
G01 X9.105667 Y8.323711 Z-0.050000
G03 X9.092744 Y8.469037 Z-0.050000 I-0.823563 J0.000000
G03 X9.061689 Y8.569024 Z-0.050000 I-0.417441 J-0.074836
G03 X9.008595 Y8.657228 Z-0.050000 I-0.354672 J-0.153408
G03 X8.939315 Y8.721770 Z-0.050000 I-0.255098 J-0.204374
G03 X8.858650 Y8.764832 Z-0.050000 I-0.222227 J-0.319202
G03 X8.755754 Y8.793500 Z-0.050000 I-0.193171 J-0.494333
G03 X8.648266 Y8.807190 Z-0.050000 I-0.208334 J-1.206961
G03 X8.532040 Y8.811983 Z-0.050000 I-0.116227 J-1.406816
G03 X8.391883 Y8.801750 Z-0.050000 I0.000000 J-0.964935
G03 X8.216544 Y8.765666 Z-0.050000 I0.227431 J-1.549194
G03 X8.045488 Y8.713339 Z-0.050000 I0.446344 J-1.764839
G03 X7.857071 Y8.636067 Z-0.050000 I0.800184 J-2.219505
G01 X7.837950 Y8.636067 Z-0.050000
G01 X7.837950 Y9.078100 Z-0.050000
G02 X7.944154 Y9.108890 Z-0.050000 I0.478933 J-1.453385
G02 X8.141973 Y9.154451 Z-0.050000 I1.256172 J-5.001965
G02 X8.341887 Y9.185960 Z-0.050000 I0.412569 J-1.967633
G02 X8.533952 Y9.196147 Z-0.050000 I0.192065 J-1.805578
G02 X8.757778 Y9.182969 Z-0.050000 I0.000000 J-1.907427
G02 X8.925930 Y9.149830 Z-0.050000 I-0.130779 J-1.106790
G02 X9.084791 Y9.088243 Z-0.050000 I-0.189424 J-0.724289
G02 X9.216569 Y8.997084 Z-0.050000 I-0.308039 J-0.586123
G02 X9.319808 Y8.878751 Z-0.050000 I-0.402779 J-0.455602
G02 X9.400129 Y8.721682 Z-0.050000 I-0.638592 J-0.425631
G02 X9.444759 Y8.549405 Z-0.050000 I-0.803169 J-0.299988
G02 X9.463229 Y8.302797 Z-0.050000 I-1.637089 J-0.246608
G01 X9.463228 Y6.548651 Z-0.050000
G00 Z10.000000

(End cutting path id: path1142)


(Start cutting path id: path1142)
(Change tool to Cylindrical cutter)

G00 Z10.000000
G00 X9.105667 Y7.185081

G00 Z4.950000 (Fast pre-penetrate)
G01 Z-0.050000 F300.0(Penetrate)
G01 X9.105667 Y7.904826 Z-0.050000 F50.000000
G03 X8.941364 Y7.891698 Z-0.050000 I0.601803 J-8.566785
G03 X8.717512 Y7.870061 Z-0.050000 I1.426245 J-15.924178
G03 X8.497729 Y7.837712 Z-0.050000 I0.271819 J-2.609594
G03 X8.365688 Y7.802951 Z-0.050000 I0.185713 J-0.973608
G03 X8.222738 Y7.732292 Z-0.050000 I0.203174 J-0.590965
G03 X8.115203 Y7.636321 Z-0.050000 I0.282781 J-0.425087
G03 X8.047856 Y7.514753 Z-0.050000 I0.259041 J-0.222946
G03 X8.019599 Y7.328519 Z-0.050000 I0.599586 J-0.186234
G03 X8.053157 Y7.120035 Z-0.050000 I0.664399 J0.000000
G03 X8.130500 Y6.992949 Z-0.050000 I0.313112 J0.103479
G03 X8.255552 Y6.915990 Z-0.050000 I0.223573 J0.223208
G03 X8.468940 Y6.881866 Z-0.050000 I0.213388 J0.650137
G03 X8.652252 Y6.904782 Z-0.050000 I0.000000 J0.744647
G03 X8.815029 Y6.969769 Z-0.050000 I-0.165003 J0.649647
G03 X8.965639 Y7.068451 Z-0.050000 I-0.783402 J1.359906
G03 X9.105667 Y7.185004 Z-0.050000 I-0.956225 J1.291219
G01 X9.105667 Y7.185081 Z-0.050000
G00 Z10.000000

(End cutting path id: path1142)


(Start cutting path id: path1140)
(Change tool to Cylindrical cutter)

G00 Z10.000000
G00 X7.111355 Y6.548651

G00 Z4.950000 (Fast pre-penetrate)
G01 Z-0.050000 F300.0(Penetrate)
G01 X6.751882 Y6.548651 Z-0.050000 F50.000000
G01 X6.751882 Y8.020540 Z-0.050000
G03 X6.747291 Y8.198490 Z-0.050000 I-3.450772 J-0.000000
G03 X6.734674 Y8.353800 Z-0.050000 I-2.640657 J-0.136355
G03 X6.706585 Y8.507861 Z-0.050000 I-1.090758 J-0.119277
G03 X6.671574 Y8.599113 Z-0.050000 I-0.413936 J-0.106472
G03 X6.611778 Y8.684486 Z-0.050000 I-0.305396 J-0.150278
G03 X6.533904 Y8.742596 Z-0.050000 I-0.213429 J-0.204784
G03 X6.440387 Y8.776811 Z-0.050000 I-0.163723 J-0.302578
G03 X6.300629 Y8.791223 Z-0.050000 I-0.139758 J-0.670453
G03 X6.158486 Y8.771327 Z-0.050000 I-0.000000 J-0.517699
G03 X5.992782 Y8.703320 Z-0.050000 I0.221370 J-0.775269
G03 X5.839093 Y8.605803 Z-0.050000 I0.676239 J-1.235625
G03 X5.684935 Y8.478833 Z-0.050000 I0.999176 J-1.370204
G01 X5.684935 Y6.548717 Z-0.050000
G01 X5.325462 Y6.548717 Z-0.050000
G01 X5.325462 Y9.133779 Z-0.050000
G01 X5.684935 Y9.133779 Z-0.050000
G01 X5.684935 Y8.846748 Z-0.050000
G02 X5.863055 Y9.002355 Z-0.050000 I1.208990 J-1.204151
G02 X6.032936 Y9.110576 Z-0.050000 I0.747648 J-0.986177
G02 X6.218419 Y9.182203 Z-0.050000 I0.397482 J-0.753342
G02 X6.401969 Y9.205410 Z-0.050000 I0.183550 J-0.714264
G02 X6.712051 Y9.135110 Z-0.050000 I-0.000000 J-0.719014
G02 X6.929707 Y8.953155 Z-0.050000 I-0.246862 J-0.516454
G02 X7.055187 Y8.682781 Z-0.050000 I-0.641822 J-0.462175
G02 X7.111355 Y8.226468 Z-0.050000 I-1.825485 J-0.456313
G01 X7.111355 Y6.548651 Z-0.050000
G00 Z10.000000

(End cutting path id: path1140)


(Start cutting path id: path1138)
(Change tool to Cylindrical cutter)

G00 Z10.000000
G00 X4.629461 Y6.548651

G00 Z4.950000 (Fast pre-penetrate)
G01 Z-0.050000 F300.0(Penetrate)
G01 X4.271900 Y6.548651 Z-0.050000 F50.000000
G01 X4.271900 Y6.824053 Z-0.050000
G03 X4.224455 Y6.784246 Z-0.050000 I2.206953 J-2.678574
G03 X4.141877 Y6.712970 Z-0.050000 I6.993796 J-8.186217
G02 X4.058653 Y6.647760 Z-0.050000 I-0.717739 J0.830308
G02 X3.985086 Y6.601876 Z-0.050000 I-0.426705 J0.602226
G02 X3.892446 Y6.554974 Z-0.050000 I-0.399893 J0.674915
G02 X3.778580 Y6.513974 Z-0.050000 I-0.417380 J0.980533
G02 X3.660318 Y6.487370 Z-0.050000 I-0.212528 J0.668605
G02 X3.505151 Y6.476898 Z-0.050000 I-0.155167 J1.144353
G02 X3.243254 Y6.535690 Z-0.050000 I0.000000 J0.612730
G02 X3.015655 Y6.708327 Z-0.050000 I0.296642 J0.627426
G02 X2.870782 Y6.960623 Z-0.050000 I0.571917 J0.496150
G02 X2.814886 Y7.298474 Z-0.050000 I0.993086 J0.337851
G02 X2.845620 Y7.584212 Z-0.050000 I1.343628 J-0.000000
G02 X2.918139 Y7.772895 Z-0.050000 I0.649527 J-0.141363
G02 X3.044221 Y7.934231 Z-0.050000 I0.629846 J-0.362281
G02 X3.216425 Y8.059871 Z-0.050000 I0.545979 J-0.567497
G02 X3.418197 Y8.143202 Z-0.050000 I0.520530 J-0.974428
G02 X3.684887 Y8.201043 Z-0.050000 I0.498107 J-1.652905
G02 X3.958855 Y8.232569 Z-0.050000 I0.917077 J-6.763408
G02 X4.271900 Y8.256601 Z-0.050000 I0.833556 J-8.807149
G01 X4.271900 Y8.323711 Z-0.050000
G03 X4.258976 Y8.469037 Z-0.050000 I-0.823563 J0.000000
G03 X4.227921 Y8.569024 Z-0.050000 I-0.417441 J-0.074836
G03 X4.174828 Y8.657228 Z-0.050000 I-0.354672 J-0.153408
G03 X4.105547 Y8.721770 Z-0.050000 I-0.255098 J-0.204374
G03 X4.024882 Y8.764832 Z-0.050000 I-0.222227 J-0.319202
G03 X3.921987 Y8.793500 Z-0.050000 I-0.193171 J-0.494333
G03 X3.814499 Y8.807190 Z-0.050000 I-0.208334 J-1.206961
G03 X3.698272 Y8.811983 Z-0.050000 I-0.116227 J-1.406816
G03 X3.558116 Y8.801750 Z-0.050000 I0.000000 J-0.964935
G03 X3.382777 Y8.765666 Z-0.050000 I0.227431 J-1.549194
G03 X3.211720 Y8.713339 Z-0.050000 I0.446344 J-1.764837
G03 X3.023304 Y8.636067 Z-0.050000 I0.800182 J-2.219499
G01 X3.004183 Y8.636067 Z-0.050000
G01 X3.004183 Y9.078100 Z-0.050000
G02 X3.110386 Y9.108890 Z-0.050000 I0.478933 J-1.453385
G02 X3.308205 Y9.154451 Z-0.050000 I1.256172 J-5.001965
G02 X3.508119 Y9.185960 Z-0.050000 I0.412569 J-1.967635
G02 X3.700184 Y9.196147 Z-0.050000 I0.192065 J-1.805578
G02 X3.924011 Y9.182969 Z-0.050000 I0.000000 J-1.907427
G02 X4.092163 Y9.149830 Z-0.050000 I-0.130779 J-1.106790
G02 X4.251024 Y9.088243 Z-0.050000 I-0.189424 J-0.724288
G02 X4.382801 Y8.997084 Z-0.050000 I-0.308037 J-0.586119
G02 X4.486040 Y8.878751 Z-0.050000 I-0.402782 J-0.455606
G02 X4.566362 Y8.721682 Z-0.050000 I-0.638598 J-0.425637
G02 X4.610991 Y8.549405 Z-0.050000 I-0.803179 J-0.299987
G02 X4.629461 Y8.302797 Z-0.050000 I-1.637113 J-0.246608
G01 X4.629461 Y6.548651 Z-0.050000
G00 Z10.000000

(End cutting path id: path1138)


(Start cutting path id: path1138)
(Change tool to Cylindrical cutter)

G00 Z10.000000
G00 X4.271900 Y7.185081

G00 Z4.950000 (Fast pre-penetrate)
G01 Z-0.050000 F300.0(Penetrate)
G01 X4.271900 Y7.904826 Z-0.050000 F50.000000
G03 X4.107597 Y7.891698 Z-0.050000 I0.601805 J-8.566794
G03 X3.883745 Y7.870061 Z-0.050000 I1.426252 J-15.924248
G03 X3.663962 Y7.837712 Z-0.050000 I0.271820 J-2.609595
G03 X3.531920 Y7.802951 Z-0.050000 I0.185713 J-0.973610
G03 X3.388971 Y7.732292 Z-0.050000 I0.203174 J-0.590964
G03 X3.281436 Y7.636321 Z-0.050000 I0.282782 J-0.425087
G03 X3.214088 Y7.514753 Z-0.050000 I0.259041 J-0.222946
G03 X3.185832 Y7.328519 Z-0.050000 I0.599586 J-0.186234
G03 X3.219390 Y7.120035 Z-0.050000 I0.664399 J0.000000
G03 X3.296733 Y6.992949 Z-0.050000 I0.313112 J0.103479
G03 X3.421785 Y6.915990 Z-0.050000 I0.223573 J0.223207
G03 X3.635173 Y6.881866 Z-0.050000 I0.213388 J0.650137
G03 X3.818485 Y6.904782 Z-0.050000 I0.000000 J0.744647
G03 X3.981262 Y6.969769 Z-0.050000 I-0.165003 J0.649647
G03 X4.131871 Y7.068451 Z-0.050000 I-0.783399 J1.359901
G03 X4.271900 Y7.185004 Z-0.050000 I-0.956219 J1.291211
G01 X4.271900 Y7.185081 Z-0.050000
G00 Z10.000000

(End cutting path id: path1138)


(Start cutting path id: path1136)
(Change tool to Cylindrical cutter)

G00 Z10.000000
G00 X2.619852 Y6.548651

G00 Z4.950000 (Fast pre-penetrate)
G01 Z-0.050000 F300.0(Penetrate)
G01 X0.818662 Y6.548651 Z-0.050000 F50.000000
G01 X0.818662 Y9.994630 Z-0.050000
G01 X1.197256 Y9.994630 Z-0.050000
G01 X1.197256 Y6.955962 Z-0.050000
G01 X2.619852 Y6.955962 Z-0.050000
G01 X2.619852 Y6.548651 Z-0.050000
G00 Z10.000000

(End cutting path id: path1136)



(Footer)
M5
G00 X0.0000 Y0.0000
M2
(Using default footer. To add your own footer create file "footer" in the output dir.)
(end)
%