%
(Header)
(Generated by gcodetools from Inkscape.)
(Using default header. To add your own header create file "header" in the output dir.)
M3
(Header end.)
G21 (All units in mm)

(Start cutting path id: path1023)
(Change tool to Cylindrical cutter)

G00 Z5.000000
G00 X7.591835 Y11.217150

G00 Z4.950000 (Fast pre-penetrate)
G01 Z-0.050000 F300.0(Penetrate)
G01 X7.591835 Y33.125960 Z-0.050000 F50.000000
G01 X9.708453 Y33.125960 Z-0.050000
G01 X16.058308 Y33.125960 Z-0.050000
G01 X16.058308 Y8.782840 Z-0.050000
G01 X12.883381 Y8.782840 Z-0.050000
G01 X12.883381 Y29.474500 Z-0.050000
G01 X10.766763 Y29.474500 Z-0.050000
G01 X10.766763 Y6.348520 Z-0.050000
G01 X11.825072 Y6.348520 Z-0.050000
G01 X11.825072 Y1.479900 Z-0.050000
G01 X6.533526 Y1.479900 Z-0.050000
G01 X6.533526 Y6.348520 Z-0.050000
G01 X7.591835 Y6.348520 Z-0.050000
G01 X9.708453 Y6.348520 Z-0.050000
G01 X9.708453 Y30.691650 Z-0.050000
G01 X13.941690 Y30.691650 Z-0.050000
G01 X13.941690 Y10.000000 Z-0.050000
G01 X15.000000 Y10.000000 Z-0.050000
G01 X15.000000 Y31.908800 Z-0.050000
G01 X9.708453 Y31.908800 Z-0.050000
G01 X8.650145 Y31.908800 Z-0.050000
G01 X8.650145 Y10.000000 Z-0.050000
G01 X5.475217 Y10.000000 Z-0.050000
G01 X5.475217 Y36.777430 Z-0.050000
G01 X3.358599 Y36.777430 Z-0.050000
G01 X3.358599 Y40.428900 Z-0.050000
G01 X7.591835 Y40.428900 Z-0.050000
G01 X7.591835 Y36.777430 Z-0.050000
G01 X6.533526 Y36.777430 Z-0.050000
G01 X6.533526 Y11.217150 Z-0.050000
G01 X7.591835 Y11.217150 Z-0.050000
G00 Z5.000000

(End cutting path id: path1023)



(Footer)
M5
G00 X0.0000 Y0.0000
M2
(Using default footer. To add your own footer create file "footer" in the output dir.)
(end)
%