%
(Header)
(Generated by gcodetools from Inkscape.)
(Using default header. To add your own header create file "header" in the output dir.)
M3
(Header end.)
G21 (All units in mm)

(Start cutting path id: path4801)
(Change tool to Cylindrical cutter)

G00 Z10.000000
G00 X4.134911 Y43.238260

G00 Z4.950000 (Fast pre-penetrate)
G01 Z-0.050000 F300.0(Penetrate)
G01 X4.134911 Y41.289130 Z-0.050000 F50.000000
G01 X25.000000 Y41.289130 Z-0.050000
G01 X25.000000 Y35.906390 Z-0.050000
G01 X4.134911 Y35.906390 Z-0.050000
G01 X4.134911 Y33.920230 Z-0.050000
G01 X25.000000 Y33.920230 Z-0.050000
G01 X25.000000 Y28.504580 Z-0.050000
G01 X4.134911 Y28.504580 Z-0.050000
G01 X4.134911 Y26.415640 Z-0.050000
G01 X25.000000 Y26.415640 Z-0.050000
G01 X25.000000 Y21.000000 Z-0.050000
G01 X2.354166 Y21.000000 Z-0.050000
G01 X2.354166 Y22.747630 Z-0.050000
G01 X23.365405 Y22.747630 Z-0.050000
G01 X23.365405 Y24.668000 Z-0.050000
G01 X2.500318 Y24.668000 Z-0.050000
G01 X2.500318 Y30.256350 Z-0.050000
G01 X23.365405 Y30.256350 Z-0.050000
G01 X23.365405 Y32.176690 Z-0.050000
G01 X2.500318 Y32.176690 Z-0.050000
G01 X2.500318 Y37.658150 Z-0.050000
G01 X23.365405 Y37.658150 Z-0.050000
G01 X23.365405 Y39.541490 Z-0.050000
G01 X2.500318 Y39.541490 Z-0.050000
G01 X2.500318 Y44.990030 Z-0.050000
G01 X23.365405 Y44.990030 Z-0.050000
G01 X23.365405 Y50.640050 Z-0.050000
G01 X18.707781 Y50.640050 Z-0.050000
G02 X16.916836 Y48.292352 Z-0.050000 I-4.152587 J1.310846
G02 X13.246320 Y47.210570 Z-0.050000 I-3.670516 J5.686189
G02 X9.578263 Y48.292772 Z-0.050000 I-0.000000 J6.757428
G02 X7.788704 Y50.640050 Z-0.050000 I2.364685 J3.658647
G01 X2.465703 Y50.640050 Z-0.050000
G01 X2.500315 Y63.494510 Z-0.050000
G01 X7.381015 Y63.494510 Z-0.050000
G02 X9.396323 Y66.305272 Z-0.050000 I4.758267 J-1.283797
G02 X13.677077 Y67.606610 Z-0.050000 I4.280754 J-6.390108
G02 X17.955959 Y66.307317 Z-0.050000 I-0.000000 J-7.695338
G02 X19.973142 Y63.494510 Z-0.050000 I-2.738640 J-4.093702
G01 X24.180775 Y63.494510 Z-0.050000
G01 X24.180775 Y61.742760 Z-0.050000
G01 X20.080834 Y61.742760 Z-0.050000
G02 X18.188391 Y58.607575 Z-0.050000 I-4.696531 J0.696148
G02 X13.677077 Y57.133060 Z-0.050000 I-4.511314 J6.163981
G02 X9.163621 Y58.607329 Z-0.050000 I-0.000000 J7.646077
G02 X7.273324 Y61.742760 Z-0.050000 I2.795832 J3.823088
G01 X4.131060 Y61.742760 Z-0.050000
G01 X4.104139 Y52.391810 Z-0.050000
G01 X7.665628 Y52.391810 Z-0.050000
G02 X9.344757 Y55.087286 Z-0.050000 I4.147876 J-0.713153
G02 X13.246315 Y56.351760 Z-0.050000 I3.901558 J-5.386929
G02 X17.161228 Y55.088886 Z-0.050000 I0.000000 J-6.699558
G02 X18.830853 Y52.391810 Z-0.050000 I-2.423571 J-3.365640
G01 X24.984611 Y52.391810 Z-0.050000
G01 X24.984611 Y43.238260 Z-0.050000
G01 X4.134911 Y43.238260 Z-0.050000
G00 Z10.000000

(End cutting path id: path4801)



(Footer)
M5
G00 X0.0000 Y0.0000
M2
(Using default footer. To add your own footer create file "footer" in the output dir.)
(end)
%