%
(Header)
(Generated by gcodetools from Inkscape.)
(Using default header. To add your own header create file "header" in the output dir.)
M3
(Header end.)
G21 (All units in mm)

(Start cutting path id: path2349-4)
(Change tool to Cylindrical cutter)

G00 Z0.100000
G00 X19.000000 Y48.000000

G00 Z4.900000 (Fast pre-penetrate)
G01 Z-0.100000 F300.0(Penetrate)
G02 X19.111372 Y47.640911 Z-0.100000 I-0.076788 J-0.220631 F200.000000
G02 X18.823057 Y47.445300 Z-0.100000 I-0.420397 J0.309351
G02 X18.157266 Y47.682709 Z-0.100000 I-0.158735 J0.607122
G02 X17.938302 Y48.369800 Z-0.100000 I0.921997 J0.672260
G02 X18.480134 Y49.397968 Z-0.100000 I1.277915 J-0.016592
G02 X19.530859 Y49.664080 Z-0.100000 I0.872812 J-1.238828
G02 X20.819546 Y48.829931 Z-0.100000 I-0.204152 J-1.727927
G02 X21.123415 Y47.260410 Z-0.100000 I-2.009793 J-1.203284
G02 X20.003134 Y45.565968 Z-0.100000 I-2.421287 J0.383276
G02 X18.115252 Y45.226520 Z-0.100000 I-1.366985 J2.183086
G02 X16.187709 Y46.642852 Z-0.100000 I0.580132 J2.809327
G02 X15.814894 Y49.109390 Z-0.100000 I3.119735 J1.732989
G02 X17.507909 Y51.476866 Z-0.100000 I3.542183 J-0.743977
G02 X20.238661 Y51.882860 Z-0.100000 I1.861148 J-3.131611
G02 X22.808664 Y49.886919 Z-0.100000 I-0.954007 J-3.880952
G02 X23.246823 Y46.520800 Z-0.100000 I-4.228854 J-2.262035
G02 X20.982605 Y43.478190 Z-0.100000 I-4.656838 J1.101692
G02 X17.407450 Y43.007750 Z-0.100000 I-2.355372 J4.079783
G02 X14.193638 Y45.582439 Z-0.100000 I1.326745 J4.949224
G02 X13.691486 Y49.848970 Z-0.100000 I5.336787 J2.790933
G02 X16.526311 Y53.567670 Z-0.100000 I5.768982 J-1.457923
G02 X20.946465 Y54.101640 Z-0.100000 I2.849679 J-5.027581
G02 X24.804752 Y50.948587 Z-0.100000 I-1.698775 J-6.015891
G02 X25.370231 Y45.781220 Z-0.100000 I-6.444113 J-3.319821
G01 X27.000000 Y29.000000 Z-0.100000
G00 Z0.100000

(End cutting path id: path2349-4)


(Start cutting path id: path2349)
(Change tool to Cylindrical cutter)

G00 Z0.100000
G00 X12.000000 Y30.000000

G00 Z4.900000 (Fast pre-penetrate)
G01 Z-0.100000 F300.0(Penetrate)
G02 X12.050193 Y29.838325 Z-0.100000 I-0.032925 J-0.098851 F200.000000
G02 X11.916670 Y29.750000 Z-0.100000 I-0.191946 J0.145082
G02 X11.601190 Y29.860478 Z-0.100000 I-0.073801 J0.294936
G02 X11.500003 Y30.166670 Z-0.100000 I0.392392 J0.299489
G02 X11.749278 Y30.627474 Z-0.100000 I0.564718 J-0.007663
G02 X12.250003 Y30.750000 Z-0.100000 I0.416831 J-0.619037
G02 X12.859840 Y30.366017 Z-0.100000 I-0.093204 J-0.824283
G02 X13.000003 Y29.666670 Z-0.100000 I-0.854082 J-0.534895
G02 X12.482526 Y28.906382 Z-0.100000 I-1.079614 J0.178572
G02 X11.583336 Y28.750000 Z-0.100000 I-0.652814 J1.090305
G02 X10.671924 Y29.400436 Z-0.100000 I0.263400 J1.332853
G02 X10.500003 Y30.500000 Z-0.100000 I1.326728 J0.770661
G02 X11.283137 Y31.562916 Z-0.100000 I1.585030 J-0.347861
G02 X12.583336 Y31.750000 Z-0.100000 I0.888470 J-1.563087
G02 X13.797980 Y30.834331 Z-0.100000 I-0.432059 J-1.836585
G02 X14.000003 Y29.333330 Z-0.100000 I-1.799329 J-1.006271
G02 X12.951892 Y27.966815 Z-0.100000 I-2.087755 J0.516093
G02 X11.250003 Y27.750000 Z-0.100000 I-1.124070 J2.035488
G02 X9.731506 Y28.930489 Z-0.100000 I0.599988 J2.338669
G02 X9.500003 Y30.833330 Z-0.100000 I2.271556 J1.241864
G02 X10.812823 Y32.503881 Z-0.100000 I2.589385 J-0.683773
G02 X12.916670 Y32.750000 Z-0.100000 I1.359671 J-2.507593
G02 X14.739328 Y31.304880 Z-0.100000 I-0.767484 J-2.839962
G02 X15.000003 Y29.000000 Z-0.100000 I-2.743581 J-1.477472
G01 X29.000000 Y23.000000 Z-0.100000
G00 Z0.100000

(End cutting path id: path2349)



(Footer)
M5
G00 X0.0000 Y0.0000
M2
(Using default footer. To add your own footer create file "footer" in the output dir.)
(end)
%