%
(Header)
(Generated by gcodetools from Inkscape.)
(Using default header. To add your own header create file "header" in the output dir.)
M3
(Header end.)
G21 (All units in mm)

(Start cutting path id: path953-3-5)
(Change tool to Cylindrical cutter)

G00 Z0.100000
G00 X10.695834 Y19.662290

G00 Z4.900000 (Fast pre-penetrate)
G01 Z-0.100000 F300.0(Penetrate)
G01 X10.695834 Y9.662290 Z-0.100000 F100.000000
G00 Z0.100000

(End cutting path id: path953-3-5)


(Start cutting path id: path953-3)
(Change tool to Cylindrical cutter)

G00 Z0.100000
G00 X7.525000 Y19.595730

G00 Z4.900000 (Fast pre-penetrate)
G01 Z-0.100000 F300.0(Penetrate)
G01 X7.525000 Y9.595730 Z-0.100000 F100.000000
G00 Z0.100000

(End cutting path id: path953-3)


(Start cutting path id: path953)
(Change tool to Cylindrical cutter)

G00 Z0.100000
G00 X5.000000 Y20.000000

G00 Z4.900000 (Fast pre-penetrate)
G01 Z-0.100000 F300.0(Penetrate)
G01 X5.000000 Y10.000000 Z-0.100000 F100.000000
G00 Z0.100000

(End cutting path id: path953)



(Footer)
M5
G00 X0.0000 Y0.0000
M2
(Using default footer. To add your own footer create file "footer" in the output dir.)
(end)
%