%
(Header)
(Generated by gcodetools from Inkscape.)
(Using default header. To add your own header create file "header" in the output dir.)
M3
(Header end.)
G21 (All units in mm)

(Start cutting path id: path1731)
(Change tool to Cylindrical cutter)

G00 Z0.100000
G00 X5.000000 Y20.000000

G00 Z4.900000 (Fast pre-penetrate)
G01 Z-0.100000 F300.0(Penetrate)
G01 X8.750000 Y33.500000 Z-0.100000 F200.000000
G01 X8.750000 Y65.000000 Z-0.100000
G01 X10.625000 Y65.000000 Z-0.100000
G01 X10.625000 Y33.500000 Z-0.100000
G01 X12.500000 Y33.500000 Z-0.100000
G01 X12.500000 Y65.000000 Z-0.100000
G01 X14.375000 Y65.000000 Z-0.100000
G01 X14.375000 Y33.500000 Z-0.100000
G01 X16.250001 Y33.500000 Z-0.100000
G01 X16.250001 Y65.000000 Z-0.100000
G01 X18.125001 Y65.000000 Z-0.100000
G01 X18.125001 Y33.500000 Z-0.100000
G01 X20.000000 Y33.500000 Z-0.100000
G01 X20.000000 Y65.000000 Z-0.100000
G01 X23.750001 Y51.500000 Z-0.100000
G00 Z0.100000

(End cutting path id: path1731)



(Footer)
M5
G00 X0.0000 Y0.0000
M2
(Using default footer. To add your own footer create file "footer" in the output dir.)
(end)
%