%
(Header)
(Generated by gcodetools from Inkscape.)
(Using default header. To add your own header create file "header" in the output dir.)
M3
(Header end.)
G21 (All units in mm)

(Start cutting path id: path4801)
(Change tool to Cylindrical cutter)

G00 Z10.000000
G00 X4.973389 Y17.126180

G00 Z4.950000 (Fast pre-penetrate)
G01 Z-0.050000 F300.0(Penetrate)
G01 X4.973389 Y15.796020 Z-0.050000 F50.000000
G01 X17.062141 Y15.796020 Z-0.050000
G01 X17.062141 Y12.122610 Z-0.050000
G01 X4.973389 Y12.122610 Z-0.050000
G01 X4.973389 Y10.767180 Z-0.050000
G01 X17.062141 Y10.767180 Z-0.050000
G01 X17.062141 Y7.071310 Z-0.050000
G01 X4.973389 Y7.071310 Z-0.050000
G01 X4.973389 Y5.645740 Z-0.050000
G01 X17.062141 Y5.645740 Z-0.050000
G01 X17.062141 Y1.949880 Z-0.050000
G01 X3.941667 Y1.949880 Z-0.050000
G01 X3.941667 Y3.142530 Z-0.050000
G01 X16.115094 Y3.142530 Z-0.050000
G01 X16.115094 Y4.453070 Z-0.050000
G01 X4.026344 Y4.453070 Z-0.050000
G01 X4.026344 Y8.266790 Z-0.050000
G01 X16.115094 Y8.266790 Z-0.050000
G01 X16.115094 Y9.577310 Z-0.050000
G01 X4.026344 Y9.577310 Z-0.050000
G01 X4.026344 Y13.318090 Z-0.050000
G01 X16.115094 Y13.318090 Z-0.050000
G01 X16.115094 Y14.603350 Z-0.050000
G01 X4.026344 Y14.603350 Z-0.050000
G01 X4.026344 Y18.321660 Z-0.050000
G01 X16.115094 Y18.321660 Z-0.050000
G01 X16.115094 Y22.177470 Z-0.050000
G01 X13.416575 Y22.177470 Z-0.050000
G02 X12.310495 Y20.530416 Z-0.050000 I-2.960998 J0.793539
G02 X10.252329 Y19.837050 Z-0.050000 I-2.058166 J2.708014
G02 X8.195511 Y20.530654 Z-0.050000 I0.000000 J3.396454
G02 X7.090312 Y22.177470 Z-0.050000 I1.857388 J2.440779
G01 X4.006288 Y22.177470 Z-0.050000
G01 X4.026341 Y30.949880 Z-0.050000
G01 X6.854106 Y30.949880 Z-0.050000
G02 X8.102860 Y32.923862 Z-0.050000 I3.424545 J-0.784414
G02 X10.501899 Y33.756150 Z-0.050000 I2.399039 J-3.041423
G02 X12.899739 Y32.925158 Z-0.050000 I-0.000000 J-3.874999
G02 X14.149695 Y30.949880 Z-0.050000 I-2.172406 J-2.757823
G01 X16.587501 Y30.949880 Z-0.050000
G01 X16.587501 Y29.754410 Z-0.050000
G01 X14.212090 Y29.754410 Z-0.050000
G02 X13.028165 Y27.547040 Z-0.050000 I-3.461995 J0.435660
G02 X10.501900 Y26.608570 Z-0.050000 I-2.526265 J2.930987
G02 X7.974504 Y27.546901 Z-0.050000 I0.000000 J3.872938
G02 X6.791713 Y29.754410 Z-0.050000 I2.271856 J2.637894
G01 X4.971158 Y29.754410 Z-0.050000
G01 X4.955561 Y23.372940 Z-0.050000
G01 X7.019005 Y23.372940 Z-0.050000
G02 X8.067234 Y25.270094 Z-0.050000 I3.045455 J-0.444532
G02 X10.252327 Y26.075370 Z-0.050000 I2.185093 J-2.561954
G02 X12.444502 Y25.271001 Z-0.050000 I0.000000 J-3.389392
G02 X13.487880 Y23.372940 Z-0.050000 I-1.963164 J-2.314972
G01 X17.053225 Y23.372940 Z-0.050000
G01 X17.053225 Y17.126180 Z-0.050000
G01 X4.973389 Y17.126180 Z-0.050000
G00 Z10.000000

(End cutting path id: path4801)



(Footer)
M5
G00 X0.0000 Y0.0000
M2
(Using default footer. To add your own footer create file "footer" in the output dir.)
(end)
%