%
(Header)
(Generated by gcodetools from Inkscape.)
(Using default header. To add your own header create file "header" in the output dir.)
M3
(Header end.)
G21 (All units in mm)

(Start cutting path id: path1010-8-2)
(Change tool to Cylindrical cutter)

G00 Z1.000000
G00 X5.820833 Y10.575180

G00 Z4.950000 (Fast pre-penetrate)
G01 Z-0.050000 F300.0(Penetrate)
G01 X5.820833 Y40.575180 Z-0.050000 F30.000000
G00 Z1.000000

(End cutting path id: path1010-8-2)


(Start cutting path id: path1010-8)
(Change tool to Cylindrical cutter)

G00 Z1.000000
G00 X3.175000 Y10.287590

G00 Z4.950000 (Fast pre-penetrate)
G01 Z-0.050000 F300.0(Penetrate)
G01 X3.175000 Y40.287590 Z-0.050000 F30.000000
G00 Z1.000000

(End cutting path id: path1010-8)


(Start cutting path id: path1010-2)
(Change tool to Cylindrical cutter)

G00 Z1.000000
G00 X1.058333 Y10.295810

G00 Z4.950000 (Fast pre-penetrate)
G01 Z-0.050000 F300.0(Penetrate)
G01 X1.058333 Y40.295810 Z-0.050000 F30.000000
G00 Z1.000000

(End cutting path id: path1010-2)


(Start cutting path id: path1010)
(Change tool to Cylindrical cutter)

G00 Z1.000000
G00 X0.000000 Y10.529170

G00 Z4.950000 (Fast pre-penetrate)
G01 Z-0.050000 F300.0(Penetrate)
G01 X0.000000 Y40.529170 Z-0.050000 F30.000000
G00 Z1.000000

(End cutting path id: path1010)



(Footer)
M5
G00 X0.0000 Y0.0000
M2
(Using default footer. To add your own footer create file "footer" in the output dir.)
(end)
%