%
(Header)
(Generated by gcodetools from Inkscape.)
(Using default header. To add your own header create file "header" in the output dir.)
M3
(Header end.)
G21 (All units in mm)

(Start cutting path id: path4801)
(Change tool to Cylindrical cutter)

G00 Z10.000000
G00 X4.843871 Y14.012490

G00 Z4.950000 (Fast pre-penetrate)
G01 Z-0.050000 F300.0(Penetrate)
G01 X4.843871 Y12.955230 Z-0.050000 F50.000000
G01 X15.415056 Y12.955230 Z-0.050000
G01 X15.415056 Y10.035490 Z-0.050000
G01 X4.843871 Y10.035490 Z-0.050000
G01 X4.843871 Y8.958150 Z-0.050000
G01 X15.415056 Y8.958150 Z-0.050000
G01 X15.415056 Y6.020560 Z-0.050000
G01 X4.843871 Y6.020560 Z-0.050000
G01 X4.843871 Y4.887470 Z-0.050000
G01 X15.415056 Y4.887470 Z-0.050000
G01 X15.415056 Y1.949880 Z-0.050000
G01 X3.941667 Y1.949880 Z-0.050000
G01 X3.941667 Y2.897840 Z-0.050000
G01 X14.586897 Y2.897840 Z-0.050000
G01 X14.586897 Y3.939490 Z-0.050000
G01 X4.015714 Y3.939490 Z-0.050000
G01 X4.015714 Y6.970760 Z-0.050000
G01 X14.586897 Y6.970760 Z-0.050000
G01 X14.586897 Y8.012400 Z-0.050000
G01 X4.015714 Y8.012400 Z-0.050000
G01 X4.015714 Y10.985690 Z-0.050000
G01 X14.586897 Y10.985690 Z-0.050000
G01 X14.586897 Y12.007260 Z-0.050000
G01 X4.015714 Y12.007260 Z-0.050000
G01 X4.015714 Y14.962690 Z-0.050000
G01 X14.586897 Y14.962690 Z-0.050000
G01 X14.586897 Y18.027410 Z-0.050000
G01 X12.227138 Y18.027410 Z-0.050000
G02 X11.295083 Y16.739461 Z-0.050000 I-2.288164 J0.674658
G02 X9.460117 Y16.167170 Z-0.050000 I-1.834966 J2.655626
G02 X7.626370 Y16.739673 Z-0.050000 I0.000000 J3.223029
G02 X6.695046 Y18.027410 Z-0.050000 I1.357879 J1.962701
G01 X3.998176 Y18.027410 Z-0.050000
G01 X4.015711 Y25.000000 Z-0.050000
G01 X6.488492 Y25.000000 Z-0.050000
G02 X7.538875 Y26.542689 Z-0.050000 I2.632330 J-0.663360
G02 X9.678357 Y27.230510 Z-0.050000 I2.139482 J-2.983542
G02 X11.816853 Y26.543762 Z-0.050000 I0.000000 J-3.672954
G02 X12.868225 Y25.000000 Z-0.050000 I-1.579481 J-2.205595
G01 X15.000000 Y25.000000 Z-0.050000
G01 X15.000000 Y24.049800 Z-0.050000
G01 X12.922787 Y24.049800 Z-0.050000
G02 X11.932153 Y22.327165 Z-0.050000 I-2.625070 J0.363438
G02 X9.678358 Y21.549390 Z-0.050000 I-2.253795 J2.876576
G02 X7.423518 Y22.327042 Z-0.050000 I0.000000 J3.657836
G02 X6.433931 Y24.049800 Z-0.050000 I1.629783 J2.081779
G01 X4.841920 Y24.049800 Z-0.050000
G01 X4.828281 Y18.977610 Z-0.050000
G01 X6.632690 Y18.977610 Z-0.050000
G02 X7.510817 Y20.458434 Z-0.050000 I2.314424 J-0.371675
G02 X9.460115 Y21.125590 Z-0.050000 I1.949298 J-2.514154
G02 X11.415938 Y20.459240 Z-0.050000 I-0.000000 J-3.203473
G02 X12.289491 Y18.977610 Z-0.050000 I-1.410820 J-1.830137
G01 X15.407259 Y18.977610 Z-0.050000
G01 X15.407259 Y14.012490 Z-0.050000
G01 X4.843871 Y14.012490 Z-0.050000
G00 Z10.000000

(End cutting path id: path4801)



(Footer)
M5
G00 X0.0000 Y0.0000
M2
(Using default footer. To add your own footer create file "footer" in the output dir.)
(end)
%