%
(Header)
(Generated by gcodetools from Inkscape.)
(Using default header. To add your own header create file "header" in the output dir.)
M3
(Header end.)
G21 (All units in mm)

(Start cutting path id: path2910)
(Change tool to Cylindrical cutter)

G00 Z0.100000
G00 X10.000000 Y20.000000

G00 Z4.900000 (Fast pre-penetrate)
G01 Z-0.100000 F300.0(Penetrate)
G01 X10.000000 Y40.000000 Z-0.100000 F100.000000
G01 X12.000000 Y40.000000 Z-0.100000
G01 X12.000000 Y37.000000 Z-0.100000
G01 X12.000000 Y27.000000 Z-0.100000
G01 X15.000000 Y27.000000 Z-0.100000
G01 X15.000000 Y29.000000 Z-0.100000
G01 X13.000000 Y29.000000 Z-0.100000
G01 X13.000000 Y40.000000 Z-0.100000
G01 X15.000000 Y40.000000 Z-0.100000
G01 X15.000000 Y37.000000 Z-0.100000
G01 X16.000000 Y37.000000 Z-0.100000
G01 X16.000000 Y40.000000 Z-0.100000
G01 X17.000000 Y40.000000 Z-0.100000
G01 X17.000000 Y26.000000 Z-0.100000
G01 X19.000000 Y26.000000 Z-0.100000
G01 X19.000000 Y40.000000 Z-0.100000
G01 X18.000000 Y41.000000 Z-0.100000
G01 X18.000000 Y42.000000 Z-0.100000
G01 X21.000000 Y42.000000 Z-0.100000
G01 X21.000000 Y41.000000 Z-0.100000
G01 X20.000000 Y40.000000 Z-0.100000
G01 X20.000000 Y26.000000 Z-0.100000
G01 X22.000000 Y26.000000 Z-0.100000
G01 X22.000000 Y29.000000 Z-0.100000
G01 X24.000000 Y29.000000 Z-0.100000
G01 X24.000000 Y38.000000 Z-0.100000
G01 X22.000000 Y38.000000 Z-0.100000
G01 X22.000000 Y32.000000 Z-0.100000
G00 Z0.100000

(End cutting path id: path2910)



(Footer)
M5
G00 X0.0000 Y0.0000
M2
(Using default footer. To add your own footer create file "footer" in the output dir.)
(end)
%