%
(Header)
(Generated by gcodetools from Inkscape.)
(Using default header. To add your own header create file "header" in the output dir.)
M3
(Header end.)
G21 (All units in mm)

(Start cutting path id: path1010-8-5-5-4-0-5)
(Change tool to Cylindrical cutter)

G00 Z10.000000
G00 X6.472518 Y10.099730

G00 Z4.950000 (Fast pre-penetrate)
G01 Z-0.050000 F300.0(Penetrate)
G01 X6.472518 Y29.060960 Z-0.050000 F10.000000
G00 Z10.000000

(End cutting path id: path1010-8-5-5-4-0-5)


(Start cutting path id: path1010-8-5-5-4-0)
(Change tool to Cylindrical cutter)

G00 Z10.000000
G00 X4.860213 Y9.996960

G00 Z4.950000 (Fast pre-penetrate)
G01 Z-0.050000 F300.0(Penetrate)
G01 X4.860213 Y28.958190 Z-0.050000 F10.000000
G00 Z10.000000

(End cutting path id: path1010-8-5-5-4-0)


(Start cutting path id: path1010-8-5-5-4)
(Change tool to Cylindrical cutter)

G00 Z10.000000
G00 X3.469783 Y10.038770

G00 Z4.950000 (Fast pre-penetrate)
G01 Z-0.050000 F300.0(Penetrate)
G01 X3.469783 Y29.000000 Z-0.050000 F10.000000
G00 Z10.000000

(End cutting path id: path1010-8-5-5-4)


(Start cutting path id: path1010-8-5-5)
(Change tool to Cylindrical cutter)

G00 Z10.000000
G00 X2.245630 Y10.038770

G00 Z4.950000 (Fast pre-penetrate)
G01 Z-0.050000 F300.0(Penetrate)
G01 X2.245630 Y29.000000 Z-0.050000 F10.000000
G00 Z10.000000

(End cutting path id: path1010-8-5-5)


(Start cutting path id: path1010-8-5)
(Change tool to Cylindrical cutter)

G00 Z10.000000
G00 X1.187296 Y9.891280

G00 Z4.950000 (Fast pre-penetrate)
G01 Z-0.050000 F300.0(Penetrate)
G01 X1.187296 Y28.852510 Z-0.050000 F10.000000
G00 Z10.000000

(End cutting path id: path1010-8-5)



(Footer)
M5
G00 X0.0000 Y0.0000
M2
(Using default footer. To add your own footer create file "footer" in the output dir.)
(end)
%