%
(Header)
(Generated by gcodetools from Inkscape.)
(Using default header. To add your own header create file "header" in the output dir.)
M3
(Header end.)
G21 (All units in mm)

(Start cutting path id: polygon1057)
(Change tool to Cylindrical cutter)

G00 Z1.000000
G00 X9.504420 Y22.387822

G00 Z4.950000 (Fast pre-penetrate)
G01 Z-0.050000 F300.0(Penetrate)
G01 X9.504420 Y20.588655 Z-0.050000 F50.000000
G01 X8.795337 Y20.588655 Z-0.050000
G01 X8.795337 Y18.837114 Z-0.050000
G01 X8.451379 Y18.837114 Z-0.050000
G01 X8.451379 Y20.588655 Z-0.050000
G01 X7.702608 Y20.588655 Z-0.050000
G01 X7.702608 Y22.387822 Z-0.050000
G01 X8.451379 Y22.387822 Z-0.050000
G01 X8.451379 Y23.586384 Z-0.050000
G01 X7.702608 Y23.586384 Z-0.050000
G01 X7.702608 Y25.388197 Z-0.050000
G01 X9.504420 Y25.388197 Z-0.050000
G01 X9.504420 Y23.586384 Z-0.050000
G01 X8.755649 Y23.586384 Z-0.050000
G01 X8.755649 Y22.387822 Z-0.050000
G01 X9.504420 Y22.387822 Z-0.050000
G00 Z1.000000

(End cutting path id: polygon1057)


(Start cutting path id: polygon1055)
(Change tool to Cylindrical cutter)

G00 Z1.000000
G00 X14.621462 Y31.306926

G00 Z4.950000 (Fast pre-penetrate)
G01 Z-0.050000 F300.0(Penetrate)
G01 X14.621462 Y28.679614 Z-0.050000 F50.000000
G01 X13.584295 Y28.679614 Z-0.050000
G01 X13.584295 Y26.123739 Z-0.050000
G01 X13.086879 Y26.123739 Z-0.050000
G01 X13.086879 Y28.679614 Z-0.050000
G01 X11.991504 Y28.679614 Z-0.050000
G01 X11.991504 Y31.306926 Z-0.050000
G01 X13.086879 Y31.306926 Z-0.050000
G01 X13.086879 Y33.058468 Z-0.050000
G01 X11.991504 Y33.058468 Z-0.050000
G01 X11.991504 Y35.688426 Z-0.050000
G01 X14.621462 Y35.688426 Z-0.050000
G01 X14.621462 Y33.058468 Z-0.050000
G01 X13.526087 Y33.058468 Z-0.050000
G01 X13.526087 Y31.306926 Z-0.050000
G01 X14.621462 Y31.306926 Z-0.050000
G00 Z1.000000

(End cutting path id: polygon1055)


(Start cutting path id: polygon1053)
(Change tool to Cylindrical cutter)

G00 Z1.000000
G00 X9.194858 Y37.392343

G00 Z4.950000 (Fast pre-penetrate)
G01 Z-0.050000 F300.0(Penetrate)
G01 X9.194858 Y32.894426 Z-0.050000 F50.000000
G01 X7.419504 Y32.894426 Z-0.050000
G01 X7.419504 Y28.518218 Z-0.050000
G01 X6.564899 Y28.518218 Z-0.050000
G01 X6.564899 Y32.894426 Z-0.050000
G01 X4.691649 Y32.894426 Z-0.050000
G01 X4.691649 Y37.392343 Z-0.050000
G01 X6.564899 Y37.392343 Z-0.050000
G01 X6.564899 Y40.392718 Z-0.050000
G01 X4.691649 Y40.392718 Z-0.050000
G01 X4.691649 Y44.895926 Z-0.050000
G01 X9.194858 Y44.895926 Z-0.050000
G01 X9.194858 Y40.392718 Z-0.050000
G01 X7.321608 Y40.392718 Z-0.050000
G01 X7.321608 Y37.392343 Z-0.050000
G01 X9.194858 Y37.392343 Z-0.050000
G00 Z1.000000

(End cutting path id: polygon1053)



(Footer)
M5
G00 X0.0000 Y0.0000
M2
(Using default footer. To add your own footer create file "footer" in the output dir.)
(end)
%