%
(Header)
(Generated by gcodetools from Inkscape.)
(Using default header. To add your own header create file "header" in the output dir.)
M3
(Header end.)
G21 (All units in mm)

(Start cutting path id: path9911)
(Change tool to Cylindrical cutter)

G00 Z1.000000
G00 X10.000000 Y10.000000

G00 Z4.950000 (Fast pre-penetrate)
G01 Z-0.050000 F300.0(Penetrate)
G01 X10.000000 Y5.000000 Z-0.050000 F30.000000
G00 Z1.000000

(End cutting path id: path9911)


(Start cutting path id: path9909)
(Change tool to Cylindrical cutter)

G00 Z1.000000
G00 X10.000000 Y30.000000

G00 Z4.950000 (Fast pre-penetrate)
G01 Z-0.050000 F300.0(Penetrate)
G01 X10.000000 Y20.000000 Z-0.050000 F30.000000
G00 Z1.000000

(End cutting path id: path9909)


(Start cutting path id: path9907)
(Change tool to Cylindrical cutter)

G00 Z1.000000
G00 X10.000000 Y50.000000

G00 Z4.950000 (Fast pre-penetrate)
G01 Z-0.050000 F300.0(Penetrate)
G01 X10.000000 Y40.000000 Z-0.050000 F30.000000
G00 Z1.000000

(End cutting path id: path9907)


(Start cutting path id: path9905)
(Change tool to Cylindrical cutter)

G00 Z1.000000
G00 X10.000000 Y70.000000

G00 Z4.950000 (Fast pre-penetrate)
G01 Z-0.050000 F300.0(Penetrate)
G01 X10.000000 Y60.000000 Z-0.050000 F30.000000
G00 Z1.000000

(End cutting path id: path9905)



(Footer)
M5
G00 X0.0000 Y0.0000
M2
(Using default footer. To add your own footer create file "footer" in the output dir.)
(end)
%