%
(Header)
(Generated by gcodetools from Inkscape.)
(Using default header. To add your own header create file "header" in the output dir.)
M3
(Header end.)
G21 (All units in mm)

(Start cutting path id: path1579)
(Change tool to Cylindrical cutter)

G00 Z1.000000
G00 X6.220322 Y5.808140

G00 Z4.950000 (Fast pre-penetrate)
G01 Z-0.050000 F300.0(Penetrate)
G01 X1.045347 Y5.818540 Z-0.050000 F30.000000
G01 X1.045347 Y14.127790 Z-0.050000
G01 X1.045347 Y22.437040 Z-0.050000
G01 X0.636123 Y22.437040 Z-0.050000
G01 X0.226899 Y22.437040 Z-0.050000
G01 X0.226899 Y24.903640 Z-0.050000
G01 X0.226899 Y27.370240 Z-0.050000
G01 X0.636123 Y27.370240 Z-0.050000
G01 X1.045347 Y27.370240 Z-0.050000
G01 X1.045347 Y28.557290 Z-0.050000
G01 X1.045347 Y29.744340 Z-0.050000
G01 X1.249959 Y29.744340 Z-0.050000
G01 X1.454571 Y29.744340 Z-0.050000
G01 X1.454571 Y28.372290 Z-0.050000
G01 X1.454571 Y27.000250 Z-0.050000
G01 X1.045347 Y27.000250 Z-0.050000
G01 X0.636123 Y27.000250 Z-0.050000
G01 X0.636123 Y24.903640 Z-0.050000
G01 X0.636123 Y22.807030 Z-0.050000
G01 X1.045347 Y22.807030 Z-0.050000
G01 X1.454571 Y22.807030 Z-0.050000
G01 X1.454571 Y14.482160 Z-0.050000
G01 X1.454571 Y6.157290 Z-0.050000
G01 X6.424934 Y6.165290 Z-0.050000
G01 X11.395299 Y6.173290 Z-0.050000
G01 X11.404399 Y6.998060 Z-0.050000
G01 X11.413499 Y7.822830 Z-0.050000
G01 X13.253892 Y7.822830 Z-0.050000
G01 X15.094284 Y7.822830 Z-0.050000
G01 X15.103384 Y6.998060 Z-0.050000
G01 X15.112484 Y6.173290 Z-0.050000
G01 X16.809057 Y6.165290 Z-0.050000
G01 X18.505630 Y6.157290 Z-0.050000
G01 X18.505630 Y14.482350 Z-0.050000
G01 X18.505630 Y22.807400 Z-0.050000
G01 X18.914854 Y22.807400 Z-0.050000
G01 X19.324078 Y22.807400 Z-0.050000
G01 X19.324078 Y24.904010 Z-0.050000
G01 X19.324078 Y27.000620 Z-0.050000
G01 X18.914854 Y27.000620 Z-0.050000
G01 X18.505630 Y27.000620 Z-0.050000
G01 X18.505630 Y28.372660 Z-0.050000
G01 X18.505630 Y29.744710 Z-0.050000
G01 X18.710242 Y29.744710 Z-0.050000
G01 X18.914854 Y29.744710 Z-0.050000
G01 X18.914854 Y28.557660 Z-0.050000
G01 X18.914854 Y27.370610 Z-0.050000
G01 X19.324078 Y27.370610 Z-0.050000
G01 X19.733302 Y27.370610 Z-0.050000
G01 X19.733302 Y24.904010 Z-0.050000
G01 X19.733302 Y22.437410 Z-0.050000
G01 X19.324078 Y22.437410 Z-0.050000
G01 X18.914854 Y22.437410 Z-0.050000
G01 X18.914854 Y14.128060 Z-0.050000
G01 X18.914854 Y5.818710 Z-0.050000
G01 X17.965636 Y5.818710 Z-0.050000
G03 X17.016420 Y5.817326 Z-0.050000 I-0.000006 J-325.514503
G03 X14.205893 Y5.808410 Z-0.050000 I15.988906 J-5482.845570
G02 X11.395363 Y5.802955 Z-0.050000 I-2.810527 J724.081115
G02 X6.220391 Y5.808410 Z-0.050000 I-0.000019 J2454.871293
G01 X6.220322 Y5.808140 Z-0.050000
G00 Z1.000000

(End cutting path id: path1579)


(Start cutting path id: path1579)
(Change tool to Cylindrical cutter)

G00 Z1.000000
G00 X8.615986 Y11.321950

G00 Z4.950000 (Fast pre-penetrate)
G01 Z-0.050000 F300.0(Penetrate)
G01 X8.615986 Y12.663160 Z-0.050000 F30.000000
G01 X8.820598 Y12.663160 Z-0.050000
G01 X9.025210 Y12.663160 Z-0.050000
G01 X9.025210 Y11.491530 Z-0.050000
G01 X9.025210 Y10.319890 Z-0.050000
G01 X9.980066 Y10.319890 Z-0.050000
G01 X10.934922 Y10.319890 Z-0.050000
G01 X10.934922 Y11.491530 Z-0.050000
G01 X10.934922 Y12.663160 Z-0.050000
G01 X11.139534 Y12.663160 Z-0.050000
G01 X11.344146 Y12.663160 Z-0.050000
G01 X11.344146 Y11.321950 Z-0.050000
G01 X11.344146 Y9.980730 Z-0.050000
G01 X9.980066 Y9.980730 Z-0.050000
G01 X8.615986 Y9.980730 Z-0.050000
G01 X8.615986 Y11.321950 Z-0.050000
G00 Z1.000000

(End cutting path id: path1579)


(Start cutting path id: path1579)
(Change tool to Cylindrical cutter)

G00 Z1.000000
G00 X1.863794 Y15.268500

G00 Z4.950000 (Fast pre-penetrate)
G01 Z-0.050000 F300.0(Penetrate)
G01 X1.863794 Y20.402110 Z-0.050000 F30.000000
G01 X3.176721 Y20.402110 Z-0.050000
G01 X4.489647 Y20.402110 Z-0.050000
G01 X4.489647 Y21.172920 Z-0.050000
G01 X4.489647 Y21.943730 Z-0.050000
G01 X5.035278 Y21.943730 Z-0.050000
G01 X5.580910 Y21.943730 Z-0.050000
G01 X5.580910 Y21.188620 Z-0.050000
G01 X5.580910 Y20.433510 Z-0.050000
G01 X7.294534 Y20.425510 Z-0.050000
G01 X9.008159 Y20.417510 Z-0.050000
G01 X9.016959 Y18.636940 Z-0.050000
G01 X9.025759 Y16.856360 Z-0.050000
G01 X6.501940 Y16.856360 Z-0.050000
G01 X3.978117 Y16.856360 Z-0.050000
G01 X3.978117 Y13.495630 Z-0.050000
G01 X3.978117 Y10.134890 Z-0.050000
G01 X3.773505 Y10.134890 Z-0.050000
G01 X3.568893 Y10.134890 Z-0.050000
G01 X3.568893 Y13.680620 Z-0.050000
G01 X3.568893 Y17.226350 Z-0.050000
G01 X6.092440 Y17.226350 Z-0.050000
G01 X8.615986 Y17.226350 Z-0.050000
G01 X8.615986 Y18.644650 Z-0.050000
G01 X8.615986 Y20.062940 Z-0.050000
G01 X6.893836 Y20.062940 Z-0.050000
G01 X5.171686 Y20.062940 Z-0.050000
G01 X5.171686 Y20.818340 Z-0.050000
G01 X5.171686 Y21.573730 Z-0.050000
G01 X5.035278 Y21.573730 Z-0.050000
G01 X4.898870 Y21.573730 Z-0.050000
G01 X4.898870 Y20.818340 Z-0.050000
G01 X4.898870 Y20.062940 Z-0.050000
G01 X3.568893 Y20.062940 Z-0.050000
G01 X2.238916 Y20.062940 Z-0.050000
G01 X2.238916 Y15.098910 Z-0.050000
G01 X2.238916 Y10.134890 Z-0.050000
G01 X2.051355 Y10.134890 Z-0.050000
G01 X1.863794 Y10.134890 Z-0.050000
G01 X1.863794 Y15.268500 Z-0.050000
G00 Z1.000000

(End cutting path id: path1579)


(Start cutting path id: path1579)
(Change tool to Cylindrical cutter)

G00 Z1.000000
G00 X4.375671 Y10.694820

G00 Z4.950000 (Fast pre-penetrate)
G01 Z-0.050000 F300.0(Penetrate)
G02 X4.362476 Y11.254933 Z-0.050000 I16.971189 J0.680038 F30.000000
G02 X4.353241 Y13.870570 Z-0.050000 I370.440384 J2.615637
G01 X4.353241 Y16.486390 Z-0.050000
G01 X6.690929 Y16.486390 Z-0.050000
G01 X9.028617 Y16.486390 Z-0.050000
G01 X9.018387 Y16.309100 Z-0.050000
G01 X9.008157 Y16.131810 Z-0.050000
G01 X6.881847 Y16.123810 Z-0.050000
G01 X4.755538 Y16.115810 Z-0.050000
G01 X4.767528 Y13.125290 Z-0.050000
G01 X4.779518 Y10.134770 Z-0.050000
G01 X4.588813 Y10.134770 Z-0.050000
G01 X4.398108 Y10.134780 Z-0.050000
G01 X4.375671 Y10.694820 Z-0.050000
G00 Z1.000000

(End cutting path id: path1579)


(Start cutting path id: path1579)
(Change tool to Cylindrical cutter)

G00 Z1.000000
G00 X5.205788 Y12.925240

G00 Z4.950000 (Fast pre-penetrate)
G01 Z-0.050000 F300.0(Penetrate)
G01 X5.205788 Y15.715570 Z-0.050000 F30.000000
G01 X6.552816 Y15.722570 Z-0.050000
G02 X7.899846 Y15.728654 Z-0.050000 I4.120581 J-763.208560
G02 X8.454002 Y15.730570 Z-0.050000 I5.703582 J-1569.324248
G01 X9.008159 Y15.731000 Z-0.050000
G01 X9.018219 Y15.558690 Z-0.050000
G01 X9.028279 Y15.386370 Z-0.050000
G01 X8.182717 Y15.366070 Z-0.050000
G02 X7.337094 Y15.350825 Z-0.050000 I-1.682275 J69.853306
G02 X6.476081 Y15.345670 Z-0.050000 I-0.861013 J71.902950
G01 X5.615006 Y15.345670 Z-0.050000
G01 X5.615006 Y12.740330 Z-0.050000
G01 X5.615006 Y10.134990 Z-0.050000
G01 X5.410394 Y10.134990 Z-0.050000
G01 X5.205782 Y10.134990 Z-0.050000
G01 X5.205782 Y12.925320 Z-0.050000
G01 X5.205788 Y12.925240 Z-0.050000
G00 Z1.000000

(End cutting path id: path1579)


(Start cutting path id: path1579)
(Change tool to Cylindrical cutter)

G00 Z1.000000
G00 X6.058338 Y12.555250

G00 Z4.950000 (Fast pre-penetrate)
G01 Z-0.050000 F300.0(Penetrate)
G01 X6.058338 Y14.975590 Z-0.050000 F30.000000
G01 X7.541774 Y14.975590 Z-0.050000
G01 X9.025210 Y14.975590 Z-0.050000
G01 X9.025210 Y14.790600 Z-0.050000
G01 X9.025210 Y14.605600 Z-0.050000
G01 X7.746386 Y14.605600 Z-0.050000
G01 X6.467561 Y14.605600 Z-0.050000
G01 X6.467561 Y12.370250 Z-0.050000
G01 X6.467561 Y10.134900 Z-0.050000
G01 X6.262950 Y10.134900 Z-0.050000
G01 X6.058338 Y10.134900 Z-0.050000
G01 X6.058338 Y12.555250 Z-0.050000
G00 Z1.000000

(End cutting path id: path1579)


(Start cutting path id: path1579)
(Change tool to Cylindrical cutter)

G00 Z1.000000
G00 X6.850967 Y12.192960

G00 Z4.950000 (Fast pre-penetrate)
G01 Z-0.050000 F300.0(Penetrate)
G01 X6.859767 Y14.251030 Z-0.050000 F30.000000
G01 X7.942505 Y14.259030 Z-0.050000
G01 X9.025243 Y14.267030 Z-0.050000
G01 X9.025243 Y14.082130 Z-0.050000
G01 X9.025243 Y13.897220 Z-0.050000
G01 X8.147117 Y13.889220 Z-0.050000
G01 X7.268991 Y13.881220 Z-0.050000
G01 X7.260191 Y12.008150 Z-0.050000
G01 X7.251391 Y10.135080 Z-0.050000
G01 X7.046799 Y10.135080 Z-0.050000
G01 X6.842210 Y10.135080 Z-0.050000
G01 X6.850967 Y12.192960 Z-0.050000
G00 Z1.000000

(End cutting path id: path1579)


(Start cutting path id: path1579)
(Change tool to Cylindrical cutter)

G00 Z1.000000
G00 X7.695233 Y11.799850

G00 Z4.950000 (Fast pre-penetrate)
G01 Z-0.050000 F300.0(Penetrate)
G01 X7.695233 Y13.464800 Z-0.050000 F30.000000
G01 X8.360221 Y13.464800 Z-0.050000
G01 X9.025210 Y13.464800 Z-0.050000
G01 X9.025210 Y13.279810 Z-0.050000
G01 X9.025210 Y13.094810 Z-0.050000
G01 X8.564833 Y13.094810 Z-0.050000
G01 X8.104456 Y13.094810 Z-0.050000
G01 X8.104456 Y11.614860 Z-0.050000
G01 X8.104456 Y10.134900 Z-0.050000
G01 X7.899845 Y10.134900 Z-0.050000
G01 X7.695233 Y10.134900 Z-0.050000
G01 X7.695233 Y11.799850 Z-0.050000
G00 Z1.000000

(End cutting path id: path1579)


(Start cutting path id: path1579)
(Change tool to Cylindrical cutter)

G00 Z1.000000
G00 X11.855676 Y11.614860

G00 Z4.950000 (Fast pre-penetrate)
G01 Z-0.050000 F300.0(Penetrate)
G01 X11.855676 Y13.094810 Z-0.050000 F30.000000
G01 X11.395299 Y13.094810 Z-0.050000
G01 X10.934922 Y13.094810 Z-0.050000
G01 X10.934922 Y13.279810 Z-0.050000
G01 X10.934922 Y13.464800 Z-0.050000
G01 X11.599911 Y13.464800 Z-0.050000
G01 X12.264899 Y13.464800 Z-0.050000
G01 X12.264899 Y11.799850 Z-0.050000
G01 X12.264899 Y10.134900 Z-0.050000
G01 X12.060287 Y10.134900 Z-0.050000
G01 X11.855676 Y10.134900 Z-0.050000
G01 X11.855676 Y11.614860 Z-0.050000
G00 Z1.000000

(End cutting path id: path1579)


(Start cutting path id: path1579)
(Change tool to Cylindrical cutter)

G00 Z1.000000
G00 X12.699964 Y12.007970

G00 Z4.950000 (Fast pre-penetrate)
G01 Z-0.050000 F300.0(Penetrate)
G01 X12.691164 Y13.881040 Z-0.050000 F30.000000
G01 X11.813038 Y13.889040 Z-0.050000
G01 X10.934912 Y13.897040 Z-0.050000
G01 X10.934912 Y14.081950 Z-0.050000
G01 X10.934912 Y14.266850 Z-0.050000
G01 X12.017650 Y14.258850 Z-0.050000
G01 X13.100388 Y14.250850 Z-0.050000
G01 X13.109188 Y12.192780 Z-0.050000
G01 X13.117988 Y10.134720 Z-0.050000
G01 X12.913399 Y10.134720 Z-0.050000
G01 X12.708809 Y10.134720 Z-0.050000
G01 X12.699964 Y12.007970 Z-0.050000
G00 Z1.000000

(End cutting path id: path1579)


(Start cutting path id: path1579)
(Change tool to Cylindrical cutter)

G00 Z1.000000
G00 X13.492571 Y12.370250

G00 Z4.950000 (Fast pre-penetrate)
G01 Z-0.050000 F300.0(Penetrate)
G01 X13.492571 Y14.605600 Z-0.050000 F30.000000
G01 X12.213746 Y14.605600 Z-0.050000
G01 X10.934922 Y14.605600 Z-0.050000
G01 X10.934922 Y14.790600 Z-0.050000
G01 X10.934922 Y14.975590 Z-0.050000
G01 X12.418358 Y14.975590 Z-0.050000
G01 X13.901794 Y14.975590 Z-0.050000
G01 X13.901794 Y12.555250 Z-0.050000
G01 X13.901794 Y10.134900 Z-0.050000
G01 X13.697182 Y10.134900 Z-0.050000
G01 X13.492571 Y10.134900 Z-0.050000
G01 X13.492571 Y12.370250 Z-0.050000
G00 Z1.000000

(End cutting path id: path1579)


(Start cutting path id: path1579)
(Change tool to Cylindrical cutter)

G00 Z1.000000
G00 X14.311018 Y12.740240

G00 Z4.950000 (Fast pre-penetrate)
G01 Z-0.050000 F300.0(Penetrate)
G01 X14.311018 Y15.345580 Z-0.050000 F30.000000
G01 X13.466994 Y15.345580 Z-0.050000
G02 X12.623034 Y15.350593 Z-0.050000 I0.000000 J71.043811
G02 X11.777408 Y15.365980 Z-0.050000 I0.795611 J66.969040
G01 X10.931847 Y15.386280 Z-0.050000
G01 X10.941907 Y15.558590 Z-0.050000
G01 X10.951967 Y15.730900 Z-0.050000
G01 X11.506124 Y15.730470 Z-0.050000
G02 X12.060279 Y15.728988 Z-0.050000 I-0.169986 J-167.131084
G02 X13.390259 Y15.722470 Z-0.050000 I-5.075253 J-1171.331887
G01 X14.720236 Y15.715470 Z-0.050000
G01 X14.720236 Y12.925140 Z-0.050000
G01 X14.720236 Y10.134800 Z-0.050000
G01 X14.515624 Y10.134800 Z-0.050000
G01 X14.311012 Y10.134800 Z-0.050000
G01 X14.311012 Y12.740140 Z-0.050000
G01 X14.311018 Y12.740240 Z-0.050000
G00 Z1.000000

(End cutting path id: path1579)


(Start cutting path id: path1579)
(Change tool to Cylindrical cutter)

G00 Z1.000000
G00 X15.187271 Y13.125410

G00 Z4.950000 (Fast pre-penetrate)
G01 Z-0.050000 F300.0(Penetrate)
G01 X15.208841 Y16.115920 Z-0.050000 F30.000000
G01 X13.080407 Y16.123920 Z-0.050000
G01 X10.951974 Y16.131920 Z-0.050000
G01 X10.941744 Y16.309210 Z-0.050000
G01 X10.931514 Y16.486500 Z-0.050000
G01 X13.269202 Y16.486500 Z-0.050000
G01 X15.606889 Y16.486500 Z-0.050000
G01 X15.606855 Y14.675090 Z-0.050000
G02 X15.600385 Y12.863733 Z-0.050000 I-255.200763 J0.005891
G02 X15.584245 Y11.499340 Z-0.050000 I-144.914071 J1.031939
G01 X15.561675 Y10.135010 Z-0.050000
G01 X15.363688 Y10.135010 Z-0.050000
G01 X15.165701 Y10.135010 Z-0.050000
G01 X15.187271 Y13.125520 Z-0.050000
G01 X15.187271 Y13.125410 Z-0.050000
G00 Z1.000000

(End cutting path id: path1579)


(Start cutting path id: path1579)
(Change tool to Cylindrical cutter)

G00 Z1.000000
G00 X15.982015 Y13.495640

G00 Z4.950000 (Fast pre-penetrate)
G01 Z-0.050000 F300.0(Penetrate)
G01 X15.982015 Y16.856370 Z-0.050000 F30.000000
G01 X13.458469 Y16.856370 Z-0.050000
G01 X10.934922 Y16.856370 Z-0.050000
G01 X10.934922 Y18.644660 Z-0.050000
G01 X10.934922 Y20.432940 Z-0.050000
G01 X12.657072 Y20.432940 Z-0.050000
G01 X14.379222 Y20.432940 Z-0.050000
G01 X14.379222 Y21.188340 Z-0.050000
G01 X14.379222 Y21.943730 Z-0.050000
G01 X14.924854 Y21.943730 Z-0.050000
G01 X15.470485 Y21.943730 Z-0.050000
G01 X15.470485 Y21.172920 Z-0.050000
G01 X15.470485 Y20.402110 Z-0.050000
G01 X16.783411 Y20.402110 Z-0.050000
G01 X18.096338 Y20.402110 Z-0.050000
G01 X18.096338 Y15.268500 Z-0.050000
G01 X18.096338 Y10.134900 Z-0.050000
G01 X17.908880 Y10.134900 Z-0.050000
G01 X17.721423 Y10.134900 Z-0.050000
G01 X17.712823 Y15.091220 Z-0.050000
G01 X17.704223 Y20.047540 Z-0.050000
G01 X16.382771 Y20.055540 Z-0.050000
G01 X15.061320 Y20.063540 Z-0.050000
G01 X15.061320 Y20.818570 Z-0.050000
G01 X15.061320 Y21.573600 Z-0.050000
G01 X14.924854 Y21.573600 Z-0.050000
G01 X14.788446 Y21.573600 Z-0.050000
G01 X14.788446 Y20.818210 Z-0.050000
G01 X14.788446 Y20.062810 Z-0.050000
G01 X13.066296 Y20.062810 Z-0.050000
G01 X11.344146 Y20.062810 Z-0.050000
G01 X11.344146 Y18.644520 Z-0.050000
G01 X11.344146 Y17.226220 Z-0.050000
G01 X13.867692 Y17.226220 Z-0.050000
G01 X16.391239 Y17.226220 Z-0.050000
G01 X16.391239 Y13.680490 Z-0.050000
G01 X16.391239 Y10.134760 Z-0.050000
G01 X16.186627 Y10.134760 Z-0.050000
G01 X15.982015 Y10.134760 Z-0.050000
G01 X15.982015 Y13.495640 Z-0.050000
G00 Z1.000000

(End cutting path id: path1579)


(Start cutting path id: path1579)
(Change tool to Cylindrical cutter)

G00 Z1.000000
G00 X6.058338 Y21.603850

G00 Z4.950000 (Fast pre-penetrate)
G01 Z-0.050000 F300.0(Penetrate)
G01 X6.058338 Y22.344550 Z-0.050000 F30.000000
G01 X5.070033 Y22.344550 Z-0.050000
G01 X4.081728 Y22.344550 Z-0.050000
G01 X4.072528 Y21.658530 Z-0.050000
G01 X4.063328 Y20.972510 Z-0.050000
G01 X2.980590 Y20.964510 Z-0.050000
G01 X1.897852 Y20.956510 Z-0.050000
G01 X1.897852 Y22.776060 Z-0.050000
G01 X1.897852 Y24.595600 Z-0.050000
G01 X2.102464 Y24.595600 Z-0.050000
G01 X2.307076 Y24.595600 Z-0.050000
G01 X2.307076 Y24.025200 Z-0.050000
G01 X2.307076 Y23.454800 Z-0.050000
G01 X3.330135 Y23.454800 Z-0.050000
G01 X4.353195 Y23.454800 Z-0.050000
G01 X4.353195 Y24.056040 Z-0.050000
G01 X4.353195 Y24.657270 Z-0.050000
G01 X5.461509 Y24.657270 Z-0.050000
G01 X6.569823 Y24.657270 Z-0.050000
G01 X6.569823 Y24.503110 Z-0.050000
G01 X6.569823 Y24.348940 Z-0.050000
G01 X5.632023 Y24.348940 Z-0.050000
G01 X4.694219 Y24.348940 Z-0.050000
G01 X4.694219 Y23.763130 Z-0.050000
G01 X4.694219 Y23.177310 Z-0.050000
G01 X3.500649 Y23.177310 Z-0.050000
G01 X2.307080 Y23.177310 Z-0.050000
G01 X2.307080 Y22.251690 Z-0.050000
G01 X2.307080 Y21.326060 Z-0.050000
G01 X2.980594 Y21.334060 Z-0.050000
G01 X3.654108 Y21.342060 Z-0.050000
G01 X3.655408 Y21.573300 Z-0.050000
G02 X3.657476 Y21.804547 Z-0.050000 I34.439477 J-0.192248
G02 X3.663908 Y22.259320 Z-0.050000 I123.112310 J-1.513975
G01 X3.671108 Y22.714100 Z-0.050000
G01 X5.069289 Y22.714100 Z-0.050000
G01 X6.467470 Y22.714100 Z-0.050000
G01 X6.467470 Y21.972510 Z-0.050000
G01 X6.467470 Y21.230920 Z-0.050000
G01 X6.646506 Y21.239920 Z-0.050000
G01 X6.825541 Y21.248920 Z-0.050000
G01 X6.834441 Y22.412850 Z-0.050000
G01 X6.843341 Y23.576770 Z-0.050000
G01 X7.729763 Y23.576770 Z-0.050000
G01 X8.616004 Y23.576770 Z-0.050000
G01 X8.616004 Y24.902570 Z-0.050000
G01 X8.616004 Y26.228360 Z-0.050000
G01 X7.729335 Y26.228360 Z-0.050000
G01 X6.842683 Y26.228360 Z-0.050000
G01 X6.842683 Y27.400000 Z-0.050000
G01 X6.842683 Y28.571630 Z-0.050000
G01 X6.638071 Y28.571630 Z-0.050000
G01 X6.433460 Y28.571630 Z-0.050000
G01 X6.433460 Y27.831650 Z-0.050000
G01 X6.433460 Y27.091670 Z-0.050000
G01 X5.052329 Y27.091670 Z-0.050000
G01 X3.671199 Y27.091670 Z-0.050000
G01 X3.671199 Y27.785400 Z-0.050000
G01 X3.671199 Y28.479140 Z-0.050000
G01 X2.989160 Y28.479140 Z-0.050000
G01 X2.307120 Y28.479140 Z-0.050000
G01 X2.307120 Y27.554160 Z-0.050000
G01 X2.307120 Y26.629190 Z-0.050000
G01 X3.483638 Y26.629190 Z-0.050000
G01 X4.660157 Y26.629190 Z-0.050000
G01 X4.660157 Y26.043370 Z-0.050000
G01 X4.660157 Y25.457550 Z-0.050000
G01 X5.615012 Y25.457550 Z-0.050000
G01 X6.569867 Y25.457550 Z-0.050000
G01 X6.569867 Y25.318810 Z-0.050000
G01 X6.569867 Y25.180060 Z-0.050000
G01 X5.461553 Y25.180060 Z-0.050000
G01 X4.353239 Y25.180060 Z-0.050000
G01 X4.353239 Y25.765880 Z-0.050000
G01 X4.353239 Y26.351690 Z-0.050000
G01 X3.330179 Y26.351690 Z-0.050000
G01 X2.307120 Y26.351690 Z-0.050000
G01 X2.307120 Y25.796710 Z-0.050000
G01 X2.307120 Y25.241730 Z-0.050000
G01 X2.102508 Y25.241730 Z-0.050000
G01 X1.897896 Y25.241730 Z-0.050000
G01 X1.897896 Y27.040320 Z-0.050000
G01 X1.897896 Y28.838910 Z-0.050000
G01 X2.963583 Y28.824910 Z-0.050000
G02 X4.027721 Y28.806606 Z-0.050000 I-2.045059 J-149.833281
G01 X4.040362 Y28.802010 Z-0.050000
G01 X4.046011 Y28.790343 Z-0.050000
G02 X4.052242 Y28.127420 Z-0.050000 I-40.293822 J-0.710252
G01 X4.053034 Y27.461700 Z-0.050000
G01 X5.055683 Y27.461700 Z-0.050000
G01 X6.058333 Y27.461700 Z-0.050000
G01 X6.058333 Y28.201680 Z-0.050000
G01 X6.058333 Y28.941660 Z-0.050000
G01 X6.638066 Y28.941660 Z-0.050000
G01 X7.217800 Y28.941660 Z-0.050000
G01 X7.217800 Y27.770030 Z-0.050000
G01 X7.217800 Y26.598390 Z-0.050000
G01 X8.121502 Y26.598390 Z-0.050000
G01 X9.025205 Y26.598390 Z-0.050000
G01 X9.025205 Y24.902610 Z-0.050000
G01 X9.025205 Y23.206820 Z-0.050000
G01 X8.138964 Y23.206820 Z-0.050000
G01 X7.252722 Y23.206820 Z-0.050000
G01 X7.243822 Y22.042900 Z-0.050000
G01 X7.234922 Y20.878970 Z-0.050000
G01 X6.646663 Y20.870970 Z-0.050000
G01 X6.058404 Y20.862970 Z-0.050000
G01 X6.058404 Y21.603680 Z-0.050000
G01 X6.058338 Y21.603850 Z-0.050000
G00 Z1.000000

(End cutting path id: path1579)


(Start cutting path id: path1579)
(Change tool to Cylindrical cutter)

G00 Z1.000000
G00 X7.717968 Y20.885150

G00 Z4.950000 (Fast pre-penetrate)
G01 Z-0.050000 F300.0(Penetrate)
G01 X7.706290 Y20.910602 Z-0.050000 F30.000000
G02 X7.695228 Y21.810130 Z-0.050000 I36.569195 J0.899528
G01 X7.695228 Y22.714540 Z-0.050000
G01 X8.360216 Y22.714540 Z-0.050000
G01 X9.025205 Y22.714540 Z-0.050000
G01 X9.025205 Y22.529550 Z-0.050000
G01 X9.025205 Y22.344550 Z-0.050000
G01 X8.564828 Y22.344550 Z-0.050000
G01 X8.104451 Y22.344550 Z-0.050000
G01 X8.104451 Y21.604570 Z-0.050000
G01 X8.104451 Y20.864600 Z-0.050000
G01 X7.922574 Y20.864600 Z-0.050000
G02 X7.744241 Y20.873340 Z-0.050000 I0.000000 J1.823705
G01 X7.717963 Y20.885100 Z-0.050000
G01 X7.717968 Y20.885150 Z-0.050000
G00 Z1.000000

(End cutting path id: path1579)


(Start cutting path id: path1579)
(Change tool to Cylindrical cutter)

G00 Z1.000000
G00 X8.615986 Y21.357920

G00 Z4.950000 (Fast pre-penetrate)
G01 Z-0.050000 F300.0(Penetrate)
G01 X8.615986 Y21.851230 Z-0.050000 F30.000000
G01 X8.820598 Y21.851230 Z-0.050000
G01 X9.025210 Y21.851230 Z-0.050000
G01 X9.025210 Y21.357920 Z-0.050000
G01 X9.025210 Y20.864600 Z-0.050000
G01 X8.820598 Y20.864600 Z-0.050000
G01 X8.615986 Y20.864600 Z-0.050000
G01 X8.615986 Y21.357920 Z-0.050000
G00 Z1.000000

(End cutting path id: path1579)


(Start cutting path id: path1579)
(Change tool to Cylindrical cutter)

G00 Z1.000000
G00 X10.934922 Y21.357920

G00 Z4.950000 (Fast pre-penetrate)
G01 Z-0.050000 F300.0(Penetrate)
G01 X10.934922 Y21.851230 Z-0.050000 F30.000000
G01 X11.139534 Y21.851230 Z-0.050000
G01 X11.344146 Y21.851230 Z-0.050000
G01 X11.344146 Y21.357920 Z-0.050000
G01 X11.344146 Y20.864600 Z-0.050000
G01 X11.139534 Y20.864600 Z-0.050000
G01 X10.934922 Y20.864600 Z-0.050000
G01 X10.934922 Y21.357920 Z-0.050000
G00 Z1.000000

(End cutting path id: path1579)


(Start cutting path id: path1579)
(Change tool to Cylindrical cutter)

G00 Z1.000000
G00 X11.855676 Y21.603040

G00 Z4.950000 (Fast pre-penetrate)
G01 Z-0.050000 F300.0(Penetrate)
G01 X11.855676 Y22.344550 Z-0.050000 F30.000000
G01 X11.395299 Y22.344550 Z-0.050000
G01 X10.934922 Y22.344550 Z-0.050000
G01 X10.934922 Y22.529550 Z-0.050000
G01 X10.934922 Y22.714540 Z-0.050000
G01 X11.600418 Y22.714540 Z-0.050000
G01 X12.265914 Y22.714540 Z-0.050000
G01 X12.256914 Y21.797280 Z-0.050000
G01 X12.247914 Y20.880010 Z-0.050000
G01 X12.051828 Y20.871010 Z-0.050000
G01 X11.855742 Y20.862010 Z-0.050000
G01 X11.855676 Y21.603040 Z-0.050000
G00 Z1.000000

(End cutting path id: path1579)


(Start cutting path id: path1579)
(Change tool to Cylindrical cutter)

G00 Z1.000000
G00 X12.708225 Y22.036230

G00 Z4.950000 (Fast pre-penetrate)
G01 Z-0.050000 F300.0(Penetrate)
G01 X12.708225 Y23.207860 Z-0.050000 F30.000000
G01 X11.821574 Y23.207860 Z-0.050000
G01 X10.934922 Y23.207860 Z-0.050000
G01 X10.934922 Y24.903650 Z-0.050000
G01 X10.934922 Y26.599430 Z-0.050000
G01 X11.821574 Y26.599430 Z-0.050000
G01 X12.708225 Y26.599430 Z-0.050000
G01 X12.708225 Y27.771070 Z-0.050000
G01 X12.708225 Y28.942700 Z-0.050000
G01 X13.305010 Y28.942700 Z-0.050000
G01 X13.901794 Y28.942700 Z-0.050000
G01 X13.901794 Y28.202720 Z-0.050000
G01 X13.901794 Y27.462740 Z-0.050000
G01 X14.904444 Y27.462740 Z-0.050000
G01 X15.907093 Y27.462740 Z-0.050000
G01 X15.907884 Y28.128460 Z-0.050000
G02 X15.914133 Y28.791571 Z-0.050000 I40.287007 J-0.048084
G01 X15.919764 Y28.803050 Z-0.050000
G01 X15.932460 Y28.807740 Z-0.050000
G02 X16.996543 Y28.825950 Z-0.050000 I2.822351 J-133.822060
G01 X18.062230 Y28.839950 Z-0.050000
G01 X18.062230 Y27.041360 Z-0.050000
G01 X18.062230 Y25.242770 Z-0.050000
G01 X17.857618 Y25.242770 Z-0.050000
G01 X17.653006 Y25.242770 Z-0.050000
G01 X17.653006 Y25.797750 Z-0.050000
G01 X17.653006 Y26.352730 Z-0.050000
G01 X16.629947 Y26.352730 Z-0.050000
G01 X15.606888 Y26.352730 Z-0.050000
G01 X15.606888 Y25.766920 Z-0.050000
G01 X15.606888 Y25.181100 Z-0.050000
G01 X14.498578 Y25.181100 Z-0.050000
G01 X13.390264 Y25.181100 Z-0.050000
G01 X13.390264 Y25.319850 Z-0.050000
G01 X13.390264 Y25.458590 Z-0.050000
G01 X14.345119 Y25.458590 Z-0.050000
G01 X15.299975 Y25.458590 Z-0.050000
G01 X15.299975 Y26.044410 Z-0.050000
G01 X15.299975 Y26.630230 Z-0.050000
G01 X16.476493 Y26.630230 Z-0.050000
G01 X17.653011 Y26.630230 Z-0.050000
G01 X17.653011 Y27.555200 Z-0.050000
G01 X17.653011 Y28.480180 Z-0.050000
G01 X16.970972 Y28.480180 Z-0.050000
G01 X16.288932 Y28.480180 Z-0.050000
G01 X16.288932 Y27.786440 Z-0.050000
G01 X16.288932 Y27.092710 Z-0.050000
G01 X14.907802 Y27.092710 Z-0.050000
G01 X13.526672 Y27.092710 Z-0.050000
G01 X13.526672 Y27.832690 Z-0.050000
G01 X13.526672 Y28.572670 Z-0.050000
G01 X13.322060 Y28.572670 Z-0.050000
G01 X13.117448 Y28.572670 Z-0.050000
G01 X13.117448 Y27.401040 Z-0.050000
G01 X13.117448 Y26.229400 Z-0.050000
G01 X12.230797 Y26.229400 Z-0.050000
G01 X11.344145 Y26.229400 Z-0.050000
G01 X11.344145 Y24.903610 Z-0.050000
G01 X11.344145 Y23.577810 Z-0.050000
G01 X12.230797 Y23.577810 Z-0.050000
G01 X13.117448 Y23.577810 Z-0.050000
G01 X13.117448 Y22.406180 Z-0.050000
G01 X13.117448 Y21.234550 Z-0.050000
G01 X13.305009 Y21.234550 Z-0.050000
G01 X13.492570 Y21.234550 Z-0.050000
G01 X13.492570 Y21.974520 Z-0.050000
G01 X13.492570 Y22.714500 Z-0.050000
G01 X14.890751 Y22.714500 Z-0.050000
G01 X16.288932 Y22.714500 Z-0.050000
G01 X16.296132 Y22.259720 Z-0.050000
G02 X16.302571 Y21.804947 Z-0.050000 I-123.995376 J-1.982975
G02 X16.304632 Y21.573700 Z-0.050000 I-33.906582 J-0.417865
G01 X16.305932 Y21.342460 Z-0.050000
G01 X16.979446 Y21.334460 Z-0.050000
G01 X17.652960 Y21.326460 Z-0.050000
G01 X17.652960 Y22.252090 Z-0.050000
G01 X17.652960 Y23.177710 Z-0.050000
G01 X16.459391 Y23.177710 Z-0.050000
G01 X15.265821 Y23.177710 Z-0.050000
G01 X15.265821 Y23.763530 Z-0.050000
G01 X15.265821 Y24.349340 Z-0.050000
G01 X14.328017 Y24.349340 Z-0.050000
G01 X13.390213 Y24.349340 Z-0.050000
G01 X13.390213 Y24.503510 Z-0.050000
G01 X13.390213 Y24.657670 Z-0.050000
G01 X14.498527 Y24.657670 Z-0.050000
G01 X15.606841 Y24.657670 Z-0.050000
G01 X15.606841 Y24.056440 Z-0.050000
G01 X15.606841 Y23.455200 Z-0.050000
G01 X16.629901 Y23.455200 Z-0.050000
G01 X17.652960 Y23.455200 Z-0.050000
G01 X17.652960 Y24.025600 Z-0.050000
G01 X17.652960 Y24.596000 Z-0.050000
G01 X17.857622 Y24.596000 Z-0.050000
G01 X18.062234 Y24.596000 Z-0.050000
G01 X18.062234 Y22.776460 Z-0.050000
G01 X18.062234 Y20.956910 Z-0.050000
G01 X16.979496 Y20.964910 Z-0.050000
G01 X15.896758 Y20.972910 Z-0.050000
G01 X15.887558 Y21.658930 Z-0.050000
G01 X15.878358 Y22.344950 Z-0.050000
G01 X14.890053 Y22.344950 Z-0.050000
G01 X13.901748 Y22.344950 Z-0.050000
G01 X13.901748 Y21.604970 Z-0.050000
G01 X13.901748 Y20.865000 Z-0.050000
G01 X13.304964 Y20.865000 Z-0.050000
G01 X12.708179 Y20.865000 Z-0.050000
G01 X12.708179 Y22.036630 Z-0.050000
G01 X12.708225 Y22.036230 Z-0.050000
G00 Z1.000000

(End cutting path id: path1579)


(Start cutting path id: path1579)
(Change tool to Cylindrical cutter)

G00 Z1.000000
G00 X1.045347 Y24.903650

G00 Z4.950000 (Fast pre-penetrate)
G01 Z-0.050000 F300.0(Penetrate)
G01 X1.045347 Y26.661100 Z-0.050000 F30.000000
G01 X1.249959 Y26.661100 Z-0.050000
G01 X1.454571 Y26.661100 Z-0.050000
G01 X1.454571 Y24.903650 Z-0.050000
G01 X1.454571 Y23.146200 Z-0.050000
G01 X1.249959 Y23.146200 Z-0.050000
G01 X1.045347 Y23.146200 Z-0.050000
G01 X1.045347 Y24.903650 Z-0.050000
G00 Z1.000000

(End cutting path id: path1579)


(Start cutting path id: path1579)
(Change tool to Cylindrical cutter)

G00 Z1.000000
G00 X18.505561 Y24.903650

G00 Z4.950000 (Fast pre-penetrate)
G01 Z-0.050000 F300.0(Penetrate)
G01 X18.505561 Y26.661100 Z-0.050000 F30.000000
G01 X18.710173 Y26.661100 Z-0.050000
G01 X18.914785 Y26.661100 Z-0.050000
G01 X18.914785 Y24.903650 Z-0.050000
G01 X18.914785 Y23.146200 Z-0.050000
G01 X18.710173 Y23.146200 Z-0.050000
G01 X18.505561 Y23.146200 Z-0.050000
G01 X18.505561 Y24.903650 Z-0.050000
G00 Z1.000000

(End cutting path id: path1579)


(Start cutting path id: path1579)
(Change tool to Cylindrical cutter)

G00 Z1.000000
G00 X7.729335 Y28.017730

G00 Z4.950000 (Fast pre-penetrate)
G01 Z-0.050000 F300.0(Penetrate)
G01 X7.729335 Y28.942700 Z-0.050000 F30.000000
G01 X7.916896 Y28.942700 Z-0.050000
G01 X8.104456 Y28.942700 Z-0.050000
G01 X8.104456 Y28.202720 Z-0.050000
G01 X8.104456 Y27.462740 Z-0.050000
G01 X8.564833 Y27.462740 Z-0.050000
G01 X9.025210 Y27.462740 Z-0.050000
G01 X9.025210 Y27.277750 Z-0.050000
G01 X9.025210 Y27.092750 Z-0.050000
G01 X8.377272 Y27.092750 Z-0.050000
G01 X7.729335 Y27.092750 Z-0.050000
G01 X7.729335 Y28.017730 Z-0.050000
G00 Z1.000000

(End cutting path id: path1579)


(Start cutting path id: path1579)
(Change tool to Cylindrical cutter)

G00 Z1.000000
G00 X10.934922 Y27.277750

G00 Z4.950000 (Fast pre-penetrate)
G01 Z-0.050000 F300.0(Penetrate)
G01 X10.934922 Y27.462740 Z-0.050000 F30.000000
G01 X11.395299 Y27.462740 Z-0.050000
G01 X11.855676 Y27.462740 Z-0.050000
G01 X11.855676 Y28.202720 Z-0.050000
G01 X11.855676 Y28.942700 Z-0.050000
G01 X12.043236 Y28.942700 Z-0.050000
G01 X12.230797 Y28.942700 Z-0.050000
G01 X12.230797 Y28.017730 Z-0.050000
G01 X12.230797 Y27.092750 Z-0.050000
G01 X11.582860 Y27.092750 Z-0.050000
G01 X10.934922 Y27.092750 Z-0.050000
G01 X10.934922 Y27.277750 Z-0.050000
G00 Z1.000000

(End cutting path id: path1579)


(Start cutting path id: path1579)
(Change tool to Cylindrical cutter)

G00 Z1.000000
G00 X4.489647 Y28.653510

G00 Z4.950000 (Fast pre-penetrate)
G01 Z-0.050000 F300.0(Penetrate)
G01 X4.489647 Y29.412620 Z-0.050000 F30.000000
G01 X3.193772 Y29.400120 Z-0.050000
G01 X1.897896 Y29.387620 Z-0.050000
G01 X1.897896 Y30.043840 Z-0.050000
G01 X1.897896 Y30.700070 Z-0.050000
G01 X3.193772 Y30.700070 Z-0.050000
G01 X4.489647 Y30.700070 Z-0.050000
G01 X4.489647 Y31.455470 Z-0.050000
G01 X4.489647 Y32.210860 Z-0.050000
G01 X5.035278 Y32.210860 Z-0.050000
G01 X5.580910 Y32.210860 Z-0.050000
G01 X5.580910 Y31.455470 Z-0.050000
G01 X5.580910 Y30.700070 Z-0.050000
G01 X7.304762 Y30.700070 Z-0.050000
G01 X9.028614 Y30.700070 Z-0.050000
G01 X9.018384 Y30.522790 Z-0.050000
G01 X9.008154 Y30.345500 Z-0.050000
G01 X7.089917 Y30.337500 Z-0.050000
G01 X5.171681 Y30.329500 Z-0.050000
G01 X5.171681 Y31.085150 Z-0.050000
G01 X5.171681 Y31.840800 Z-0.050000
G01 X5.035273 Y31.840800 Z-0.050000
G01 X4.898865 Y31.840800 Z-0.050000
G01 X4.898865 Y31.100820 Z-0.050000
G01 X4.898865 Y30.360850 Z-0.050000
G01 X3.602990 Y30.360850 Z-0.050000
G01 X2.307115 Y30.360850 Z-0.050000
G01 X2.307115 Y30.052520 Z-0.050000
G01 X2.307115 Y29.744200 Z-0.050000
G01 X3.602990 Y29.744200 Z-0.050000
G01 X4.898865 Y29.744200 Z-0.050000
G01 X4.898865 Y28.988800 Z-0.050000
G01 X4.898865 Y28.233410 Z-0.050000
G01 X5.035273 Y28.233410 Z-0.050000
G01 X5.171681 Y28.233410 Z-0.050000
G01 X5.171681 Y28.988800 Z-0.050000
G01 X5.171681 Y29.744200 Z-0.050000
G01 X7.081392 Y29.744200 Z-0.050000
G01 X8.991103 Y29.744200 Z-0.050000
G01 X8.991103 Y29.574620 Z-0.050000
G01 X8.991103 Y29.405040 Z-0.050000
G01 X7.286004 Y29.405040 Z-0.050000
G01 X5.580905 Y29.405040 Z-0.050000
G01 X5.580905 Y28.649640 Z-0.050000
G01 X5.580905 Y27.894250 Z-0.050000
G01 X5.035273 Y27.894250 Z-0.050000
G01 X4.489642 Y27.894250 Z-0.050000
G01 X4.489647 Y28.653510 Z-0.050000
G00 Z1.000000

(End cutting path id: path1579)


(Start cutting path id: path1579)
(Change tool to Cylindrical cutter)

G00 Z1.000000
G00 X14.379222 Y28.649510

G00 Z4.950000 (Fast pre-penetrate)
G01 Z-0.050000 F300.0(Penetrate)
G01 X14.379222 Y29.404910 Z-0.050000 F30.000000
G01 X12.657072 Y29.404910 Z-0.050000
G01 X10.934922 Y29.404910 Z-0.050000
G01 X10.934922 Y29.574490 Z-0.050000
G01 X10.934922 Y29.744070 Z-0.050000
G01 X12.861684 Y29.744070 Z-0.050000
G01 X14.788446 Y29.744070 Z-0.050000
G01 X14.788446 Y28.988670 Z-0.050000
G01 X14.788446 Y28.233280 Z-0.050000
G01 X14.924854 Y28.233280 Z-0.050000
G01 X15.061262 Y28.233280 Z-0.050000
G01 X15.061262 Y28.988670 Z-0.050000
G01 X15.061262 Y29.744070 Z-0.050000
G01 X16.357137 Y29.744070 Z-0.050000
G01 X17.653012 Y29.744070 Z-0.050000
G01 X17.653012 Y30.052390 Z-0.050000
G01 X17.653012 Y30.360720 Z-0.050000
G01 X16.357137 Y30.360720 Z-0.050000
G01 X15.061262 Y30.360720 Z-0.050000
G01 X15.061262 Y31.100690 Z-0.050000
G01 X15.061262 Y31.840670 Z-0.050000
G01 X14.924854 Y31.840670 Z-0.050000
G01 X14.788446 Y31.840670 Z-0.050000
G01 X14.788446 Y31.085280 Z-0.050000
G01 X14.788446 Y30.329880 Z-0.050000
G01 X12.861684 Y30.329880 Z-0.050000
G01 X10.934922 Y30.329880 Z-0.050000
G01 X10.934922 Y30.514880 Z-0.050000
G01 X10.934922 Y30.699870 Z-0.050000
G01 X12.657072 Y30.699870 Z-0.050000
G01 X14.379222 Y30.699870 Z-0.050000
G01 X14.379222 Y31.455270 Z-0.050000
G01 X14.379222 Y32.210660 Z-0.050000
G01 X14.924854 Y32.210660 Z-0.050000
G01 X15.470485 Y32.210660 Z-0.050000
G01 X15.470485 Y31.455270 Z-0.050000
G01 X15.470485 Y30.699870 Z-0.050000
G01 X16.766361 Y30.699870 Z-0.050000
G01 X18.062236 Y30.699870 Z-0.050000
G01 X18.062236 Y30.044090 Z-0.050000
G01 X18.062236 Y29.388310 Z-0.050000
G01 X16.757835 Y29.388900 Z-0.050000
G01 X15.453434 Y29.389490 Z-0.050000
G01 X15.444334 Y28.641800 Z-0.050000
G01 X15.435234 Y27.894120 Z-0.050000
G01 X14.907259 Y27.894120 Z-0.050000
G01 X14.379285 Y27.894120 Z-0.050000
G01 X14.379285 Y28.649510 Z-0.050000
G01 X14.379222 Y28.649510 Z-0.050000
G00 Z1.000000

(End cutting path id: path1579)


(Start cutting path id: path1579)
(Change tool to Cylindrical cutter)

G00 Z1.000000
G00 X8.615986 Y28.464520

G00 Z4.950000 (Fast pre-penetrate)
G01 Z-0.050000 F300.0(Penetrate)
G01 X8.615986 Y28.942420 Z-0.050000 F30.000000
G01 X8.820598 Y28.942420 Z-0.050000
G01 X9.025210 Y28.942420 Z-0.050000
G01 X9.025210 Y28.464520 Z-0.050000
G01 X9.025210 Y27.986620 Z-0.050000
G01 X8.820598 Y27.986620 Z-0.050000
G01 X8.615986 Y27.986620 Z-0.050000
G01 X8.615986 Y28.464520 Z-0.050000
G00 Z1.000000

(End cutting path id: path1579)


(Start cutting path id: path1579)
(Change tool to Cylindrical cutter)

G00 Z1.000000
G00 X10.934922 Y28.464520

G00 Z4.950000 (Fast pre-penetrate)
G01 Z-0.050000 F300.0(Penetrate)
G01 X10.934922 Y28.942420 Z-0.050000 F30.000000
G01 X11.139534 Y28.942420 Z-0.050000
G01 X11.344146 Y28.942420 Z-0.050000
G01 X11.344146 Y28.464520 Z-0.050000
G01 X11.344146 Y27.986620 Z-0.050000
G01 X11.139534 Y27.986620 Z-0.050000
G01 X10.934922 Y27.986620 Z-0.050000
G01 X10.934922 Y28.464520 Z-0.050000
G00 Z1.000000

(End cutting path id: path1579)


(Start cutting path id: path1579)
(Change tool to Cylindrical cutter)

G00 Z1.000000
G00 X1.045347 Y31.547770

G00 Z4.950000 (Fast pre-penetrate)
G01 Z-0.050000 F300.0(Penetrate)
G01 X1.045347 Y32.734820 Z-0.050000 F30.000000
G01 X0.636123 Y32.734820 Z-0.050000
G01 X0.226899 Y32.734820 Z-0.050000
G01 X0.226899 Y35.186000 Z-0.050000
G01 X0.226899 Y37.637180 Z-0.050000
G01 X0.636123 Y37.637180 Z-0.050000
G01 X1.045347 Y37.637180 Z-0.050000
G01 X1.045347 Y38.839640 Z-0.050000
G01 X1.045347 Y40.042110 Z-0.050000
G01 X2.972109 Y40.042110 Z-0.050000
G01 X4.898870 Y40.042110 Z-0.050000
G01 X4.898870 Y39.286710 Z-0.050000
G01 X4.898870 Y38.531320 Z-0.050000
G01 X5.035278 Y38.531320 Z-0.050000
G01 X5.171686 Y38.531320 Z-0.050000
G01 X5.171686 Y39.286710 Z-0.050000
G01 X5.171686 Y40.042110 Z-0.050000
G01 X6.893836 Y40.042110 Z-0.050000
G01 X8.615986 Y40.042110 Z-0.050000
G01 X8.615986 Y40.273350 Z-0.050000
G01 X8.615986 Y40.504600 Z-0.050000
G01 X4.591953 Y40.504600 Z-0.050000
G01 X0.567919 Y40.504600 Z-0.050000
G01 X0.567919 Y49.954750 Z-0.050000
G01 X0.567919 Y59.404900 Z-0.050000
G01 X9.980066 Y59.404900 Z-0.050000
G01 X19.392213 Y59.404900 Z-0.050000
G01 X19.392213 Y49.954750 Z-0.050000
G01 X19.392213 Y40.504600 Z-0.050000
G01 X15.368179 Y40.504600 Z-0.050000
G01 X11.344146 Y40.504600 Z-0.050000
G01 X11.344146 Y40.273350 Z-0.050000
G01 X11.344146 Y40.042110 Z-0.050000
G01 X13.066296 Y40.042110 Z-0.050000
G01 X14.788446 Y40.042110 Z-0.050000
G01 X14.788446 Y39.286710 Z-0.050000
G01 X14.788446 Y38.531320 Z-0.050000
G01 X14.924854 Y38.531320 Z-0.050000
G01 X15.061262 Y38.531320 Z-0.050000
G01 X15.061262 Y39.286710 Z-0.050000
G01 X15.061262 Y40.042110 Z-0.050000
G01 X16.988023 Y40.042110 Z-0.050000
G01 X18.914785 Y40.042110 Z-0.050000
G01 X18.914785 Y38.839640 Z-0.050000
G01 X18.914785 Y37.637180 Z-0.050000
G01 X19.324009 Y37.637180 Z-0.050000
G01 X19.733233 Y37.637180 Z-0.050000
G01 X19.733233 Y35.186000 Z-0.050000
G01 X19.733233 Y32.734820 Z-0.050000
G01 X19.324009 Y32.734820 Z-0.050000
G01 X18.914785 Y32.734820 Z-0.050000
G01 X18.914785 Y31.547770 Z-0.050000
G01 X18.914785 Y30.360720 Z-0.050000
G01 X18.710173 Y30.360720 Z-0.050000
G01 X18.505561 Y30.360720 Z-0.050000
G01 X18.505561 Y31.732760 Z-0.050000
G01 X18.505561 Y33.104810 Z-0.050000
G01 X18.914785 Y33.104810 Z-0.050000
G01 X19.324009 Y33.104810 Z-0.050000
G01 X19.324009 Y35.182040 Z-0.050000
G01 X19.324009 Y37.259270 Z-0.050000
G01 X18.914785 Y37.281370 Z-0.050000
G01 X18.505561 Y37.303470 Z-0.050000
G01 X18.505561 Y38.487820 Z-0.050000
G01 X18.505561 Y39.672160 Z-0.050000
G01 X16.988023 Y39.672160 Z-0.050000
G01 X15.470485 Y39.672160 Z-0.050000
G01 X15.470485 Y38.916770 Z-0.050000
G01 X15.470485 Y38.161370 Z-0.050000
G01 X14.924854 Y38.161370 Z-0.050000
G01 X14.379222 Y38.161370 Z-0.050000
G01 X14.379222 Y38.916770 Z-0.050000
G01 X14.379222 Y39.672160 Z-0.050000
G01 X12.657072 Y39.672160 Z-0.050000
G01 X10.934922 Y39.672160 Z-0.050000
G01 X10.934922 Y40.273390 Z-0.050000
G01 X10.934922 Y40.874630 Z-0.050000
G01 X14.976007 Y40.874630 Z-0.050000
G01 X19.017091 Y40.874630 Z-0.050000
G01 X19.017091 Y49.954790 Z-0.050000
G01 X19.017091 Y59.034950 Z-0.050000
G01 X9.980066 Y59.034950 Z-0.050000
G01 X0.943041 Y59.034950 Z-0.050000
G01 X0.943041 Y49.954790 Z-0.050000
G01 X0.943041 Y40.874630 Z-0.050000
G01 X4.984125 Y40.874630 Z-0.050000
G01 X9.025210 Y40.874630 Z-0.050000
G01 X9.025210 Y40.273390 Z-0.050000
G01 X9.025210 Y39.672160 Z-0.050000
G01 X7.303060 Y39.672160 Z-0.050000
G01 X5.580910 Y39.672160 Z-0.050000
G01 X5.580910 Y38.916770 Z-0.050000
G01 X5.580910 Y38.161370 Z-0.050000
G01 X5.035278 Y38.161370 Z-0.050000
G01 X4.489647 Y38.161370 Z-0.050000
G01 X4.489647 Y38.916770 Z-0.050000
G01 X4.489647 Y39.672160 Z-0.050000
G01 X2.972109 Y39.672160 Z-0.050000
G01 X1.454571 Y39.672160 Z-0.050000
G01 X1.454571 Y38.487820 Z-0.050000
G01 X1.454571 Y37.303470 Z-0.050000
G01 X1.045347 Y37.281370 Z-0.050000
G01 X0.636123 Y37.259270 Z-0.050000
G01 X0.636123 Y35.182040 Z-0.050000
G01 X0.636123 Y33.104810 Z-0.050000
G01 X1.045347 Y33.104810 Z-0.050000
G01 X1.454571 Y33.104810 Z-0.050000
G01 X1.454571 Y31.732760 Z-0.050000
G01 X1.454571 Y30.360720 Z-0.050000
G01 X1.249959 Y30.360720 Z-0.050000
G01 X1.045347 Y30.360720 Z-0.050000
G01 X1.045347 Y31.547770 Z-0.050000
G00 Z1.000000

(End cutting path id: path1579)


(Start cutting path id: path1579)
(Change tool to Cylindrical cutter)

G00 Z1.000000
G00 X6.058338 Y31.902340

G00 Z4.950000 (Fast pre-penetrate)
G01 Z-0.050000 F300.0(Penetrate)
G01 X6.058338 Y32.642320 Z-0.050000 F30.000000
G01 X5.069380 Y32.642320 Z-0.050000
G01 X4.080423 Y32.642320 Z-0.050000
G01 X4.080423 Y31.948590 Z-0.050000
G01 X4.080423 Y31.254860 Z-0.050000
G01 X2.989160 Y31.254860 Z-0.050000
G01 X1.897896 Y31.254860 Z-0.050000
G01 X1.897896 Y33.058560 Z-0.050000
G01 X1.897896 Y34.862260 Z-0.050000
G01 X2.102508 Y34.862260 Z-0.050000
G01 X2.307120 Y34.862260 Z-0.050000
G01 X2.307120 Y34.307270 Z-0.050000
G01 X2.307120 Y33.752290 Z-0.050000
G01 X3.330179 Y33.752290 Z-0.050000
G01 X4.353239 Y33.752290 Z-0.050000
G01 X4.353239 Y34.338100 Z-0.050000
G01 X4.353239 Y34.923920 Z-0.050000
G01 X5.461553 Y34.923920 Z-0.050000
G01 X6.569867 Y34.923920 Z-0.050000
G01 X6.569867 Y34.785170 Z-0.050000
G01 X6.569867 Y34.646430 Z-0.050000
G01 X5.632063 Y34.646430 Z-0.050000
G01 X4.694259 Y34.646430 Z-0.050000
G01 X4.694259 Y34.045200 Z-0.050000
G01 X4.694259 Y33.443960 Z-0.050000
G01 X3.500689 Y33.443960 Z-0.050000
G01 X2.307120 Y33.443960 Z-0.050000
G01 X2.307120 Y32.534400 Z-0.050000
G01 X2.307120 Y31.624850 Z-0.050000
G01 X2.992279 Y31.624850 Z-0.050000
G01 X3.677438 Y31.624850 Z-0.050000
G01 X3.667058 Y31.848380 Z-0.050000
G02 X3.661376 Y32.071999 Z-0.050000 I5.340291 J0.247578
G02 X3.663958 Y32.542110 Z-0.050000 I23.566975 J0.105620
G01 X3.671258 Y33.012310 Z-0.050000
G01 X5.069439 Y33.012310 Z-0.050000
G01 X6.467620 Y33.012310 Z-0.050000
G01 X6.467620 Y32.272330 Z-0.050000
G01 X6.467620 Y31.532350 Z-0.050000
G01 X6.655181 Y31.532350 Z-0.050000
G01 X6.842742 Y31.532350 Z-0.050000
G01 X6.842742 Y32.688570 Z-0.050000
G01 X6.842742 Y33.844780 Z-0.050000
G01 X7.729393 Y33.844780 Z-0.050000
G01 X8.616045 Y33.844780 Z-0.050000
G01 X8.616045 Y35.186000 Z-0.050000
G01 X8.616045 Y36.527210 Z-0.050000
G01 X7.729392 Y36.527210 Z-0.050000
G01 X6.842740 Y36.527210 Z-0.050000
G01 X6.842740 Y37.683430 Z-0.050000
G01 X6.842740 Y38.839640 Z-0.050000
G01 X6.655797 Y38.839640 Z-0.050000
G01 X6.468853 Y38.839640 Z-0.050000
G01 X6.459753 Y38.107370 Z-0.050000
G01 X6.450653 Y37.375100 Z-0.050000
G01 X5.060997 Y37.367100 Z-0.050000
G01 X3.671342 Y37.359100 Z-0.050000
G01 X3.664042 Y37.829640 Z-0.050000
G02 X3.661461 Y38.300118 Z-0.050000 I23.599622 J0.364755
G02 X3.667142 Y38.523720 Z-0.050000 I5.344802 J-0.023941
G01 X3.677522 Y38.747260 Z-0.050000
G01 X2.992360 Y38.747260 Z-0.050000
G01 X2.307201 Y38.747260 Z-0.050000
G01 X2.307201 Y37.837700 Z-0.050000
G01 X2.307201 Y36.928140 Z-0.050000
G01 X3.500770 Y36.928140 Z-0.050000
G01 X4.694340 Y36.928140 Z-0.050000
G01 X4.694340 Y36.326910 Z-0.050000
G01 X4.694340 Y35.725670 Z-0.050000
G01 X5.632144 Y35.725670 Z-0.050000
G01 X6.569948 Y35.725670 Z-0.050000
G01 X6.569948 Y35.586930 Z-0.050000
G01 X6.569948 Y35.448180 Z-0.050000
G01 X5.461634 Y35.448180 Z-0.050000
G01 X4.353320 Y35.448180 Z-0.050000
G01 X4.353320 Y36.049420 Z-0.050000
G01 X4.353320 Y36.650650 Z-0.050000
G01 X3.330260 Y36.650650 Z-0.050000
G01 X2.307201 Y36.650650 Z-0.050000
G01 X2.307201 Y36.080250 Z-0.050000
G01 X2.307201 Y35.509850 Z-0.050000
G01 X2.102589 Y35.509850 Z-0.050000
G01 X1.897977 Y35.509850 Z-0.050000
G01 X1.897977 Y37.313550 Z-0.050000
G01 X1.897977 Y39.117250 Z-0.050000
G01 X2.989241 Y39.117250 Z-0.050000
G01 X4.080504 Y39.117250 Z-0.050000
G01 X4.080504 Y38.423040 Z-0.050000
G01 X4.080504 Y37.728840 Z-0.050000
G01 X5.060936 Y37.736840 Z-0.050000
G01 X6.041368 Y37.744840 Z-0.050000
G01 X6.050468 Y38.477110 Z-0.050000
G01 X6.059568 Y39.209380 Z-0.050000
G01 X6.655741 Y39.209380 Z-0.050000
G01 X7.251908 Y39.209380 Z-0.050000
G01 X7.251908 Y38.053170 Z-0.050000
G01 X7.251908 Y36.896950 Z-0.050000
G01 X8.138559 Y36.896950 Z-0.050000
G01 X9.025211 Y36.896950 Z-0.050000
G01 X9.025211 Y35.185750 Z-0.050000
G01 X9.025211 Y33.474540 Z-0.050000
G01 X8.138559 Y33.474540 Z-0.050000
G01 X7.251908 Y33.474540 Z-0.050000
G01 X7.251908 Y32.318330 Z-0.050000
G01 X7.251908 Y31.162110 Z-0.050000
G01 X6.655123 Y31.162110 Z-0.050000
G01 X6.058339 Y31.162110 Z-0.050000
G01 X6.058338 Y31.902340 Z-0.050000
G00 Z1.000000

(End cutting path id: path1579)


(Start cutting path id: path1579)
(Change tool to Cylindrical cutter)

G00 Z1.000000
G00 X7.695233 Y32.087330

G00 Z4.950000 (Fast pre-penetrate)
G01 Z-0.050000 F300.0(Penetrate)
G01 X7.695233 Y33.012310 Z-0.050000 F30.000000
G01 X8.360221 Y33.012310 Z-0.050000
G01 X9.025210 Y33.012310 Z-0.050000
G01 X9.025210 Y32.827310 Z-0.050000
G01 X9.025210 Y32.642320 Z-0.050000
G01 X8.564833 Y32.642320 Z-0.050000
G01 X8.104456 Y32.642320 Z-0.050000
G01 X8.104456 Y31.902340 Z-0.050000
G01 X8.104456 Y31.162360 Z-0.050000
G01 X7.899845 Y31.162360 Z-0.050000
G01 X7.695233 Y31.162360 Z-0.050000
G01 X7.695233 Y32.087330 Z-0.050000
G00 Z1.000000

(End cutting path id: path1579)


(Start cutting path id: path1579)
(Change tool to Cylindrical cutter)

G00 Z1.000000
G00 X8.615986 Y31.640260

G00 Z4.950000 (Fast pre-penetrate)
G01 Z-0.050000 F300.0(Penetrate)
G01 X8.615986 Y32.118170 Z-0.050000 F30.000000
G01 X8.820598 Y32.118170 Z-0.050000
G01 X9.025210 Y32.118170 Z-0.050000
G01 X9.025210 Y31.640260 Z-0.050000
G01 X9.025210 Y31.162360 Z-0.050000
G01 X8.820598 Y31.162360 Z-0.050000
G01 X8.615986 Y31.162360 Z-0.050000
G01 X8.615986 Y31.640260 Z-0.050000
G00 Z1.000000

(End cutting path id: path1579)


(Start cutting path id: path1579)
(Change tool to Cylindrical cutter)

G00 Z1.000000
G00 X10.934922 Y31.640260

G00 Z4.950000 (Fast pre-penetrate)
G01 Z-0.050000 F300.0(Penetrate)
G01 X10.934922 Y32.118170 Z-0.050000 F30.000000
G01 X11.139534 Y32.118170 Z-0.050000
G01 X11.344146 Y32.118170 Z-0.050000
G01 X11.344146 Y31.640260 Z-0.050000
G01 X11.344146 Y31.162360 Z-0.050000
G01 X11.139534 Y31.162360 Z-0.050000
G01 X10.934922 Y31.162360 Z-0.050000
G01 X10.934922 Y31.640260 Z-0.050000
G00 Z1.000000

(End cutting path id: path1579)


(Start cutting path id: path1579)
(Change tool to Cylindrical cutter)

G00 Z1.000000
G00 X11.855676 Y31.902340

G00 Z4.950000 (Fast pre-penetrate)
G01 Z-0.050000 F300.0(Penetrate)
G01 X11.855676 Y32.642320 Z-0.050000 F30.000000
G01 X11.395299 Y32.642320 Z-0.050000
G01 X10.934922 Y32.642320 Z-0.050000
G01 X10.934922 Y32.827310 Z-0.050000
G01 X10.934922 Y33.012310 Z-0.050000
G01 X11.599911 Y33.012310 Z-0.050000
G01 X12.264899 Y33.012310 Z-0.050000
G01 X12.264899 Y32.087330 Z-0.050000
G01 X12.264899 Y31.162360 Z-0.050000
G01 X12.060287 Y31.162360 Z-0.050000
G01 X11.855676 Y31.162360 Z-0.050000
G01 X11.855676 Y31.902340 Z-0.050000
G00 Z1.000000

(End cutting path id: path1579)


(Start cutting path id: path1579)
(Change tool to Cylindrical cutter)

G00 Z1.000000
G00 X12.708225 Y32.318580

G00 Z4.950000 (Fast pre-penetrate)
G01 Z-0.050000 F300.0(Penetrate)
G01 X12.708225 Y33.474790 Z-0.050000 F30.000000
G01 X11.821574 Y33.474790 Z-0.050000
G01 X10.934922 Y33.474790 Z-0.050000
G01 X10.934922 Y35.186000 Z-0.050000
G01 X10.934922 Y36.897200 Z-0.050000
G01 X11.821574 Y36.897200 Z-0.050000
G01 X12.708225 Y36.897200 Z-0.050000
G01 X12.708225 Y38.053420 Z-0.050000
G01 X12.708225 Y39.209630 Z-0.050000
G01 X13.304392 Y39.209630 Z-0.050000
G01 X13.900560 Y39.209630 Z-0.050000
G01 X13.909660 Y38.477360 Z-0.050000
G01 X13.918760 Y37.745090 Z-0.050000
G01 X14.899192 Y37.737090 Z-0.050000
G01 X15.879624 Y37.729090 Z-0.050000
G01 X15.879624 Y38.423290 Z-0.050000
G01 X15.879624 Y39.117500 Z-0.050000
G01 X16.970887 Y39.117500 Z-0.050000
G01 X18.062151 Y39.117500 Z-0.050000
G01 X18.062151 Y37.313800 Z-0.050000
G01 X18.062151 Y35.510100 Z-0.050000
G01 X17.857624 Y35.510100 Z-0.050000
G01 X17.653012 Y35.510100 Z-0.050000
G01 X17.653012 Y36.080500 Z-0.050000
G01 X17.653012 Y36.650900 Z-0.050000
G01 X16.629953 Y36.650900 Z-0.050000
G01 X15.606893 Y36.650900 Z-0.050000
G01 X15.606893 Y36.049670 Z-0.050000
G01 X15.606893 Y35.448430 Z-0.050000
G01 X14.498579 Y35.448430 Z-0.050000
G01 X13.390265 Y35.448430 Z-0.050000
G01 X13.390265 Y35.587180 Z-0.050000
G01 X13.390265 Y35.725920 Z-0.050000
G01 X14.328069 Y35.725920 Z-0.050000
G01 X15.265873 Y35.725920 Z-0.050000
G01 X15.265873 Y36.327160 Z-0.050000
G01 X15.265873 Y36.928390 Z-0.050000
G01 X16.459443 Y36.928390 Z-0.050000
G01 X17.653012 Y36.928390 Z-0.050000
G01 X17.653012 Y37.837950 Z-0.050000
G01 X17.653012 Y38.747510 Z-0.050000
G01 X16.967853 Y38.747510 Z-0.050000
G01 X16.282694 Y38.747510 Z-0.050000
G01 X16.293074 Y38.523970 Z-0.050000
G02 X16.298756 Y38.300368 Z-0.050000 I-5.339120 J-0.247543
G02 X16.296174 Y37.829890 Z-0.050000 I-23.602204 J-0.105723
G01 X16.288874 Y37.359350 Z-0.050000
G01 X14.899218 Y37.367350 Z-0.050000
G01 X13.509563 Y37.375350 Z-0.050000
G01 X13.500463 Y38.107620 Z-0.050000
G01 X13.491363 Y38.839890 Z-0.050000
G01 X13.304419 Y38.839890 Z-0.050000
G01 X13.117476 Y38.839890 Z-0.050000
G01 X13.117476 Y37.683680 Z-0.050000
G01 X13.117476 Y36.527460 Z-0.050000
G01 X12.230824 Y36.527460 Z-0.050000
G01 X11.344173 Y36.527460 Z-0.050000
G01 X11.344173 Y35.186250 Z-0.050000
G01 X11.344173 Y33.845030 Z-0.050000
G01 X12.230824 Y33.845030 Z-0.050000
G01 X13.117476 Y33.845030 Z-0.050000
G01 X13.117476 Y32.688820 Z-0.050000
G01 X13.117476 Y31.532600 Z-0.050000
G01 X13.305037 Y31.532600 Z-0.050000
G01 X13.492598 Y31.532600 Z-0.050000
G01 X13.492598 Y32.272580 Z-0.050000
G01 X13.492598 Y33.012560 Z-0.050000
G01 X14.890779 Y33.012560 Z-0.050000
G01 X16.288960 Y33.012560 Z-0.050000
G01 X16.296260 Y32.542360 Z-0.050000
G02 X16.298842 Y32.072249 Z-0.050000 I-23.564393 J-0.364492
G02 X16.293160 Y31.848630 Z-0.050000 I-5.345973 J0.023959
G01 X16.282780 Y31.625100 Z-0.050000
G01 X16.967939 Y31.625100 Z-0.050000
G01 X17.653098 Y31.625100 Z-0.050000
G01 X17.653098 Y32.534650 Z-0.050000
G01 X17.653098 Y33.444210 Z-0.050000
G01 X16.459529 Y33.444210 Z-0.050000
G01 X15.265959 Y33.444210 Z-0.050000
G01 X15.265959 Y34.045450 Z-0.050000
G01 X15.265959 Y34.646680 Z-0.050000
G01 X14.328068 Y34.646680 Z-0.050000
G01 X13.390264 Y34.646680 Z-0.050000
G01 X13.390264 Y34.785420 Z-0.050000
G01 X13.390264 Y34.924170 Z-0.050000
G01 X14.498578 Y34.924170 Z-0.050000
G01 X15.606892 Y34.924170 Z-0.050000
G01 X15.606892 Y34.338350 Z-0.050000
G01 X15.606892 Y33.752540 Z-0.050000
G01 X16.629952 Y33.752540 Z-0.050000
G01 X17.653011 Y33.752540 Z-0.050000
G01 X17.653011 Y34.307520 Z-0.050000
G01 X17.653011 Y34.862510 Z-0.050000
G01 X17.857623 Y34.862510 Z-0.050000
G01 X18.062235 Y34.862510 Z-0.050000
G01 X18.062235 Y33.058810 Z-0.050000
G01 X18.062235 Y31.255110 Z-0.050000
G01 X16.970971 Y31.255110 Z-0.050000
G01 X15.879708 Y31.255110 Z-0.050000
G01 X15.879708 Y31.948840 Z-0.050000
G01 X15.879708 Y32.642570 Z-0.050000
G01 X14.890751 Y32.642570 Z-0.050000
G01 X13.901793 Y32.642570 Z-0.050000
G01 X13.901793 Y31.902590 Z-0.050000
G01 X13.901793 Y31.162610 Z-0.050000
G01 X13.305009 Y31.162610 Z-0.050000
G01 X12.708224 Y31.162610 Z-0.050000
G01 X12.708224 Y32.318830 Z-0.050000
G01 X12.708225 Y32.318580 Z-0.050000
G00 Z1.000000

(End cutting path id: path1579)


(Start cutting path id: path1579)
(Change tool to Cylindrical cutter)

G00 Z1.000000
G00 X1.045347 Y35.186280

G00 Z4.950000 (Fast pre-penetrate)
G01 Z-0.050000 F300.0(Penetrate)
G01 X1.045347 Y36.959140 Z-0.050000 F30.000000
G01 X1.249959 Y36.959140 Z-0.050000
G01 X1.454571 Y36.959140 Z-0.050000
G01 X1.454571 Y35.186280 Z-0.050000
G01 X1.454571 Y33.413410 Z-0.050000
G01 X1.249959 Y33.413410 Z-0.050000
G01 X1.045347 Y33.413410 Z-0.050000
G01 X1.045347 Y35.186280 Z-0.050000
G00 Z1.000000

(End cutting path id: path1579)


(Start cutting path id: path1579)
(Change tool to Cylindrical cutter)

G00 Z1.000000
G00 X18.505561 Y35.186280

G00 Z4.950000 (Fast pre-penetrate)
G01 Z-0.050000 F300.0(Penetrate)
G01 X18.505561 Y36.959140 Z-0.050000 F30.000000
G01 X18.710173 Y36.959140 Z-0.050000
G01 X18.914785 Y36.959140 Z-0.050000
G01 X18.914785 Y35.186280 Z-0.050000
G01 X18.914785 Y33.413410 Z-0.050000
G01 X18.710173 Y33.413410 Z-0.050000
G01 X18.505561 Y33.413410 Z-0.050000
G01 X18.505561 Y35.186280 Z-0.050000
G00 Z1.000000

(End cutting path id: path1579)


(Start cutting path id: path1579)
(Change tool to Cylindrical cutter)

G00 Z1.000000
G00 X7.717968 Y37.380520

G00 Z4.950000 (Fast pre-penetrate)
G01 Z-0.050000 F300.0(Penetrate)
G01 X7.706290 Y37.405972 Z-0.050000 F30.000000
G02 X7.695228 Y38.305490 Z-0.050000 I36.568703 J0.899518
G01 X7.695228 Y39.209910 Z-0.050000
G01 X7.899222 Y39.209910 Z-0.050000
G01 X8.103217 Y39.209910 Z-0.050000
G01 X8.112317 Y38.477640 Z-0.050000
G01 X8.121417 Y37.745370 Z-0.050000
G01 X8.573268 Y37.736370 Z-0.050000
G01 X9.025119 Y37.727370 Z-0.050000
G01 X9.025119 Y37.543270 Z-0.050000
G01 X9.025119 Y37.359170 Z-0.050000
G01 X8.382871 Y37.359170 Z-0.050000
G02 X7.744588 Y37.368821 Z-0.050000 I0.000000 J21.110998
G01 X7.717883 Y37.379770 Z-0.050000
G01 X7.717968 Y37.380520 Z-0.050000
G00 Z1.000000

(End cutting path id: path1579)


(Start cutting path id: path1579)
(Change tool to Cylindrical cutter)

G00 Z1.000000
G00 X10.934922 Y37.543400

G00 Z4.950000 (Fast pre-penetrate)
G01 Z-0.050000 F300.0(Penetrate)
G01 X10.934922 Y37.728170 Z-0.050000 F30.000000
G01 X11.386773 Y37.737170 Z-0.050000
G01 X11.838625 Y37.746170 Z-0.050000
G01 X11.847725 Y38.478440 Z-0.050000
G01 X11.856825 Y39.210710 Z-0.050000
G01 X12.061327 Y39.210710 Z-0.050000
G01 X12.265829 Y39.210710 Z-0.050000
G01 X12.256829 Y38.293450 Z-0.050000
G01 X12.247829 Y37.376180 Z-0.050000
G01 X11.591366 Y37.368180 Z-0.050000
G01 X10.934903 Y37.360180 Z-0.050000
G01 X10.934922 Y37.543400 Z-0.050000
G00 Z1.000000

(End cutting path id: path1579)


(Start cutting path id: path1579)
(Change tool to Cylindrical cutter)

G00 Z1.000000
G00 X8.615986 Y38.747430

G00 Z4.950000 (Fast pre-penetrate)
G01 Z-0.050000 F300.0(Penetrate)
G01 X8.615986 Y39.240750 Z-0.050000 F30.000000
G01 X8.820598 Y39.240750 Z-0.050000
G01 X9.025210 Y39.240750 Z-0.050000
G01 X9.025210 Y38.747430 Z-0.050000
G01 X9.025210 Y38.254110 Z-0.050000
G01 X8.820598 Y38.254110 Z-0.050000
G01 X8.615986 Y38.254110 Z-0.050000
G01 X8.615986 Y38.747430 Z-0.050000
G00 Z1.000000

(End cutting path id: path1579)


(Start cutting path id: path1579)
(Change tool to Cylindrical cutter)

G00 Z1.000000
G00 X10.934922 Y38.747430

G00 Z4.950000 (Fast pre-penetrate)
G01 Z-0.050000 F300.0(Penetrate)
G01 X10.934922 Y39.240750 Z-0.050000 F30.000000
G01 X11.139534 Y39.240750 Z-0.050000
G01 X11.344146 Y39.240750 Z-0.050000
G01 X11.344146 Y38.747430 Z-0.050000
G01 X11.344146 Y38.254110 Z-0.050000
G01 X11.139534 Y38.254110 Z-0.050000
G01 X10.934922 Y38.254110 Z-0.050000
G01 X10.934922 Y38.747430 Z-0.050000
G00 Z1.000000

(End cutting path id: path1579)



(Footer)
M5
G00 X0.0000 Y0.0000
M2
(Using default footer. To add your own footer create file "footer" in the output dir.)
(end)
%