%
(Header)
(Generated by gcodetools from Inkscape.)
(Using default header. To add your own header create file "header" in the output dir.)
M3
(Header end.)
G21 (All units in mm)

(Start cutting path id: rect1125)
(Change tool to Cylindrical cutter)

G00 Z0.500000
G00 X5.000000 Y50.000000

G00 Z4.000000 (Fast pre-penetrate)
G01 Z-1.000000 F300.0(Penetrate)
G01 X20.000000 Y50.000000 Z-1.000000 F100.000000
G01 X20.000000 Y1.000000 Z-1.000000
G01 X5.000000 Y1.000000 Z-1.000000
G01 X5.000000 Y50.000000 Z-1.000000
G00 Z0.500000

(End cutting path id: rect1125)



(Footer)
M5
G00 X0.0000 Y0.0000
M2
(Using default footer. To add your own footer create file "footer" in the output dir.)
(end)
%