%
(Header)
(Generated by gcodetools from Inkscape.)
(Using default header. To add your own header create file "header" in the output dir.)
M3
(Header end.)
G21 (All units in mm)

(Start cutting path id: path1010-20-9)
(Change tool to Cylindrical cutter)

G00 Z1.000000
G00 X0.127231 Y9.797010

G00 Z4.950000 (Fast pre-penetrate)
G01 Z-0.050000 F300.0(Penetrate)
G01 X0.127231 Y39.797010 Z-0.050000 F30.000000
G00 Z1.000000

(End cutting path id: path1010-20-9)


(Start cutting path id: path1010-8-5)
(Change tool to Cylindrical cutter)

G00 Z1.000000
G00 X2.906173 Y9.680810

G00 Z4.950000 (Fast pre-penetrate)
G01 Z-0.050000 F300.0(Penetrate)
G01 X2.906173 Y39.680810 Z-0.050000 F30.000000
G00 Z1.000000

(End cutting path id: path1010-8-5)


(Start cutting path id: path1010-20)
(Change tool to Cylindrical cutter)

G00 Z1.000000
G00 X0.486792 Y9.763540

G00 Z4.950000 (Fast pre-penetrate)
G01 Z-0.050000 F300.0(Penetrate)
G01 X0.486792 Y39.763540 Z-0.050000 F30.000000
G00 Z1.000000

(End cutting path id: path1010-20)


(Start cutting path id: path1010-8)
(Change tool to Cylindrical cutter)

G00 Z1.000000
G00 X2.137356 Y10.214510

G00 Z4.950000 (Fast pre-penetrate)
G01 Z-0.050000 F300.0(Penetrate)
G01 X2.137356 Y40.214510 Z-0.050000 F30.000000
G00 Z1.000000

(End cutting path id: path1010-8)


(Start cutting path id: path1010-2)
(Change tool to Cylindrical cutter)

G00 Z1.000000
G00 X1.499859 Y10.322120

G00 Z4.950000 (Fast pre-penetrate)
G01 Z-0.050000 F300.0(Penetrate)
G01 X1.499859 Y40.322120 Z-0.050000 F30.000000
G00 Z1.000000

(End cutting path id: path1010-2)


(Start cutting path id: path1010)
(Change tool to Cylindrical cutter)

G00 Z1.000000
G00 X0.959359 Y10.635490

G00 Z4.950000 (Fast pre-penetrate)
G01 Z-0.050000 F300.0(Penetrate)
G01 X0.959359 Y40.635490 Z-0.050000 F30.000000
G00 Z1.000000

(End cutting path id: path1010)



(Footer)
M5
G00 X0.0000 Y0.0000
M2
(Using default footer. To add your own footer create file "footer" in the output dir.)
(end)
%