%
(Header)
(Generated by gcodetools from Inkscape.)
(Using default header. To add your own header create file "header" in the output dir.)
M3
(Header end.)
G21 (All units in mm)

(Start cutting path id: path4801)
(Change tool to Cylindrical cutter)

G00 Z10.000000
G00 X6.469270 Y35.846450

G00 Z4.950000 (Fast pre-penetrate)
G01 Z-0.050000 F300.0(Penetrate)
G01 X6.469270 Y33.897320 Z-0.050000 F50.000000
G01 X27.334356 Y33.897320 Z-0.050000
G01 X27.334356 Y28.514580 Z-0.050000
G01 X6.469270 Y28.514580 Z-0.050000
G01 X6.469270 Y26.528420 Z-0.050000
G01 X27.334356 Y26.528420 Z-0.050000
G01 X27.334356 Y21.112770 Z-0.050000
G01 X6.469270 Y21.112770 Z-0.050000
G01 X6.469270 Y19.023830 Z-0.050000
G01 X27.334356 Y19.023830 Z-0.050000
G01 X27.334356 Y13.608190 Z-0.050000
G01 X4.688520 Y13.608190 Z-0.050000
G01 X4.688520 Y15.355820 Z-0.050000
G01 X25.699761 Y15.355820 Z-0.050000
G01 X25.699761 Y17.276190 Z-0.050000
G01 X4.834670 Y17.276190 Z-0.050000
G01 X4.834670 Y22.864540 Z-0.050000
G01 X25.699761 Y22.864540 Z-0.050000
G01 X25.699761 Y24.784880 Z-0.050000
G01 X4.834670 Y24.784880 Z-0.050000
G01 X4.834670 Y30.266340 Z-0.050000
G01 X25.699761 Y30.266340 Z-0.050000
G01 X25.699761 Y32.149680 Z-0.050000
G01 X4.834670 Y32.149680 Z-0.050000
G01 X4.834670 Y37.598220 Z-0.050000
G01 X25.699761 Y37.598220 Z-0.050000
G01 X25.699761 Y43.248240 Z-0.050000
G01 X21.042137 Y43.248240 Z-0.050000
G02 X19.251192 Y40.900542 Z-0.050000 I-4.152587 J1.310846
G02 X15.580676 Y39.818760 Z-0.050000 I-3.670516 J5.686189
G02 X11.912618 Y40.900964 Z-0.050000 I-0.000000 J6.757424
G02 X10.123060 Y43.248240 Z-0.050000 I2.364690 J3.658649
G01 X4.800060 Y43.248240 Z-0.050000
G01 X4.834660 Y56.102700 Z-0.050000
G01 X9.715360 Y56.102700 Z-0.050000
G02 X11.730668 Y58.913461 Z-0.050000 I4.758274 J-1.283804
G02 X16.011423 Y60.214800 Z-0.050000 I4.280755 J-6.390102
G02 X20.290305 Y58.915507 Z-0.050000 I0.000000 J-7.695338
G02 X22.307488 Y56.102700 Z-0.050000 I-2.738640 J-4.093702
G01 X26.515121 Y56.102700 Z-0.050000
G01 X26.515121 Y54.350950 Z-0.050000
G01 X22.415180 Y54.350950 Z-0.050000
G02 X20.522737 Y51.215765 Z-0.050000 I-4.696531 J0.696148
G02 X16.011423 Y49.741250 Z-0.050000 I-4.511314 J6.163981
G02 X11.497964 Y51.215520 Z-0.050000 I0.000000 J7.646083
G02 X9.607670 Y54.350950 Z-0.050000 I2.795826 J3.823080
G01 X6.465410 Y54.350950 Z-0.050000
G01 X6.438510 Y45.000000 Z-0.050000
G01 X10.000000 Y45.000000 Z-0.050000
G02 X11.679132 Y47.695478 Z-0.050000 I4.147874 J-0.713152
G02 X15.580691 Y48.959950 Z-0.050000 I3.901559 J-5.386941
G02 X19.495604 Y47.697076 Z-0.050000 I-0.000000 J-6.699558
G02 X21.165229 Y45.000000 Z-0.050000 I-2.423571 J-3.365640
G01 X27.318987 Y45.000000 Z-0.050000
G01 X27.318987 Y35.846450 Z-0.050000
G01 X6.469270 Y35.846450 Z-0.050000
G00 Z10.000000

(End cutting path id: path4801)



(Footer)
M5
G00 X0.0000 Y0.0000
M2
(Using default footer. To add your own footer create file "footer" in the output dir.)
(end)
%