%
(Header)
(Generated by gcodetools from Inkscape.)
(Using default header. To add your own header create file "header" in the output dir.)
M3
(Header end.)
G21 (All units in mm)

(Start cutting path id: path4801)
(Change tool to Cylindrical cutter)

G00 Z5.000000
G00 X-109.230490 Y40.580110

G00 Z4.950000 (Fast pre-penetrate)
G01 Z-0.050000 F300.0(Penetrate)
G01 X-109.230490 Y38.630980 Z-0.050000 F50.000000
G01 X-88.365405 Y38.630980 Z-0.050000
G01 X-88.365405 Y33.248240 Z-0.050000
G01 X-109.230490 Y33.248240 Z-0.050000
G01 X-109.230490 Y31.262080 Z-0.050000
G01 X-88.365405 Y31.262080 Z-0.050000
G01 X-88.365405 Y25.846430 Z-0.050000
G01 X-109.230490 Y25.846430 Z-0.050000
G01 X-109.230490 Y23.757490 Z-0.050000
G01 X-88.365405 Y23.757490 Z-0.050000
G01 X-88.365405 Y18.341850 Z-0.050000
G01 X-111.011240 Y18.341850 Z-0.050000
G01 X-111.011240 Y20.089480 Z-0.050000
G01 X-90.000000 Y20.089480 Z-0.050000
G01 X-90.000000 Y22.009850 Z-0.050000
G01 X-110.865090 Y22.009850 Z-0.050000
G01 X-110.865090 Y27.598200 Z-0.050000
G01 X-90.000000 Y27.598200 Z-0.050000
G01 X-90.000000 Y29.518540 Z-0.050000
G01 X-110.865090 Y29.518540 Z-0.050000
G01 X-110.865090 Y35.000000 Z-0.050000
G01 X-90.000000 Y35.000000 Z-0.050000
G01 X-90.000000 Y36.883340 Z-0.050000
G01 X-110.865090 Y36.883340 Z-0.050000
G01 X-110.865090 Y42.331880 Z-0.050000
G01 X-90.000000 Y42.331880 Z-0.050000
G01 X-90.000000 Y47.981900 Z-0.050000
G01 X-94.657624 Y47.981900 Z-0.050000
G02 X-96.448568 Y45.634203 Z-0.050000 I-4.152584 J1.310845
G02 X-100.119090 Y44.552420 Z-0.050000 I-3.670522 J5.686200
G02 X-103.787142 Y45.634622 Z-0.050000 I0.000000 J6.757409
G02 X-105.576700 Y47.981900 Z-0.050000 I2.364693 J3.658652
G01 X-110.899700 Y47.981900 Z-0.050000
G01 X-110.865100 Y60.836360 Z-0.050000
G01 X-105.984400 Y60.836360 Z-0.050000
G02 X-103.969091 Y63.647121 Z-0.050000 I4.758274 J-1.283804
G02 X-99.688338 Y64.948460 Z-0.050000 I4.280753 J-6.390100
G02 X-95.409456 Y63.649167 Z-0.050000 I-0.000000 J-7.695338
G02 X-93.392273 Y60.836360 Z-0.050000 I-2.738640 J-4.093702
G01 X-89.184640 Y60.836360 Z-0.050000
G01 X-89.184640 Y59.084610 Z-0.050000
G01 X-93.284581 Y59.084610 Z-0.050000
G02 X-95.177024 Y55.949425 Z-0.050000 I-4.696531 J0.696148
G02 X-99.688338 Y54.474910 Z-0.050000 I-4.511314 J6.163981
G02 X-104.201796 Y55.949180 Z-0.050000 I0.000000 J7.646081
G02 X-106.092090 Y59.084610 Z-0.050000 I2.795826 J3.823081
G01 X-109.234360 Y59.084610 Z-0.050000
G01 X-109.261260 Y49.733660 Z-0.050000
G01 X-105.699770 Y49.733660 Z-0.050000
G02 X-104.020638 Y52.429138 Z-0.050000 I4.147875 J-0.713152
G02 X-100.119080 Y53.693610 Z-0.050000 I3.901558 J-5.386939
G02 X-96.204167 Y52.430736 Z-0.050000 I0.000000 J-6.699558
G02 X-94.534542 Y49.733660 Z-0.050000 I-2.423571 J-3.365640
G01 X-88.380784 Y49.733660 Z-0.050000
G01 X-88.380784 Y40.580110 Z-0.050000
G01 X-109.230490 Y40.580110 Z-0.050000
G00 Z5.000000

(End cutting path id: path4801)


(Start cutting path id: polygon2255)
(Change tool to Cylindrical cutter)

G00 Z5.000000
G00 X-63.616396 Y65.332540

G00 Z4.950000 (Fast pre-penetrate)
G01 Z-0.050000 F300.0(Penetrate)
G01 X-63.616396 Y69.603400 Z-0.050000 F50.000000
G01 X-80.701449 Y69.603400 Z-0.050000
G01 X-80.701449 Y70.888890 Z-0.050000
G01 X-62.216792 Y70.888890 Z-0.050000
G01 X-62.216792 Y64.047040 Z-0.050000
G01 X-80.000000 Y64.047040 Z-0.050000
G01 X-80.000000 Y60.000000 Z-0.050000
G01 X-62.216792 Y60.000000 Z-0.050000
G01 X-62.216792 Y53.345680 Z-0.050000
G01 X-80.000000 Y53.345680 Z-0.050000
G01 X-80.000000 Y46.388890 Z-0.050000
G01 X-62.216792 Y46.388890 Z-0.050000
G01 X-62.216792 Y39.547040 Z-0.050000
G01 X-80.000000 Y39.547040 Z-0.050000
G01 X-80.000000 Y35.500000 Z-0.050000
G01 X-62.216792 Y35.500000 Z-0.050000
G01 X-62.216792 Y28.845680 Z-0.050000
G01 X-80.701449 Y28.845680 Z-0.050000
G01 X-80.701449 Y30.131180 Z-0.050000
G01 X-63.616396 Y30.131180 Z-0.050000
G01 X-63.616396 Y34.214500 Z-0.050000
G01 X-81.399604 Y34.214500 Z-0.050000
G01 X-81.399604 Y40.832540 Z-0.050000
G01 X-63.616396 Y40.832540 Z-0.050000
G01 X-63.616396 Y45.103390 Z-0.050000
G01 X-81.399604 Y45.103390 Z-0.050000
G01 X-81.399604 Y54.631180 Z-0.050000
G01 X-63.616396 Y54.631180 Z-0.050000
G01 X-63.616396 Y58.714510 Z-0.050000
G01 X-81.399604 Y58.714510 Z-0.050000
G01 X-81.399604 Y65.332540 Z-0.050000
G01 X-63.616396 Y65.332540 Z-0.050000
G00 Z5.000000

(End cutting path id: polygon2255)


(Start cutting path id: path1010-8-5-5-4-0-5)
(Change tool to Cylindrical cutter)

G00 Z5.000000
G00 X-13.635818 Y10.099730

G00 Z4.950000 (Fast pre-penetrate)
G01 Z-0.050000 F300.0(Penetrate)
G01 X-13.635818 Y29.060960 Z-0.050000 F50.000000
G00 Z5.000000

(End cutting path id: path1010-8-5-5-4-0-5)


(Start cutting path id: path1010-8-5-5-4-0)
(Change tool to Cylindrical cutter)

G00 Z5.000000
G00 X-15.248124 Y9.996960

G00 Z4.950000 (Fast pre-penetrate)
G01 Z-0.050000 F300.0(Penetrate)
G01 X-15.248124 Y28.958190 Z-0.050000 F50.000000
G00 Z5.000000

(End cutting path id: path1010-8-5-5-4-0)


(Start cutting path id: path1010-8-5-5-4)
(Change tool to Cylindrical cutter)

G00 Z5.000000
G00 X-16.638555 Y10.038770

G00 Z4.950000 (Fast pre-penetrate)
G01 Z-0.050000 F300.0(Penetrate)
G01 X-16.638555 Y29.000000 Z-0.050000 F50.000000
G00 Z5.000000

(End cutting path id: path1010-8-5-5-4)


(Start cutting path id: path1010-8-5-5)
(Change tool to Cylindrical cutter)

G00 Z5.000000
G00 X-17.862709 Y10.038770

G00 Z4.950000 (Fast pre-penetrate)
G01 Z-0.050000 F300.0(Penetrate)
G01 X-17.862709 Y29.000000 Z-0.050000 F50.000000
G00 Z5.000000

(End cutting path id: path1010-8-5-5)


(Start cutting path id: path1010-8-5)
(Change tool to Cylindrical cutter)

G00 Z5.000000
G00 X-18.921043 Y9.891280

G00 Z4.950000 (Fast pre-penetrate)
G01 Z-0.050000 F300.0(Penetrate)
G01 X-18.921043 Y28.852510 Z-0.050000 F50.000000
G00 Z5.000000

(End cutting path id: path1010-8-5)


(Start cutting path id: path6937)
(Change tool to Cylindrical cutter)

G00 Z5.000000
G00 X-66.672086 Y22.754960

G00 Z4.950000 (Fast pre-penetrate)
G01 Z-0.050000 F300.0(Penetrate)
G01 X-66.727886 Y6.006920 Z-0.050000 F50.000000
G01 X-74.910703 Y11.802140 Z-0.050000
G01 X-74.983073 Y-9.920030 Z-0.050000
G01 X-74.995153 Y-13.544810 Z-0.050000
G01 X-71.709477 Y-20.038090 Z-0.050000
G02 X-71.425455 Y-19.955676 Z-0.050000 I0.486981 J-1.147655
G02 X-71.153503 Y-19.934100 Z-0.050000 I0.263560 J-1.597349
G02 X-70.013840 Y-20.410623 Z-0.050000 I-0.005382 J-1.613957
G02 X-69.544932 Y-21.553430 Z-0.050000 I-1.145036 J-1.137425
G02 X-70.021455 Y-22.693094 Z-0.050000 I-1.613958 J0.005382
G02 X-71.164258 Y-23.162000 Z-0.050000 I-1.137421 J1.145032
G02 X-72.303913 Y-22.685486 Z-0.050000 I0.005382 J1.613957
G02 X-72.772829 Y-21.542670 Z-0.050000 I1.145028 J1.137434
G02 X-72.637310 Y-20.887457 Z-0.050000 I1.678760 J-0.005599
G02 X-72.292704 Y-20.380110 Z-0.050000 I1.476715 J-0.632325
G01 X-75.000000 Y-15.000000 Z-0.050000
G01 X-75.016480 Y-19.947690 Z-0.050000
G02 X-74.155360 Y-20.511701 Z-0.050000 I-0.439207 J-1.609946
G02 X-73.804605 Y-21.512780 Z-0.050000 I-1.237895 J-0.995718
G02 X-74.281123 Y-22.652439 Z-0.050000 I-1.613958 J0.005382
G02 X-75.423931 Y-23.121350 Z-0.050000 I-1.137426 J1.145027
G02 X-76.563592 Y-22.644831 Z-0.050000 I0.005382 J1.613961
G02 X-77.032504 Y-21.502020 Z-0.050000 I1.145030 J1.137429
G02 X-76.649664 Y-20.458935 Z-0.050000 I1.626936 J-0.005329
G02 X-75.704305 Y-19.918930 Z-0.050000 I1.208781 J-1.018654
G01 X-75.687905 Y-14.997710 Z-0.050000
G01 X-78.430728 Y-20.280300 Z-0.050000
G02 X-77.994975 Y-20.813741 Z-0.050000 I-0.994450 J-1.257035
G02 X-77.826334 Y-21.525860 Z-0.050000 I-1.397240 J-0.706917
G02 X-78.302852 Y-22.665526 Z-0.050000 I-1.613976 J0.005382
G02 X-79.445660 Y-23.134440 Z-0.050000 I-1.137426 J1.145016
G02 X-80.585317 Y-22.657922 Z-0.050000 I0.005382 J1.613952
G02 X-81.054232 Y-21.515100 Z-0.050000 I1.145045 J1.137440
G02 X-80.577713 Y-20.375441 Z-0.050000 I1.613958 J-0.005382
G02 X-79.434905 Y-19.906530 Z-0.050000 I1.137426 J-1.145029
G02 X-79.237495 Y-19.923508 Z-0.050000 I-0.003623 J-1.198294
G02 X-79.038209 Y-19.960730 Z-0.050000 I-1.057234 J-6.212524
G01 X-75.735973 Y-13.542330 Z-0.050000
G01 X-75.709513 Y-13.542420 Z-0.050000
G01 X-75.697433 Y-9.917630 Z-0.050000
G01 X-75.625153 Y11.778080 Z-0.050000
G02 X-76.554878 Y12.312930 Z-0.050000 I0.286322 J1.573203
G02 X-76.942774 Y13.369970 Z-0.050000 I1.231624 J1.051654
G02 X-76.466257 Y14.509635 Z-0.050000 I1.613974 J-0.005382
G02 X-75.323446 Y14.978550 Z-0.050000 I1.137428 J-1.145019
G02 X-74.183787 Y14.502031 Z-0.050000 I-0.005382 J-1.613957
G02 X-73.714875 Y13.359220 Z-0.050000 I-1.145032 J-1.137429
G02 X-74.072317 Y12.360511 Z-0.050000 I-1.588923 J0.005362
G02 X-74.937152 Y11.802240 Z-0.050000 I-1.293286 J1.054464
G00 Z5.000000

(End cutting path id: path6937)


(Start cutting path id: path1023)
(Change tool to Cylindrical cutter)

G00 Z5.000000
G00 X-40.000000 Y35.000000

G00 Z4.950000 (Fast pre-penetrate)
G01 Z-0.050000 F300.0(Penetrate)
G01 X-40.000000 Y56.908810 Z-0.050000 F50.000000
G01 X-37.883382 Y56.908810 Z-0.050000
G01 X-31.533527 Y56.908810 Z-0.050000
G01 X-31.533527 Y32.565690 Z-0.050000
G01 X-34.708454 Y32.565690 Z-0.050000
G01 X-34.708454 Y53.257350 Z-0.050000
G01 X-36.825072 Y53.257350 Z-0.050000
G01 X-36.825072 Y30.131370 Z-0.050000
G01 X-35.766763 Y30.131370 Z-0.050000
G01 X-35.766763 Y25.262750 Z-0.050000
G01 X-41.058309 Y25.262750 Z-0.050000
G01 X-41.058309 Y30.131370 Z-0.050000
G01 X-40.000000 Y30.131370 Z-0.050000
G01 X-37.883382 Y30.131370 Z-0.050000
G01 X-37.883382 Y54.474500 Z-0.050000
G01 X-33.650145 Y54.474500 Z-0.050000
G01 X-33.650145 Y33.782850 Z-0.050000
G01 X-32.591835 Y33.782850 Z-0.050000
G01 X-32.591835 Y55.691650 Z-0.050000
G01 X-37.883382 Y55.691650 Z-0.050000
G01 X-38.941690 Y55.691650 Z-0.050000
G01 X-38.941690 Y33.782850 Z-0.050000
G01 X-42.116618 Y33.782850 Z-0.050000
G01 X-42.116618 Y60.560280 Z-0.050000
G01 X-44.233236 Y60.560280 Z-0.050000
G01 X-44.233236 Y64.211750 Z-0.050000
G01 X-40.000000 Y64.211750 Z-0.050000
G01 X-40.000000 Y60.560280 Z-0.050000
G01 X-41.058309 Y60.560280 Z-0.050000
G01 X-41.058309 Y35.000000 Z-0.050000
G01 X-40.000000 Y35.000000 Z-0.050000
G00 Z5.000000

(End cutting path id: path1023)


(Start cutting path id: rect928-1-1-7)
(Change tool to Cylindrical cutter)

G00 Z5.000000
G00 X99.999995 Y20.000000

G00 Z4.950000 (Fast pre-penetrate)
G01 Z-0.050000 F300.0(Penetrate)
G01 X99.999995 Y9.999998 Z-0.050000 F50.000000
G01 X0.000000 Y9.999998 Z-0.050000
G01 X0.000000 Y20.000000 Z-0.050000
G01 X99.999995 Y20.000000 Z-0.050000
G00 Z5.000000

(End cutting path id: rect928-1-1-7)


(Start cutting path id: rect928-1-1)
(Change tool to Cylindrical cutter)

G00 Z5.000000
G00 X99.999995 Y39.999999

G00 Z4.950000 (Fast pre-penetrate)
G01 Z-0.050000 F300.0(Penetrate)
G01 X99.999995 Y30.000001 Z-0.050000 F50.000000
G01 X0.000000 Y30.000001 Z-0.050000
G01 X0.000000 Y39.999999 Z-0.050000
G01 X99.999995 Y39.999999 Z-0.050000
G00 Z5.000000

(End cutting path id: rect928-1-1)


(Start cutting path id: rect928-1)
(Change tool to Cylindrical cutter)

G00 Z5.000000
G00 X99.999995 Y60.000000

G00 Z4.950000 (Fast pre-penetrate)
G01 Z-0.050000 F300.0(Penetrate)
G01 X99.999995 Y50.000000 Z-0.050000 F50.000000
G01 X0.000000 Y50.000000 Z-0.050000
G01 X0.000000 Y60.000000 Z-0.050000
G01 X99.999995 Y60.000000 Z-0.050000
G00 Z5.000000

(End cutting path id: rect928-1)


(Start cutting path id: rect928-3-8-2-1)
(Change tool to Cylindrical cutter)

G00 Z5.000000
G00 X90.000001 Y70.000000

G00 Z4.950000 (Fast pre-penetrate)
G01 Z-0.050000 F300.0(Penetrate)
G01 X99.999995 Y70.000000 Z-0.050000 F50.000000
G01 X99.999995 Y0.000000 Z-0.050000
G01 X90.000001 Y0.000000 Z-0.050000
G01 X90.000001 Y70.000000 Z-0.050000
G00 Z5.000000

(End cutting path id: rect928-3-8-2-1)


(Start cutting path id: rect928-3-8-2)
(Change tool to Cylindrical cutter)

G00 Z5.000000
G00 X70.000001 Y70.000000

G00 Z4.950000 (Fast pre-penetrate)
G01 Z-0.050000 F300.0(Penetrate)
G01 X80.000000 Y70.000000 Z-0.050000 F50.000000
G01 X80.000000 Y0.000000 Z-0.050000
G01 X70.000001 Y0.000000 Z-0.050000
G01 X70.000001 Y70.000000 Z-0.050000
G00 Z5.000000

(End cutting path id: rect928-3-8-2)


(Start cutting path id: rect928-3-8)
(Change tool to Cylindrical cutter)

G00 Z5.000000
G00 X49.999999 Y70.000000

G00 Z4.950000 (Fast pre-penetrate)
G01 Z-0.050000 F300.0(Penetrate)
G01 X60.000000 Y70.000000 Z-0.050000 F50.000000
G01 X60.000000 Y0.000000 Z-0.050000
G01 X49.999999 Y0.000000 Z-0.050000
G01 X49.999999 Y70.000000 Z-0.050000
G00 Z5.000000

(End cutting path id: rect928-3-8)


(Start cutting path id: rect928-3)
(Change tool to Cylindrical cutter)

G00 Z5.000000
G00 X29.999999 Y70.000000

G00 Z4.950000 (Fast pre-penetrate)
G01 Z-0.050000 F300.0(Penetrate)
G01 X40.000000 Y70.000000 Z-0.050000 F50.000000
G01 X40.000000 Y0.000000 Z-0.050000
G01 X29.999999 Y0.000000 Z-0.050000
G01 X29.999999 Y70.000000 Z-0.050000
G00 Z5.000000

(End cutting path id: rect928-3)


(Start cutting path id: rect928)
(Change tool to Cylindrical cutter)

G00 Z5.000000
G00 X10.000000 Y70.000000

G00 Z4.950000 (Fast pre-penetrate)
G01 Z-0.050000 F300.0(Penetrate)
G01 X20.000000 Y70.000000 Z-0.050000 F50.000000
G01 X20.000000 Y0.000000 Z-0.050000
G01 X10.000000 Y0.000000 Z-0.050000
G01 X10.000000 Y70.000000 Z-0.050000
G00 Z5.000000

(End cutting path id: rect928)



(Footer)
M5
G00 X0.0000 Y0.0000
M2
(Using default footer. To add your own footer create file "footer" in the output dir.)
(end)
%