%
(Header)
(Generated by gcodetools from Inkscape.)
(Using default header. To add your own header create file "header" in the output dir.)
M3
(Header end.)
G21 (All units in mm)

(Start cutting path id: polygon1053-4-0)
(Change tool to Cylindrical cutter)

G00 Z1.000000
G00 X16.240079 Y50.582590

G00 Z4.950000 (Fast pre-penetrate)
G01 Z-0.050000 F300.0(Penetrate)
G01 X16.240079 Y42.999090 Z-0.050000 F100.000000
G01 X11.970833 Y42.999090 Z-0.050000
G01 X11.970833 Y35.620790 Z-0.050000
G01 X9.915740 Y35.620790 Z-0.050000
G01 X9.915740 Y42.999090 Z-0.050000
G01 X5.411079 Y42.999090 Z-0.050000
G01 X5.411079 Y50.582590 Z-0.050000
G01 X9.915740 Y50.582590 Z-0.050000
G01 X9.915740 Y55.641220 Z-0.050000
G01 X5.411079 Y55.641220 Z-0.050000
G01 X5.411079 Y63.233640 Z-0.050000
G01 X16.240079 Y63.233640 Z-0.050000
G01 X16.240079 Y55.641220 Z-0.050000
G01 X11.735419 Y55.641220 Z-0.050000
G01 X11.735419 Y50.582590 Z-0.050000
G01 X16.240079 Y50.582590 Z-0.050000
G00 Z1.000000

(End cutting path id: polygon1053-4-0)


(Start cutting path id: polygon1053-4)
(Change tool to Cylindrical cutter)

G00 Z1.000000
G00 X19.249030 Y22.755840

G00 Z4.950000 (Fast pre-penetrate)
G01 Z-0.050000 F300.0(Penetrate)
G01 X19.249030 Y16.605100 Z-0.050000 F100.000000
G01 X15.764739 Y16.605100 Z-0.050000
G01 X15.764739 Y10.620790 Z-0.050000
G01 X14.087501 Y10.620790 Z-0.050000
G01 X14.087501 Y16.605100 Z-0.050000
G01 X10.411079 Y16.605100 Z-0.050000
G01 X10.411079 Y22.755840 Z-0.050000
G01 X14.087501 Y22.755840 Z-0.050000
G01 X14.087501 Y26.858740 Z-0.050000
G01 X10.411079 Y26.858740 Z-0.050000
G01 X10.411079 Y33.016720 Z-0.050000
G01 X19.249030 Y33.016720 Z-0.050000
G01 X19.249030 Y26.858740 Z-0.050000
G01 X15.572609 Y26.858740 Z-0.050000
G01 X15.572609 Y22.755840 Z-0.050000
G01 X19.249030 Y22.755840 Z-0.050000
G00 Z1.000000

(End cutting path id: polygon1053-4)


(Start cutting path id: polygon1053)
(Change tool to Cylindrical cutter)

G00 Z1.000000
G00 X6.549024 Y29.983960

G00 Z4.950000 (Fast pre-penetrate)
G01 Z-0.050000 F300.0(Penetrate)
G01 X6.549024 Y25.486050 Z-0.050000 F100.000000
G01 X4.773670 Y25.486050 Z-0.050000
G01 X4.773670 Y21.109840 Z-0.050000
G01 X3.919066 Y21.109840 Z-0.050000
G01 X3.919066 Y25.486050 Z-0.050000
G01 X2.045816 Y25.486050 Z-0.050000
G01 X2.045816 Y29.983960 Z-0.050000
G01 X3.919066 Y29.983960 Z-0.050000
G01 X3.919066 Y32.984340 Z-0.050000
G01 X2.045816 Y32.984340 Z-0.050000
G01 X2.045816 Y37.487550 Z-0.050000
G01 X6.549024 Y37.487550 Z-0.050000
G01 X6.549024 Y32.984340 Z-0.050000
G01 X4.675774 Y32.984340 Z-0.050000
G01 X4.675774 Y29.983960 Z-0.050000
G01 X6.549024 Y29.983960 Z-0.050000
G00 Z1.000000

(End cutting path id: polygon1053)



(Footer)
M5
G00 X0.0000 Y0.0000
M2
(Using default footer. To add your own footer create file "footer" in the output dir.)
(end)
%