%
(Header)
(Generated by gcodetools from Inkscape.)
(Using default header. To add your own header create file "header" in the output dir.)
M3
(Header end.)
G21 (All units in mm)

(Start cutting path id: path2592)
(Change tool to Cylindrical cutter)

G00 Z1.000000
G00 X-5.000000 Y0.000000

G00 Z4.950000 (Fast pre-penetrate)
G01 Z-0.050000 F300.0(Penetrate)
G01 X-2.645833 Y70.000000 Z-0.050000 F200.000000


G01 X20.000000 Y70.000000 Z-0.050000 F400.000000
G01 X20.000000 Y0.000000 Z-0.050000
G01 X0.000000 Y0.000000 Z-0.050000
G01 X0.000000 Y70.000000 Z-0.050000

G00 Z0.500000
G10 P0 L20 Z0

G01 X20.000000 Y70.000000 Z-0.050000 F400.000000
G01 X20.000000 Y0.000000 Z-0.050000
G01 X0.000000 Y0.000000 Z-0.050000
G01 X0.000000 Y70.000000 Z-0.050000

G00 Z0.500000
G10 P0 L20 Z0

G01 X20.000000 Y70.000000 Z-0.050000 F400.000000
G01 X20.000000 Y0.000000 Z-0.050000
G01 X0.000000 Y0.000000 Z-0.050000
G01 X0.000000 Y70.000000 Z-0.050000

G00 Z0.500000
G10 P0 L20 Z0

G01 X20.000000 Y70.000000 Z-0.050000 F400.000000
G01 X20.000000 Y0.000000 Z-0.050000
G01 X0.000000 Y0.000000 Z-0.050000
G01 X0.000000 Y70.000000 Z-0.050000

G00 Z0.500000
G10 P0 L20 Z0

G01 X20.000000 Y70.000000 Z-0.050000 F400.000000
G01 X20.000000 Y0.000000 Z-0.050000
G01 X0.000000 Y0.000000 Z-0.050000
G01 X0.000000 Y70.000000 Z-0.050000

G00 Z0.500000
G10 P0 L20 Z0

G01 X20.000000 Y70.000000 Z-0.050000 F400.000000
G01 X20.000000 Y0.000000 Z-0.050000
G01 X0.000000 Y0.000000 Z-0.050000
G01 X0.000000 Y70.000000 Z-0.050000

G00 Z0.500000
G10 P0 L20 Z0

G01 X20.000000 Y70.000000 Z-0.050000 F400.000000
G01 X20.000000 Y0.000000 Z-0.050000
G01 X0.000000 Y0.000000 Z-0.050000
G01 X0.000000 Y70.000000 Z-0.050000

G00 Z0.500000
G10 P0 L20 Z0

G01 X20.000000 Y70.000000 Z-0.050000 F400.000000
G01 X20.000000 Y0.000000 Z-0.050000
G01 X0.000000 Y0.000000 Z-0.050000
G01 X0.000000 Y70.000000 Z-0.050000

G00 Z0.500000
G10 P0 L20 Z0

G01 X20.000000 Y70.000000 Z-0.050000 F400.000000
G01 X20.000000 Y0.000000 Z-0.050000
G01 X0.000000 Y0.000000 Z-0.050000
G01 X0.000000 Y70.000000 Z-0.050000

G00 Z0.500000
G10 P0 L20 Z0

G01 X20.000000 Y70.000000 Z-0.050000 F400.000000
G01 X20.000000 Y0.000000 Z-0.050000
G01 X0.000000 Y0.000000 Z-0.050000
G01 X0.000000 Y70.000000 Z-0.050000

G00 Z0.500000
G10 P0 L20 Z0

G01 X20.000000 Y70.000000 Z-0.050000 F400.000000
G01 X20.000000 Y0.000000 Z-0.050000
G01 X0.000000 Y0.000000 Z-0.050000
G01 X0.000000 Y70.000000 Z-0.050000

G00 Z0.500000
G10 P0 L20 Z0

G01 X20.000000 Y70.000000 Z-0.050000 F400.000000
G01 X20.000000 Y0.000000 Z-0.050000
G01 X0.000000 Y0.000000 Z-0.050000
G01 X0.000000 Y70.000000 Z-0.050000

G00 Z0.500000
G10 P0 L20 Z0

(End cutting path id: rect1251)

(Footer)
M5
G00 X0.0000 Y0.0000
M2
(Using default footer. To add your own footer create file "footer" in the output dir.)
(end)
%