%
(Header)
(Generated by gcodetools from Inkscape.)
(Using default header. To add your own header create file "header" in the output dir.)
M3
(Header end.)
G21 (All units in mm)

(Start cutting path id: path3227)
(Change tool to Cylindrical cutter)

G00 Z1.000000
G00 X5.000000 Y42.500000

G00 Z4.950000 (Fast pre-penetrate)
G01 Z-0.050000 F300.0(Penetrate)
G01 X15.000000 Y25.000000 Z-0.050000 F250.000000
G00 Z1.000000

(End cutting path id: path3227)


(Start cutting path id: polygon2662)
(Change tool to Cylindrical cutter)

G00 Z1.000000
G00 X4.837354 Y15.010895

G00 Z4.950000 (Fast pre-penetrate)
G01 Z-0.050000 F300.0(Penetrate)
G01 X4.837354 Y18.606583 Z-0.050000 F250.000000
G01 X6.337542 Y18.606583 Z-0.050000
G01 X6.337542 Y16.511083 Z-0.050000
G01 X10.988917 Y16.511083 Z-0.050000
G01 X10.988917 Y11.219416 Z-0.050000
G01 X5.742229 Y11.219416 Z-0.050000
G01 X5.742229 Y8.750854 Z-0.050000
G01 X15.000000 Y8.750854 Z-0.050000
G01 X15.000000 Y12.499999 Z-0.050000
G01 X12.862167 Y12.521166 Z-0.050000
G01 X12.796021 Y16.357624 Z-0.050000
G01 X15.000000 Y16.378791 Z-0.050000
G01 X15.000000 Y19.379166 Z-0.050000
G01 X13.325188 Y19.379166 Z-0.050000
G01 X13.370167 Y23.191812 Z-0.050000
G01 X19.103687 Y23.191812 Z-0.050000
G01 X19.191000 Y19.246874 Z-0.050000
G01 X16.500188 Y19.289208 Z-0.050000
G01 X16.500188 Y16.378791 Z-0.050000
G01 X18.508375 Y16.357624 Z-0.050000
G01 X18.508375 Y12.566145 Z-0.050000
G01 X16.500188 Y12.542333 Z-0.050000
G01 X16.500188 Y7.250666 Z-0.050000
G01 X4.242042 Y7.250666 Z-0.050000
G01 X4.242042 Y12.719603 Z-0.050000
G01 X9.488729 Y12.719603 Z-0.050000
G01 X9.488729 Y15.010895 Z-0.050000
G01 X4.837354 Y15.010895 Z-0.050000
G00 Z1.000000

(End cutting path id: polygon2662)



(Footer)
M5
G00 X0.0000 Y0.0000
M2
(Using default footer. To add your own footer create file "footer" in the output dir.)
(end)
%