%
(Header)
(Generated by gcodetools from Inkscape.)
(Using default header. To add your own header create file "header" in the output dir.)
M3
(Header end.)
G21 (All units in mm)

(Start cutting path id: path1122)
(Change tool to Cylindrical cutter)

G00 Z1.000000
G00 X14.179172 Y8.649900

G00 Z4.950000 (Fast pre-penetrate)
G01 Z-0.050000 F300.0(Penetrate)
G02 X13.798570 Y6.736483 Z-0.050000 I-5.000000 J0.000000 F50.000000
G02 X12.714706 Y5.114366 Z-0.050000 I-4.619398 J1.913417
G02 X11.092589 Y4.030502 Z-0.050000 I-3.535534 J3.535534
G02 X9.179172 Y3.649900 Z-0.050000 I-1.913417 J4.619398
G02 X7.265754 Y4.030502 Z-0.050000 I-0.000000 J5.000000
G02 X5.643638 Y5.114366 Z-0.050000 I1.913417 J4.619398
G02 X4.559774 Y6.736483 Z-0.050000 I3.535534 J3.535534
G02 X4.179172 Y8.649900 Z-0.050000 I4.619398 J1.913417
G02 X4.559774 Y10.563317 Z-0.050000 I5.000000 J0.000000
G02 X5.643638 Y12.185434 Z-0.050000 I4.619398 J-1.913417
G02 X7.265754 Y13.269298 Z-0.050000 I3.535534 J-3.535534
G02 X9.179172 Y13.649900 Z-0.050000 I1.913417 J-4.619398
G02 X11.092589 Y13.269298 Z-0.050000 I0.000000 J-5.000000
G02 X12.714706 Y12.185434 Z-0.050000 I-1.913417 J-4.619398
G02 X13.798570 Y10.563317 Z-0.050000 I-3.535534 J-3.535534
G02 X14.179172 Y8.649900 Z-0.050000 I-4.619398 J-1.913417
G01 X14.179172 Y8.649900 Z-0.050000
G00 Z1.000000

(End cutting path id: path1122)



(Footer)
M5
G00 X0.0000 Y0.0000
M2
(Using default footer. To add your own footer create file "footer" in the output dir.)
(end)
%