%
(Header)
(Generated by gcodetools from Inkscape.)
(Using default header. To add your own header create file "header" in the output dir.)
M3
(Header end.)
G21 (All units in mm)

(Start cutting path id: rect3691)
(Change tool to Cylindrical cutter)

G00 Z1.000000
G00 X0.000000 Y69.585433

G00 Z4.100000 (Fast pre-penetrate)
G01 Z-0.900000 F100.0(Penetrate)
G01 X70.692787 Y69.585433 Z-0.900000 F100.000000
G01 X70.692787 Y44.729368 Z-0.900000
G01 X0.000000 Y44.729368 Z-0.900000
G01 X0.000000 Y69.585433 Z-0.900000
G00 Z1.000000

(End cutting path id: rect3691)



(Footer)
M5
G00 X0.0000 Y0.0000
M2
(Using default footer. To add your own footer create file "footer" in the output dir.)
(end)
%