%
(Header)
(Generated by gcodetools from Inkscape.)
(Using default header. To add your own header create file "header" in the output dir.)
M3
(Header end.)
G21 (All units in mm)

(Start cutting path id: path4801)
(Change tool to Cylindrical cutter)

G00 Z10.000000
G00 X3.135134 Y16.629100

G00 Z4.950000 (Fast pre-penetrate)
G01 Z-0.050000 F300.0(Penetrate)
G01 X3.135134 Y15.342500 Z-0.050000 F50.000000
G01 X18.486055 Y15.342500 Z-0.050000
G01 X18.486055 Y11.789410 Z-0.050000
G01 X3.135134 Y11.789410 Z-0.050000
G01 X3.135134 Y10.478370 Z-0.050000
G01 X18.486055 Y10.478370 Z-0.050000
G01 X18.486055 Y6.903570 Z-0.050000
G01 X3.135134 Y6.903570 Z-0.050000
G01 X3.135134 Y5.524690 Z-0.050000
G01 X18.486055 Y5.524690 Z-0.050000
G01 X18.486055 Y1.949880 Z-0.050000
G01 X1.825000 Y1.949880 Z-0.050000
G01 X1.825000 Y3.103470 Z-0.050000
G01 X17.283445 Y3.103470 Z-0.050000
G01 X17.283445 Y4.371070 Z-0.050000
G01 X1.932527 Y4.371070 Z-0.050000
G01 X1.932527 Y8.059880 Z-0.050000
G01 X17.283445 Y8.059880 Z-0.050000
G01 X17.283445 Y9.327470 Z-0.050000
G01 X1.932527 Y9.327470 Z-0.050000
G01 X1.932527 Y12.945730 Z-0.050000
G01 X17.283445 Y12.945730 Z-0.050000
G01 X17.283445 Y14.188890 Z-0.050000
G01 X1.932527 Y14.188890 Z-0.050000
G01 X1.932527 Y17.785410 Z-0.050000
G01 X17.283445 Y17.785410 Z-0.050000
G01 X17.283445 Y21.514930 Z-0.050000
G01 X13.856727 Y21.514930 Z-0.050000
G02 X12.594503 Y19.991821 Z-0.050000 I-2.693708 J0.947751
G02 X9.838604 Y19.251170 Z-0.050000 I-2.755899 J4.756907
G02 X7.084575 Y19.992129 Z-0.050000 I0.000000 J5.488628
G02 X5.823313 Y21.514930 Z-0.050000 I1.433289 J2.470845
G01 X1.907059 Y21.514930 Z-0.050000
G01 X1.932524 Y30.000000 Z-0.050000
G01 X5.523366 Y30.000000 Z-0.050000
G02 X6.939856 Y31.822118 Z-0.050000 I3.066354 J-0.922103
G02 X10.155520 Y32.714350 Z-0.050000 I3.215664 J-5.348620
G02 X13.369917 Y31.823519 Z-0.050000 I-0.000000 J-6.244689
G02 X14.787680 Y30.000000 Z-0.050000 I-1.647232 J-2.743609
G01 X17.883332 Y30.000000 Z-0.050000
G01 X17.883332 Y28.843680 Z-0.050000
G01 X14.866912 Y28.843680 Z-0.050000
G02 X13.547370 Y26.815105 Z-0.050000 I-2.974559 J0.491430
G02 X10.155522 Y25.800890 Z-0.050000 I-3.391848 J5.164584
G02 X6.762004 Y26.814925 Z-0.050000 I0.000000 J6.185305
G02 X5.444136 Y28.843680 Z-0.050000 I1.649848 J2.514149
G01 X3.132301 Y28.843680 Z-0.050000
G01 X3.112495 Y22.671240 Z-0.050000
G01 X5.732763 Y22.671240 Z-0.050000
G02 X6.905619 Y24.415765 Z-0.050000 I2.634885 J-0.504930
G02 X9.838601 Y25.285160 Z-0.050000 I2.932982 J-4.512640
G02 X12.781974 Y24.416938 Z-0.050000 I-0.000000 J-5.423298
G02 X13.947273 Y22.671240 Z-0.050000 I-1.433772 J-2.218863
G01 X18.474732 Y22.671240 Z-0.050000
G01 X18.474732 Y16.629100 Z-0.050000
G01 X3.135134 Y16.629100 Z-0.050000
G00 Z10.000000

(End cutting path id: path4801)



(Footer)
M5
G00 X0.0000 Y0.0000
M2
(Using default footer. To add your own footer create file "footer" in the output dir.)
(end)
%