%
(Header)
(Generated by gcodetools from Inkscape.)
(Using default header. To add your own header create file "header" in the output dir.)
M3
(Header end.)
G21 (All units in mm)

(Start cutting path id: path2650-8)
(Change tool to Cylindrical cutter)

G00 Z5.000000
G00 X7.000469 Y13.231570

G00 Z4.950000 (Fast pre-penetrate)
G01 Z-0.050000 F300.0(Penetrate)
G02 X6.642677 Y11.807411 Z-0.050000 I-3.013272 J0.000001 F50.000000
G02 X6.044792 Y11.449620 Z-0.050000 I-0.597886 J0.320652
G02 X5.446906 Y11.807411 Z-0.050000 I-0.000000 J0.678443
G02 X5.089115 Y13.231570 Z-0.050000 I2.655481 J1.424160
G02 X5.446906 Y14.655729 Z-0.050000 I3.013272 J-0.000001
G02 X6.044792 Y15.013520 Z-0.050000 I0.597886 J-0.320652
G02 X6.642677 Y14.655729 Z-0.050000 I0.000000 J-0.678443
G02 X7.000469 Y13.231570 Z-0.050000 I-2.655481 J-1.424160
G01 X7.000469 Y13.231570 Z-0.050000
G00 Z5.000000

(End cutting path id: path2650-8)


(Start cutting path id: path2654)
(Change tool to Cylindrical cutter)

G00 Z5.000000
G00 X5.089115 Y15.839230

G00 Z4.950000 (Fast pre-penetrate)
G01 Z-0.050000 F300.0(Penetrate)
G02 X4.742354 Y15.295013 Z-0.050000 I-0.600449 J0.000008 F50.000000
G02 X3.177761 Y14.948260 Z-0.050000 I-1.564594 J3.356446
G02 X1.613167 Y15.295013 Z-0.050000 I-0.000000 J3.703199
G02 X1.266406 Y15.839230 Z-0.050000 I0.253688 J0.544225
G02 X1.379333 Y16.136332 Z-0.050000 I0.447278 J0.000005
G02 X1.826226 Y16.469248 Z-0.050000 I1.027815 J-0.913293
G02 X2.402485 Y16.656048 Z-0.050000 I1.045308 J-2.242424
G02 X3.177761 Y16.730210 Z-0.050000 I0.775275 J-4.015184
G02 X3.953036 Y16.656048 Z-0.050000 I0.000000 J-4.089346
G02 X4.529295 Y16.469248 Z-0.050000 I-0.469049 J-2.429223
G02 X4.976188 Y16.136332 Z-0.050000 I-0.580922 J-1.246209
G02 X5.089115 Y15.839230 Z-0.050000 I-0.334351 J-0.297097
G01 X5.089115 Y15.839230 Z-0.050000
G00 Z5.000000

(End cutting path id: path2654)


(Start cutting path id: path2652)
(Change tool to Cylindrical cutter)

G00 Z5.000000
G00 X10.823177 Y15.839230

G00 Z4.950000 (Fast pre-penetrate)
G01 Z-0.050000 F300.0(Penetrate)
G02 X10.476417 Y15.295013 Z-0.050000 I-0.600449 J0.000008 F50.000000
G02 X8.911822 Y14.948260 Z-0.050000 I-1.564594 J3.356447
G02 X7.347228 Y15.295013 Z-0.050000 I-0.000000 J3.703199
G02 X7.000468 Y15.839230 Z-0.050000 I0.253688 J0.544225
G02 X7.113394 Y16.136332 Z-0.050000 I0.447278 J0.000005
G02 X7.560287 Y16.469248 Z-0.050000 I1.027815 J-0.913293
G02 X8.136547 Y16.656048 Z-0.050000 I1.045308 J-2.242424
G02 X8.911822 Y16.730210 Z-0.050000 I0.775275 J-4.015184
G02 X9.687098 Y16.656048 Z-0.050000 I0.000000 J-4.089346
G02 X10.263357 Y16.469248 Z-0.050000 I-0.469049 J-2.429224
G02 X10.710251 Y16.136332 Z-0.050000 I-0.580922 J-1.246209
G02 X10.823177 Y15.839230 Z-0.050000 I-0.334351 J-0.297097
G01 X10.823177 Y15.839230 Z-0.050000
G00 Z5.000000

(End cutting path id: path2652)


(Start cutting path id: path2650)
(Change tool to Cylindrical cutter)

G00 Z5.000000
G00 X7.000469 Y18.512150

G00 Z4.950000 (Fast pre-penetrate)
G01 Z-0.050000 F300.0(Penetrate)
G02 X6.921646 Y17.793842 Z-0.050000 I-3.312304 J-0.000009 F50.000000
G02 X6.720559 Y17.252115 Z-0.050000 I-2.067631 J0.459312
G02 X6.373523 Y16.842357 Z-0.050000 I-1.132680 J0.607464
G02 X6.044792 Y16.730190 Z-0.050000 I-0.328732 J0.425629
G02 X5.716060 Y16.842357 Z-0.050000 I-0.000000 J0.537796
G02 X5.369024 Y17.252115 Z-0.050000 I0.785644 J1.017221
G02 X5.167937 Y17.793842 Z-0.050000 I1.866543 J1.001040
G02 X5.089115 Y18.512150 Z-0.050000 I3.233481 J0.718299
G02 X5.446906 Y19.936309 Z-0.050000 I3.013272 J-0.000001
G02 X6.044792 Y20.294100 Z-0.050000 I0.597886 J-0.320652
G02 X6.642677 Y19.936309 Z-0.050000 I0.000000 J-0.678443
G02 X7.000469 Y18.512150 Z-0.050000 I-2.655481 J-1.424160
G01 X7.000469 Y18.512150 Z-0.050000
G00 Z5.000000

(End cutting path id: path2650)


(Start cutting path id: path2648)
(Change tool to Cylindrical cutter)

G00 Z5.000000
G00 X7.000469 Y15.839230

G00 Z4.950000 (Fast pre-penetrate)
G01 Z-0.050000 F300.0(Penetrate)
G02 X6.730431 Y15.218293 Z-0.050000 I-0.848937 J0.000006 F50.000000
G02 X6.044792 Y14.948260 Z-0.050000 I-0.685640 J0.735434
G02 X5.359152 Y15.218293 Z-0.050000 I-0.000000 J1.005468
G02 X5.089115 Y15.839230 Z-0.050000 I0.578900 J0.620942
G02 X5.160794 Y16.177113 Z-0.050000 I0.832173 J0.000004
G02 X5.369024 Y16.469248 Z-0.050000 I0.820412 J-0.364500
G02 X5.676006 Y16.661476 Z-0.050000 I0.650775 J-0.698029
G02 X6.044792 Y16.730210 Z-0.050000 I0.368785 J-0.954978
G02 X6.413577 Y16.661476 Z-0.050000 I0.000000 J-1.023711
G02 X6.720559 Y16.469248 Z-0.050000 I-0.343792 J-0.890258
G02 X6.928789 Y16.177113 Z-0.050000 I-0.612182 J-0.656635
G02 X7.000469 Y15.839230 Z-0.050000 I-0.760493 J-0.337878
G01 X7.000469 Y15.839230 Z-0.050000
G00 Z5.000000

(End cutting path id: path2648)



(Footer)
M5
G00 X0.0000 Y0.0000
M2
(Using default footer. To add your own footer create file "footer" in the output dir.)
(end)
%