%
(Header)
(Generated by gcodetools from Inkscape.)
(Using default header. To add your own header create file "header" in the output dir.)
M3
(Header end.)
G21 (All units in mm)

(Start cutting path id: path4801)
(Change tool to Cylindrical cutter)

G00 Z10.000000
G00 X1.910022 Y10.350610

G00 Z4.950000 (Fast pre-penetrate)
G01 Z-0.050000 F300.0(Penetrate)
G01 X1.910022 Y9.064010 Z-0.050000 F100.000000
G01 X17.260944 Y9.064010 Z-0.050000
G01 X17.260944 Y5.510920 Z-0.050000
G01 X1.910022 Y5.510920 Z-0.050000
G01 X1.910022 Y4.199880 Z-0.050000
G01 X17.260944 Y4.199880 Z-0.050000
G01 X17.260944 Y0.625080 Z-0.050000
G01 X1.910022 Y0.625080 Z-0.050000
G02 X1.624803 Y0.281583 Z-0.050000 I-0.273101 J-0.063396
G02 X0.707415 Y1.781390 Z-0.050000 I0.045792 J1.058483
G01 X16.058334 Y1.781390 Z-0.050000
G01 X16.058334 Y3.048980 Z-0.050000
G01 X0.707415 Y3.048980 Z-0.050000
G01 X0.707415 Y6.667240 Z-0.050000
G01 X16.058334 Y6.667240 Z-0.050000
G01 X16.058334 Y7.910400 Z-0.050000
G01 X0.707415 Y7.910400 Z-0.050000
G01 X0.707415 Y11.506920 Z-0.050000
G01 X16.058334 Y11.506920 Z-0.050000
G01 X16.058334 Y15.236440 Z-0.050000
G01 X12.631616 Y15.236440 Z-0.050000
G02 X11.369393 Y13.713331 Z-0.050000 I-2.693708 J0.947750
G02 X8.613492 Y12.972680 Z-0.050000 I-2.755900 J4.756909
G02 X5.859464 Y13.713639 Z-0.050000 I0.000000 J5.488626
G02 X4.598201 Y15.236440 Z-0.050000 I1.433290 J2.470846
G01 X0.681948 Y15.236440 Z-0.050000
G02 X0.151662 Y17.191238 Z-0.050000 I1.843293 J1.549364
G02 X0.738702 Y18.518019 Z-0.050000 I2.920221 J-0.498807
G02 X1.223753 Y18.514547 Z-0.050000 I0.241187 J-0.188716
G02 X1.887375 Y16.392750 Z-0.050000 I-2.606391 J-1.979862
G01 X4.507643 Y16.392750 Z-0.050000
G02 X5.680500 Y18.137275 Z-0.050000 I2.634886 J-0.504931
G02 X8.613481 Y19.006670 Z-0.050000 I2.932982 J-4.512638
G02 X11.556855 Y18.138448 Z-0.050000 I-0.000000 J-5.423301
G02 X12.722154 Y16.392750 Z-0.050000 I-1.433771 J-2.218862
G01 X17.249613 Y16.392750 Z-0.050000
G01 X17.249613 Y10.350610 Z-0.050000
G01 X1.910022 Y10.350610 Z-0.050000
G00 Z10.000000

(End cutting path id: path4801)



(Footer)
M5
G00 X0.0000 Y0.0000
M2
(Using default footer. To add your own footer create file "footer" in the output dir.)
(end)
%