%
(Header)
(Generated by gcodetools from Inkscape.)
(Using default header. To add your own header create file "header" in the output dir.)
M3
(Header end.)
G21 (All units in mm)

(Start cutting path id: polygon2255)
(Change tool to Cylindrical cutter)

G00 Z10.000000
G00 X16.575521 Y63.770326

G00 Z4.950000 (Fast pre-penetrate)
G01 Z-0.050000 F300.0(Penetrate)
G01 X16.575521 Y67.506243 Z-0.050000 F50.000000
G01 X2.848937 Y67.506243 Z-0.050000
G01 X2.848937 Y68.630722 Z-0.050000
G01 X17.700000 Y68.630722 Z-0.050000
G01 X17.700000 Y62.645847 Z-0.050000
G01 X3.412500 Y62.645847 Z-0.050000
G01 X3.412500 Y59.105722 Z-0.050000
G01 X17.700000 Y59.105722 Z-0.050000
G01 X17.700000 Y53.284889 Z-0.050000
G01 X3.412500 Y53.284889 Z-0.050000
G01 X3.412500 Y47.199472 Z-0.050000
G01 X17.700000 Y47.199472 Z-0.050000
G01 X17.700000 Y41.214597 Z-0.050000
G01 X3.412500 Y41.214597 Z-0.050000
G01 X3.412500 Y37.674472 Z-0.050000
G01 X17.700000 Y37.674472 Z-0.050000
G01 X17.700000 Y31.853639 Z-0.050000
G01 X2.848937 Y31.853639 Z-0.050000
G01 X2.848937 Y32.978118 Z-0.050000
G01 X16.575521 Y32.978118 Z-0.050000
G01 X16.575521 Y36.549993 Z-0.050000
G01 X2.288021 Y36.549993 Z-0.050000
G01 X2.288021 Y42.339076 Z-0.050000
G01 X16.575521 Y42.339076 Z-0.050000
G01 X16.575521 Y46.074993 Z-0.050000
G01 X2.288021 Y46.074993 Z-0.050000
G01 X2.288021 Y54.409368 Z-0.050000
G01 X16.575521 Y54.409368 Z-0.050000
G01 X16.575521 Y57.981243 Z-0.050000
G01 X2.288021 Y57.981243 Z-0.050000
G01 X2.288021 Y63.770326 Z-0.050000
G01 X16.575521 Y63.770326 Z-0.050000
G00 Z10.000000

(End cutting path id: polygon2255)



(Footer)
M5
G00 X0.0000 Y0.0000
M2
(Using default footer. To add your own footer create file "footer" in the output dir.)
(end)
%