%
(Header)
(Generated by gcodetools from Inkscape.)
(Using default header. To add your own header create file "header" in the output dir.)
M3
(Header end.)
G21 (All units in mm)

(Start cutting path id: path4801)
(Change tool to Cylindrical cutter)

G00 Z10.000000
G00 X1.910022 Y15.113140

G00 Z4.950000 (Fast pre-penetrate)
G01 Z-0.050000 F300.0(Penetrate)
G01 X1.910022 Y13.826540 Z-0.050000 F100.000000
G01 X17.260944 Y13.826540 Z-0.050000
G01 X17.260944 Y10.273450 Z-0.050000
G01 X1.910022 Y10.273450 Z-0.050000
G01 X1.910022 Y8.962410 Z-0.050000
G01 X17.260944 Y8.962410 Z-0.050000
G01 X17.260944 Y5.387610 Z-0.050000
G01 X1.910022 Y5.387610 Z-0.050000
G01 X1.910022 Y4.008730 Z-0.050000
G01 X17.260944 Y4.008730 Z-0.050000
G01 X17.260944 Y0.433920 Z-0.050000
G01 X0.599888 Y0.433920 Z-0.050000
G01 X0.599888 Y1.587510 Z-0.050000
G01 X16.058334 Y1.587510 Z-0.050000
G01 X16.058334 Y2.855110 Z-0.050000
G01 X0.707415 Y2.855110 Z-0.050000
G01 X0.707415 Y6.543920 Z-0.050000
G01 X16.058334 Y6.543920 Z-0.050000
G01 X16.058334 Y7.811510 Z-0.050000
G01 X0.707415 Y7.811510 Z-0.050000
G01 X0.707415 Y11.429770 Z-0.050000
G01 X16.058334 Y11.429770 Z-0.050000
G01 X16.058334 Y12.672930 Z-0.050000
G01 X0.707415 Y12.672930 Z-0.050000
G01 X0.707415 Y16.269450 Z-0.050000
G01 X16.058334 Y16.269450 Z-0.050000
G01 X16.058334 Y19.998970 Z-0.050000
G01 X12.631616 Y19.998970 Z-0.050000
G02 X11.369393 Y18.475861 Z-0.050000 I-2.693708 J0.947750
G02 X8.613492 Y17.735210 Z-0.050000 I-2.755900 J4.756909
G02 X5.859464 Y18.476169 Z-0.050000 I0.000000 J5.488626
G02 X4.598201 Y19.998970 Z-0.050000 I1.433290 J2.470846
G01 X0.681948 Y19.998970 Z-0.050000
G01 X0.707408 Y28.484040 Z-0.050000
G01 X4.298250 Y28.484040 Z-0.050000
G02 X5.714740 Y30.306158 Z-0.050000 I3.066353 J-0.922102
G02 X8.930404 Y31.198390 Z-0.050000 I3.215664 J-5.348620
G02 X12.144802 Y30.307559 Z-0.050000 I0.000000 J-6.244690
G02 X13.562565 Y28.484040 Z-0.050000 I-1.647232 J-2.743608
G01 X16.658217 Y28.484040 Z-0.050000
G01 X16.658217 Y27.327720 Z-0.050000
G01 X13.641797 Y27.327720 Z-0.050000
G02 X12.322255 Y25.299145 Z-0.050000 I-2.974559 J0.491430
G02 X8.930406 Y24.284930 Z-0.050000 I-3.391848 J5.164585
G02 X5.536888 Y25.298965 Z-0.050000 I0.000000 J6.185305
G02 X4.219020 Y27.327720 Z-0.050000 I1.649848 J2.514149
G01 X1.907185 Y27.327720 Z-0.050000
G01 X1.887375 Y21.155280 Z-0.050000
G01 X4.507643 Y21.155280 Z-0.050000
G02 X5.680500 Y22.899805 Z-0.050000 I2.634886 J-0.504931
G02 X8.613481 Y23.769200 Z-0.050000 I2.932982 J-4.512638
G02 X11.556855 Y22.900978 Z-0.050000 I-0.000000 J-5.423301
G02 X12.722154 Y21.155280 Z-0.050000 I-1.433771 J-2.218862
G01 X17.249613 Y21.155280 Z-0.050000
G01 X17.249613 Y15.113140 Z-0.050000
G01 X1.910022 Y15.113140 Z-0.050000
G00 Z10.000000

(End cutting path id: path4801)



(Footer)
M5
G00 X0.0000 Y0.0000
M2
(Using default footer. To add your own footer create file "footer" in the output dir.)
(end)
%