%
(Header)
(Generated by gcodetools from Inkscape.)
(Using default header. To add your own header create file "header" in the output dir.)
M3
(Header end.)
G21 (All units in mm)

(Start cutting path id: rect1251)
(Change tool to Cylindrical cutter)

G00 Z1.000000
G00 X0.000000 Y70.000000

G00 Z4.950000 (Fast pre-penetrate)
G01 Z-0.050000 F300.0(Penetrate)
G01 X20.000000 Y70.000000 Z-0.050000 F200.000000
G01 X20.000000 Y0.000000 Z-0.050000
G01 X0.000000 Y0.000000 Z-0.050000
G01 X0.000000 Y70.000000 Z-0.050000
G00 Z1.000000

(End cutting path id: rect1251)


(Start cutting path id: path6937)
(Change tool to Cylindrical cutter)

G00 Z1.000000
G00 X-66.672086 Y22.754960

G00 Z4.950000 (Fast pre-penetrate)
G01 Z-0.050000 F300.0(Penetrate)
G01 X-66.727886 Y6.006920 Z-0.050000 F200.000000
G01 X-74.910703 Y11.802140 Z-0.050000
G01 X-74.983073 Y-9.920030 Z-0.050000
G01 X-74.995153 Y-13.544810 Z-0.050000
G01 X-71.709477 Y-20.038090 Z-0.050000
G02 X-71.425455 Y-19.955676 Z-0.050000 I0.486981 J-1.147655
G02 X-71.153503 Y-19.934100 Z-0.050000 I0.263560 J-1.597349
G02 X-70.013840 Y-20.410623 Z-0.050000 I-0.005382 J-1.613957
G02 X-69.544932 Y-21.553430 Z-0.050000 I-1.145036 J-1.137425
G02 X-70.021455 Y-22.693094 Z-0.050000 I-1.613958 J0.005382
G02 X-71.164258 Y-23.162000 Z-0.050000 I-1.137421 J1.145032
G02 X-72.303913 Y-22.685486 Z-0.050000 I0.005382 J1.613957
G02 X-72.772829 Y-21.542670 Z-0.050000 I1.145028 J1.137434
G02 X-72.637310 Y-20.887457 Z-0.050000 I1.678760 J-0.005599
G02 X-72.292704 Y-20.380110 Z-0.050000 I1.476715 J-0.632325
G01 X-75.000000 Y-15.000000 Z-0.050000
G01 X-75.016480 Y-19.947690 Z-0.050000
G02 X-74.155360 Y-20.511701 Z-0.050000 I-0.439207 J-1.609946
G02 X-73.804605 Y-21.512780 Z-0.050000 I-1.237895 J-0.995718
G02 X-74.281123 Y-22.652439 Z-0.050000 I-1.613958 J0.005382
G02 X-75.423931 Y-23.121350 Z-0.050000 I-1.137426 J1.145027
G02 X-76.563592 Y-22.644831 Z-0.050000 I0.005382 J1.613961
G02 X-77.032504 Y-21.502020 Z-0.050000 I1.145030 J1.137429
G02 X-76.649664 Y-20.458935 Z-0.050000 I1.626936 J-0.005329
G02 X-75.704305 Y-19.918930 Z-0.050000 I1.208781 J-1.018654
G01 X-75.687905 Y-14.997710 Z-0.050000
G01 X-78.430728 Y-20.280300 Z-0.050000
G02 X-77.994975 Y-20.813741 Z-0.050000 I-0.994450 J-1.257035
G02 X-77.826334 Y-21.525860 Z-0.050000 I-1.397240 J-0.706917
G02 X-78.302852 Y-22.665526 Z-0.050000 I-1.613976 J0.005382
G02 X-79.445660 Y-23.134440 Z-0.050000 I-1.137426 J1.145016
G02 X-80.585317 Y-22.657922 Z-0.050000 I0.005382 J1.613952
G02 X-81.054232 Y-21.515100 Z-0.050000 I1.145045 J1.137440
G02 X-80.577713 Y-20.375441 Z-0.050000 I1.613958 J-0.005382
G02 X-79.434905 Y-19.906530 Z-0.050000 I1.137426 J-1.145029
G02 X-79.237495 Y-19.923508 Z-0.050000 I-0.003623 J-1.198294
G02 X-79.038209 Y-19.960730 Z-0.050000 I-1.057234 J-6.212524
G01 X-75.735973 Y-13.542330 Z-0.050000
G01 X-75.709513 Y-13.542420 Z-0.050000
G01 X-75.697433 Y-9.917630 Z-0.050000
G01 X-75.625153 Y11.778080 Z-0.050000
G02 X-76.554878 Y12.312930 Z-0.050000 I0.286322 J1.573203
G02 X-76.942774 Y13.369970 Z-0.050000 I1.231624 J1.051654
G02 X-76.466257 Y14.509635 Z-0.050000 I1.613974 J-0.005382
G02 X-75.323446 Y14.978550 Z-0.050000 I1.137428 J-1.145019
G02 X-74.183787 Y14.502031 Z-0.050000 I-0.005382 J-1.613957
G02 X-73.714875 Y13.359220 Z-0.050000 I-1.145032 J-1.137429
G02 X-74.072317 Y12.360511 Z-0.050000 I-1.588923 J0.005362
G02 X-74.937152 Y11.802240 Z-0.050000 I-1.293286 J1.054464
G00 Z1.000000

(End cutting path id: path6937)


(Start cutting path id: path1023)
(Change tool to Cylindrical cutter)

G00 Z1.000000
G00 X-40.000000 Y35.000000

G00 Z4.950000 (Fast pre-penetrate)
G01 Z-0.050000 F300.0(Penetrate)
G01 X-40.000000 Y56.908810 Z-0.050000 F200.000000
G01 X-37.883382 Y56.908810 Z-0.050000
G01 X-31.533527 Y56.908810 Z-0.050000
G01 X-31.533527 Y32.565690 Z-0.050000
G01 X-34.708454 Y32.565690 Z-0.050000
G01 X-34.708454 Y53.257350 Z-0.050000
G01 X-36.825072 Y53.257350 Z-0.050000
G01 X-36.825072 Y30.131370 Z-0.050000
G01 X-35.766763 Y30.131370 Z-0.050000
G01 X-35.766763 Y25.262750 Z-0.050000
G01 X-41.058309 Y25.262750 Z-0.050000
G01 X-41.058309 Y30.131370 Z-0.050000
G01 X-40.000000 Y30.131370 Z-0.050000
G01 X-37.883382 Y30.131370 Z-0.050000
G01 X-37.883382 Y54.474500 Z-0.050000
G01 X-33.650145 Y54.474500 Z-0.050000
G01 X-33.650145 Y33.782850 Z-0.050000
G01 X-32.591835 Y33.782850 Z-0.050000
G01 X-32.591835 Y55.691650 Z-0.050000
G01 X-37.883382 Y55.691650 Z-0.050000
G01 X-38.941690 Y55.691650 Z-0.050000
G01 X-38.941690 Y33.782850 Z-0.050000
G01 X-42.116618 Y33.782850 Z-0.050000
G01 X-42.116618 Y60.560280 Z-0.050000
G01 X-44.233236 Y60.560280 Z-0.050000
G01 X-44.233236 Y64.211750 Z-0.050000
G01 X-40.000000 Y64.211750 Z-0.050000
G01 X-40.000000 Y60.560280 Z-0.050000
G01 X-41.058309 Y60.560280 Z-0.050000
G01 X-41.058309 Y35.000000 Z-0.050000
G01 X-40.000000 Y35.000000 Z-0.050000
G00 Z1.000000

(End cutting path id: path1023)


(Start cutting path id: rect928-1-1-7)
(Change tool to Cylindrical cutter)

G00 Z1.000000
G00 X99.999995 Y20.000000

G00 Z4.950000 (Fast pre-penetrate)
G01 Z-0.050000 F300.0(Penetrate)
G01 X99.999995 Y9.999998 Z-0.050000 F200.000000
G01 X0.000000 Y9.999998 Z-0.050000
G01 X0.000000 Y20.000000 Z-0.050000
G01 X99.999995 Y20.000000 Z-0.050000
G00 Z1.000000

(End cutting path id: rect928-1-1-7)


(Start cutting path id: rect928-1-1)
(Change tool to Cylindrical cutter)

G00 Z1.000000
G00 X99.999995 Y39.999999

G00 Z4.950000 (Fast pre-penetrate)
G01 Z-0.050000 F300.0(Penetrate)
G01 X99.999995 Y30.000001 Z-0.050000 F200.000000
G01 X0.000000 Y30.000001 Z-0.050000
G01 X0.000000 Y39.999999 Z-0.050000
G01 X99.999995 Y39.999999 Z-0.050000
G00 Z1.000000

(End cutting path id: rect928-1-1)


(Start cutting path id: rect928-1)
(Change tool to Cylindrical cutter)

G00 Z1.000000
G00 X99.999995 Y60.000000

G00 Z4.950000 (Fast pre-penetrate)
G01 Z-0.050000 F300.0(Penetrate)
G01 X99.999995 Y50.000000 Z-0.050000 F200.000000
G01 X0.000000 Y50.000000 Z-0.050000
G01 X0.000000 Y60.000000 Z-0.050000
G01 X99.999995 Y60.000000 Z-0.050000
G00 Z1.000000

(End cutting path id: rect928-1)


(Start cutting path id: rect928-3-8-2-1)
(Change tool to Cylindrical cutter)

G00 Z1.000000
G00 X90.000001 Y70.000000

G00 Z4.950000 (Fast pre-penetrate)
G01 Z-0.050000 F300.0(Penetrate)
G01 X99.999995 Y70.000000 Z-0.050000 F200.000000
G01 X99.999995 Y0.000000 Z-0.050000
G01 X90.000001 Y0.000000 Z-0.050000
G01 X90.000001 Y70.000000 Z-0.050000
G00 Z1.000000

(End cutting path id: rect928-3-8-2-1)


(Start cutting path id: rect928-3-8-2)
(Change tool to Cylindrical cutter)

G00 Z1.000000
G00 X70.000001 Y70.000000

G00 Z4.950000 (Fast pre-penetrate)
G01 Z-0.050000 F300.0(Penetrate)
G01 X80.000000 Y70.000000 Z-0.050000 F200.000000
G01 X80.000000 Y0.000000 Z-0.050000
G01 X70.000001 Y0.000000 Z-0.050000
G01 X70.000001 Y70.000000 Z-0.050000
G00 Z1.000000

(End cutting path id: rect928-3-8-2)


(Start cutting path id: rect928-3-8)
(Change tool to Cylindrical cutter)

G00 Z1.000000
G00 X49.999999 Y70.000000

G00 Z4.950000 (Fast pre-penetrate)
G01 Z-0.050000 F300.0(Penetrate)
G01 X60.000000 Y70.000000 Z-0.050000 F200.000000
G01 X60.000000 Y0.000000 Z-0.050000
G01 X49.999999 Y0.000000 Z-0.050000
G01 X49.999999 Y70.000000 Z-0.050000
G00 Z1.000000

(End cutting path id: rect928-3-8)


(Start cutting path id: rect928-3)
(Change tool to Cylindrical cutter)

G00 Z1.000000
G00 X29.999999 Y70.000000

G00 Z4.950000 (Fast pre-penetrate)
G01 Z-0.050000 F300.0(Penetrate)
G01 X40.000000 Y70.000000 Z-0.050000 F200.000000
G01 X40.000000 Y0.000000 Z-0.050000
G01 X29.999999 Y0.000000 Z-0.050000
G01 X29.999999 Y70.000000 Z-0.050000
G00 Z1.000000

(End cutting path id: rect928-3)


(Start cutting path id: rect928)
(Change tool to Cylindrical cutter)

G00 Z1.000000
G00 X10.000000 Y70.000000

G00 Z4.950000 (Fast pre-penetrate)
G01 Z-0.050000 F300.0(Penetrate)
G01 X20.000000 Y70.000000 Z-0.050000 F200.000000
G01 X20.000000 Y0.000000 Z-0.050000
G01 X10.000000 Y0.000000 Z-0.050000
G01 X10.000000 Y70.000000 Z-0.050000
G00 Z1.000000

(End cutting path id: rect928)



(Footer)
M5
G00 X0.0000 Y0.0000
M2
(Using default footer. To add your own footer create file "footer" in the output dir.)
(end)
%