%
(Header)
(Generated by gcodetools from Inkscape.)
(Using default header. To add your own header create file "header" in the output dir.)
M3
(Header end.)
G21 (All units in mm)

(Start cutting path id: polygon2662-5-5)
(Change tool to Cylindrical cutter)

G00 Z1.000000
G00 X2.692730 Y36.500210

G00 Z4.950000 (Fast pre-penetrate)
G01 Z-0.050000 F300.0(Penetrate)
G01 X2.692730 Y40.236010 Z-0.050000 F150.000000
G01 X3.986912 Y40.236010 Z-0.050000
G01 X3.986912 Y38.058850 Z-0.050000
G01 X7.999556 Y38.058850 Z-0.050000
G01 X7.999556 Y32.560990 Z-0.050000
G01 X3.473348 Y32.560990 Z-0.050000
G01 X3.473348 Y29.996230 Z-0.050000
G01 X11.459835 Y29.996230 Z-0.050000
G01 X11.459835 Y33.891460 Z-0.050000
G01 X9.615568 Y33.913560 Z-0.050000
G01 X9.558513 Y37.899520 Z-0.050000
G01 X11.459842 Y37.921620 Z-0.050000
G01 X11.459842 Y41.038930 Z-0.050000
G01 X10.015010 Y41.038930 Z-0.050000
G01 X10.053812 Y45.000000 Z-0.050000
G01 X15.000000 Y45.000000 Z-0.050000
G01 X15.075340 Y40.901340 Z-0.050000
G01 X12.754033 Y40.945340 Z-0.050000
G01 X12.754033 Y37.921510 Z-0.050000
G01 X14.486453 Y37.899410 Z-0.050000
G01 X14.486453 Y33.960190 Z-0.050000
G01 X12.754033 Y33.935390 Z-0.050000
G01 X12.754033 Y28.437560 Z-0.050000
G01 X2.179166 Y28.437560 Z-0.050000
G01 X2.179166 Y34.119590 Z-0.050000
G01 X6.705375 Y34.119590 Z-0.050000
G01 X6.705375 Y36.500180 Z-0.050000
G01 X2.692730 Y36.500210 Z-0.050000
G00 Z1.000000

(End cutting path id: polygon2662-5-5)


(Start cutting path id: polygon2662-5)
(Change tool to Cylindrical cutter)

G00 Z1.000000
G00 X8.359871 Y21.582840

G00 Z4.950000 (Fast pre-penetrate)
G01 Z-0.050000 F300.0(Penetrate)
G01 X8.359871 Y24.156110 Z-0.050000 F150.000000
G01 X9.266747 Y24.156110 Z-0.050000
G01 X9.266747 Y22.656450 Z-0.050000
G01 X12.078541 Y22.656450 Z-0.050000
G01 X12.078541 Y18.869450 Z-0.050000
G01 X8.906876 Y18.869450 Z-0.050000
G01 X8.906876 Y17.102810 Z-0.050000
G01 X14.503274 Y17.102810 Z-0.050000
G01 X14.503274 Y19.785900 Z-0.050000
G01 X13.210935 Y19.801100 Z-0.050000
G01 X13.170955 Y22.546680 Z-0.050000
G01 X14.503279 Y22.561880 Z-0.050000
G01 X14.503279 Y24.709120 Z-0.050000
G01 X13.490837 Y24.709120 Z-0.050000
G01 X13.518027 Y27.437610 Z-0.050000
G01 X16.983986 Y27.437610 Z-0.050000
G01 X17.036776 Y24.614400 Z-0.050000
G01 X15.410159 Y24.644700 Z-0.050000
G01 X15.410159 Y22.561840 Z-0.050000
G01 X16.624123 Y22.546640 Z-0.050000
G01 X16.624123 Y19.833250 Z-0.050000
G01 X15.410159 Y19.816150 Z-0.050000
G01 X15.410159 Y16.029170 Z-0.050000
G01 X8.000000 Y16.029170 Z-0.050000
G01 X8.000000 Y19.943030 Z-0.050000
G01 X11.171665 Y19.943030 Z-0.050000
G01 X11.171665 Y21.582810 Z-0.050000
G01 X8.359871 Y21.582840 Z-0.050000
G00 Z1.000000

(End cutting path id: polygon2662-5)


(Start cutting path id: path3227)
(Change tool to Cylindrical cutter)

G00 Z1.000000
G00 X5.000000 Y65.000000

G00 Z4.950000 (Fast pre-penetrate)
G01 Z-0.050000 F300.0(Penetrate)
G01 X15.000000 Y47.500000 Z-0.050000 F150.000000
G00 Z1.000000

(End cutting path id: path3227)


(Start cutting path id: polygon2662)
(Change tool to Cylindrical cutter)

G00 Z1.000000
G00 X1.317716 Y11.023080

G00 Z4.950000 (Fast pre-penetrate)
G01 Z-0.050000 F300.0(Penetrate)
G01 X1.317716 Y12.771020 Z-0.050000 F150.000000
G01 X1.949417 Y12.771020 Z-0.050000
G01 X1.949417 Y11.752350 Z-0.050000
G01 X3.908023 Y11.752350 Z-0.050000
G01 X3.908023 Y9.179960 Z-0.050000
G01 X1.698742 Y9.179960 Z-0.050000
G01 X1.698742 Y7.979940 Z-0.050000
G01 X5.597015 Y7.979940 Z-0.050000
G01 X5.597015 Y9.802480 Z-0.050000
G01 X4.696813 Y9.812780 Z-0.050000
G01 X4.668960 Y11.677770 Z-0.050000
G01 X5.597014 Y11.688070 Z-0.050000
G01 X5.597014 Y13.146620 Z-0.050000
G01 X4.891783 Y13.146620 Z-0.050000
G01 X4.910723 Y15.000000 Z-0.050000
G01 X7.325000 Y15.000000 Z-0.050000
G01 X7.361770 Y13.082280 Z-0.050000
G01 X6.228720 Y13.102880 Z-0.050000
G01 X6.228720 Y11.688060 Z-0.050000
G01 X7.074329 Y11.677760 Z-0.050000
G01 X7.074329 Y9.834640 Z-0.050000
G01 X6.228720 Y9.823040 Z-0.050000
G01 X6.228720 Y7.250650 Z-0.050000
G01 X1.067042 Y7.250650 Z-0.050000
G01 X1.067042 Y9.909210 Z-0.050000
G01 X3.276323 Y9.909210 Z-0.050000
G01 X3.276323 Y11.023060 Z-0.050000
G01 X1.317716 Y11.023080 Z-0.050000
G00 Z1.000000

(End cutting path id: polygon2662)



(Footer)
M5
G00 X0.0000 Y0.0000
M2
(Using default footer. To add your own footer create file "footer" in the output dir.)
(end)
%